;START_OF_HEADER
;HEADER_VERSION:0.1
;FLAVOR:Griffin
;GENERATOR.NAME:Cura_SteamEngine
;GENERATOR.VERSION:4.7.1
;GENERATOR.BUILD_DATE:2020-09-02
;TARGET_MACHINE.NAME:Ultimaker 3
;EXTRUDER_TRAIN.0.INITIAL_TEMPERATURE:205
;EXTRUDER_TRAIN.0.MATERIAL.VOLUME_USED:15626
;EXTRUDER_TRAIN.0.MATERIAL.GUID:506c9f0d-e3aa-4bd4-b2d2-23e2425b1aa9
;EXTRUDER_TRAIN.0.NOZZLE.DIAMETER:0.4
;EXTRUDER_TRAIN.0.NOZZLE.NAME:AA 0.4
;BUILD_PLATE.TYPE:glass
;BUILD_PLATE.INITIAL_TEMPERATURE:60
;PRINT.TIME:9843
;PRINT.GROUPS:1
;PRINT.SIZE.MIN.X:9
;PRINT.SIZE.MIN.Y:6
;PRINT.SIZE.MIN.Z:0.27
;PRINT.SIZE.MAX.X:152.405
;PRINT.SIZE.MAX.Y:186.865
;PRINT.SIZE.MAX.Z:2.27
;END_OF_HEADER
;Generated with Cura_SteamEngine 4.7.1
T0
M82 ;absolute extrusion mode

G92 E0
M109 S205
G0 F15000 X9 Y6 Z2
G280
G1 F1500 E-6.5
;LAYER_COUNT:12
;LAYER:0
M107
M204 S625
M205 X6 Y6
G1 F600 Z2.27
G0 F3750 X81.65 Y52.989 Z2.27
M204 S500
M205 X5 Y5
;TYPE:SKIRT
G1 F600 Z0.27
G1 F1500 E0
G1 F1200 X82.234 Y52.123 E0.01857
G1 X82.397 Y51.917 E0.02324
G1 X82.89 Y51.359 E0.03647
G1 X83.691 Y50.66 E0.05537
G1 X83.899 Y50.505 E0.05998
G1 X84.519 Y50.093 E0.07321
G1 X85.517 Y49.608 E0.09294
G1 X85.76 Y49.513 E0.09758
G1 X86.466 Y49.279 E0.1108
G1 X87.382 Y49.096 E0.1274
G1 X87.626 Y49.064 E0.13178
G1 X88.527 Y49.005 E0.14783
G1 X100.579 Y49.005 E0.36206
G1 X100.545 Y35.082 E0.60956
G1 X100.583 Y34.338 E0.6228
G1 X100.701 Y33.603 E0.63603
G1 X100.897 Y32.885 E0.64926
G1 X101.168 Y32.192 E0.66249
G1 X101.513 Y31.533 E0.67571
G1 X101.926 Y30.914 E0.68894
G1 X102.403 Y30.342 E0.70218
G1 X102.939 Y29.826 E0.71541
G1 X103.527 Y29.369 E0.72864
G1 X104.161 Y28.979 E0.74188
G1 X104.833 Y28.659 E0.75511
G1 X105.535 Y28.412 E0.76834
G1 X106.26 Y28.242 E0.78157
G1 X106.998 Y28.151 E0.79479
G1 X107.475 Y28.135 E0.80327
G1 X145.475 Y28.135 E1.47876
G1 X146.218 Y28.175 E1.49199
G1 X146.953 Y28.294 E1.50522
G1 X147.671 Y28.492 E1.51846
G1 X148.363 Y28.765 E1.53169
G1 X149.022 Y29.111 E1.54492
G1 X149.64 Y29.526 E1.55815
G1 X150.21 Y30.005 E1.57139
G1 X150.725 Y30.542 E1.58461
G1 X151.18 Y31.131 E1.59784
G1 X151.569 Y31.765 E1.61106
G1 X151.888 Y32.438 E1.6243
G1 X152.133 Y33.141 E1.63754
G1 X152.301 Y33.866 E1.65077
G1 X152.39 Y34.605 E1.664
G1 X152.405 Y35.065 E1.67218
G1 X152.405 Y159.009 E3.8754
G1 X152.372 Y159.686 E3.88745
G1 X152.276 Y160.664 E3.90492
G1 X152.163 Y161.4 E3.91816
G1 X152.011 Y161.997 E3.92911
G1 X151.727 Y162.934 E3.94651
G1 X151.473 Y163.634 E3.95975
G1 X151.205 Y164.194 E3.97079
G1 X150.741 Y165.061 E3.98827
G1 X150.355 Y165.697 E4.00149
G1 X149.983 Y166.194 E4.01253
G1 X149.361 Y166.95 E4.02993
G1 X148.905 Y167.451 E4.04197
G1 X132.951 Y183.378 E4.4427
G1 X132.449 Y183.833 E4.45474
G1 X131.694 Y184.452 E4.4721
G1 X131.094 Y184.892 E4.48532
G1 X130.564 Y185.206 E4.49627
G1 X129.697 Y185.669 E4.51375
G1 X129.023 Y185.984 E4.52697
G1 X128.441 Y186.189 E4.53794
G1 X127.506 Y186.472 E4.5553
G1 X126.783 Y186.649 E4.56854
G1 X126.176 Y186.736 E4.57944
G1 X125.199 Y186.832 E4.59689
G1 X124.521 Y186.865 E4.60895
G1 X87.525 Y186.865 E5.26659
G1 X86.782 Y186.825 E5.27982
G1 X86.047 Y186.706 E5.29306
G1 X85.329 Y186.508 E5.3063
G1 X84.637 Y186.235 E5.31952
G1 X83.978 Y185.889 E5.33275
G1 X83.36 Y185.474 E5.34598
G1 X82.79 Y184.995 E5.35922
G1 X82.275 Y184.458 E5.37244
G1 X81.82 Y183.869 E5.38567
G1 X81.431 Y183.235 E5.3989
G1 X81.112 Y182.562 E5.41213
G1 X80.867 Y181.859 E5.42537
G1 X80.699 Y181.134 E5.4386
G1 X80.61 Y180.395 E5.45183
G1 X80.595 Y179.935 E5.46001
G1 X80.595 Y56.937 E7.64642
G1 X80.672 Y55.909 E7.66474
G1 X80.714 Y55.629 E7.66978
G1 X80.863 Y54.9 E7.683
G1 X81.214 Y53.888 E7.70204
G1 X81.316 Y53.654 E7.70658
G1 X81.65 Y52.989 E7.71981
M204 S625
M205 X6 Y6
G0 F3750 X82.026 Y53.177
M204 S500
M205 X5 Y5
G1 F1200 X82.564 Y52.383 E7.73686
G1 X82.727 Y52.177 E7.74153
G1 X83.205 Y51.637 E7.75435
G1 X83.942 Y50.997 E7.7717
G1 X84.15 Y50.842 E7.77631
G1 X84.752 Y50.444 E7.78914
G1 X85.67 Y49.999 E7.80727
G1 X85.913 Y49.904 E7.81191
G1 X86.598 Y49.679 E7.82473
G1 X87.436 Y49.512 E7.83992
G1 X87.68 Y49.48 E7.84429
G1 X88.527 Y49.425 E7.85938
G1 X101 Y49.425 E8.0811
G1 X100.965 Y35.081 E8.33608
G1 X101.003 Y34.36 E8.34891
G1 X101.121 Y33.649 E8.36172
G1 X101.317 Y32.954 E8.37456
G1 X101.588 Y32.286 E8.38738
G1 X101.932 Y31.652 E8.4002
G1 X102.343 Y31.059 E8.41302
G1 X102.818 Y30.516 E8.42585
G1 X103.35 Y30.029 E8.43867
G1 X103.932 Y29.603 E8.45149
G1 X104.559 Y29.245 E8.46432
G1 X105.22 Y28.958 E8.47713
G1 X105.91 Y28.746 E8.48996
G1 X106.619 Y28.612 E8.50279
G1 X107.475 Y28.555 E8.51804
G1 X145.475 Y28.555 E9.19353
G1 X146.195 Y28.595 E9.20635
G1 X146.907 Y28.714 E9.21918
G1 X147.601 Y28.912 E9.23201
G1 X148.268 Y29.185 E9.24482
G1 X148.902 Y29.53 E9.25765
G1 X149.493 Y29.943 E9.27047
G1 X150.035 Y30.419 E9.28329
G1 X150.521 Y30.952 E9.29611
G1 X150.945 Y31.536 E9.30894
G1 X151.302 Y32.163 E9.32176
G1 X151.588 Y32.825 E9.33458
G1 X151.798 Y33.515 E9.3474
G1 X151.93 Y34.224 E9.36022
G1 X151.985 Y35.065 E9.37521
G1 X151.985 Y159.009 E11.57843
G1 X151.954 Y159.645 E11.58975
G1 X151.858 Y160.623 E11.60722
G1 X151.748 Y161.336 E11.62004
G1 X151.609 Y161.875 E11.62994
G1 X151.325 Y162.812 E11.64734
G1 X151.078 Y163.49 E11.66017
G1 X150.835 Y163.996 E11.67015
G1 X150.371 Y164.863 E11.68763
G1 X149.996 Y165.479 E11.70045
G1 X149.658 Y165.927 E11.71042
G1 X149.036 Y166.683 E11.72782
G1 X148.608 Y167.154 E11.73914
G1 X132.654 Y183.081 E12.13987
G1 X132.182 Y183.508 E12.15118
G1 X131.427 Y184.127 E12.16854
G1 X130.845 Y184.553 E12.18136
G1 X130.367 Y184.835 E12.19122
G1 X129.5 Y185.298 E12.20869
G1 X128.845 Y185.603 E12.22154
G1 X128.319 Y185.787 E12.23144
G1 X127.384 Y186.07 E12.24881
G1 X126.683 Y186.24 E12.26163
G1 X126.135 Y186.318 E12.27147
G1 X125.158 Y186.414 E12.28892
G1 X124.521 Y186.445 E12.30026
G1 X87.525 Y186.445 E12.9579
G1 X86.805 Y186.405 E12.97072
G1 X86.093 Y186.286 E12.98355
G1 X85.399 Y186.088 E12.99638
G1 X84.732 Y185.815 E13.00919
G1 X84.098 Y185.47 E13.02202
G1 X83.507 Y185.057 E13.03483
G1 X82.965 Y184.581 E13.04766
G1 X82.479 Y184.048 E13.06048
G1 X82.055 Y183.464 E13.07331
G1 X81.698 Y182.837 E13.08613
G1 X81.412 Y182.175 E13.09895
G1 X81.202 Y181.485 E13.11177
G1 X81.07 Y180.776 E13.12459
G1 X81.015 Y179.935 E13.13957
G1 X81.015 Y56.937 E15.32598
G1 X81.087 Y55.971 E15.3432
G1 X81.129 Y55.691 E15.34824
G1 X81.275 Y54.985 E15.36105
G1 X81.599 Y54.056 E15.37854
G1 X81.701 Y53.822 E15.38308
G1 X82.026 Y53.177 E15.39592
M204 S625
M205 X6 Y6
G0 F3750 X82.401 Y53.367
M204 S500
M205 X5 Y5
G1 F1200 X82.893 Y52.644 E15.41146
G1 X83.056 Y52.438 E15.41613
G1 X83.52 Y51.917 E15.42853
G1 X84.193 Y51.334 E15.44436
G1 X84.401 Y51.179 E15.44897
G1 X84.983 Y50.795 E15.46137
G1 X85.823 Y50.39 E15.47794
G1 X86.066 Y50.295 E15.48258
G1 X86.729 Y50.079 E15.49498
G1 X87.491 Y49.929 E15.50878
G1 X87.735 Y49.897 E15.51316
G1 X88.527 Y49.845 E15.52727
G1 X101.421 Y49.845 E15.75647
G1 X101.385 Y35.08 E16.01893
G1 X101.423 Y34.383 E16.03134
G1 X101.541 Y33.695 E16.04375
G1 X101.737 Y33.026 E16.05614
G1 X102.008 Y32.383 E16.06854
G1 X102.35 Y31.775 E16.08094
G1 X102.76 Y31.21 E16.09335
G1 X103.232 Y30.696 E16.10576
G1 X103.76 Y30.24 E16.11816
G1 X104.336 Y29.846 E16.13057
G1 X104.953 Y29.522 E16.14295
G1 X105.604 Y29.27 E16.15536
G1 X106.279 Y29.094 E16.16776
G1 X106.97 Y28.996 E16.18017
G1 X107.475 Y28.975 E16.18915
G1 X145.475 Y28.975 E16.86464
G1 X146.172 Y29.015 E16.87705
G1 X146.859 Y29.134 E16.88944
G1 X147.528 Y29.332 E16.90185
G1 X148.171 Y29.604 E16.91426
G1 X148.777 Y29.948 E16.92664
G1 X149.341 Y30.36 E16.93906
G1 X149.854 Y30.833 E16.95146
G1 X150.309 Y31.361 E16.96385
G1 X150.701 Y31.938 E16.97625
G1 X151.024 Y32.557 E16.98866
G1 X151.275 Y33.208 E17.00107
G1 X151.449 Y33.884 E17.01347
G1 X151.545 Y34.575 E17.02588
G1 X151.565 Y35.065 E17.03459
G1 X151.565 Y159.009 E19.23782
G1 X151.536 Y159.604 E19.24841
G1 X151.44 Y160.582 E19.26588
G1 X151.332 Y161.271 E19.27827
G1 X151.207 Y161.753 E19.28713
G1 X150.923 Y162.69 E19.30453
G1 X150.683 Y163.346 E19.31695
G1 X150.464 Y163.798 E19.32587
G1 X150 Y164.665 E19.34336
G1 X149.636 Y165.26 E19.35575
G1 X149.334 Y165.66 E19.36466
G1 X148.712 Y166.416 E19.38207
G1 X148.312 Y166.857 E19.39265
G1 X132.358 Y182.784 E19.79338
G1 X131.916 Y183.184 E19.80397
G1 X131.161 Y183.803 E19.82133
G1 X130.597 Y184.213 E19.83372
G1 X130.169 Y184.465 E19.84255
G1 X129.302 Y184.928 E19.86003
G1 X128.669 Y185.221 E19.87242
G1 X128.197 Y185.385 E19.88131
G1 X127.262 Y185.668 E19.89867
G1 X126.584 Y185.831 E19.91107
G1 X126.094 Y185.9 E19.91986
G1 X125.117 Y185.996 E19.93731
G1 X124.521 Y186.025 E19.94792
G1 X87.525 Y186.025 E20.60556
G1 X86.828 Y185.985 E20.61797
G1 X86.141 Y185.866 E20.63037
G1 X85.472 Y185.668 E20.64277
G1 X84.829 Y185.396 E20.65518
G1 X84.223 Y185.052 E20.66756
G1 X83.659 Y184.64 E20.67998
G1 X83.146 Y184.167 E20.69238
G1 X82.691 Y183.639 E20.70477
G1 X82.299 Y183.062 E20.71717
G1 X81.976 Y182.443 E20.72959
G1 X81.725 Y181.792 E20.74199
G1 X81.551 Y181.116 E20.7544
G1 X81.455 Y180.425 E20.7668
G1 X81.435 Y179.935 E20.77551
G1 X81.435 Y56.937 E22.96192
G1 X81.502 Y56.034 E22.97802
G1 X81.544 Y55.754 E22.98305
G1 X81.687 Y55.071 E22.99546
G1 X81.984 Y54.224 E23.01141
G1 X82.086 Y53.99 E23.01595
G1 X82.401 Y53.367 E23.02836
M204 S625
M205 X6 Y6
G0 F3750 X82.776 Y53.557
M204 S500
M205 X5 Y5
G1 F1200 X83.223 Y52.905 E23.04241
G1 X83.386 Y52.699 E23.04708
G1 X83.834 Y52.197 E23.05904
G1 X84.444 Y51.671 E23.07336
G1 X84.652 Y51.516 E23.07797
G1 X85.215 Y51.146 E23.08995
G1 X85.975 Y50.781 E23.10493
G1 X86.218 Y50.686 E23.10957
G1 X86.859 Y50.479 E23.12154
G1 X87.546 Y50.345 E23.13399
G1 X87.79 Y50.313 E23.13836
G1 X88.527 Y50.265 E23.15149
G1 X101.842 Y50.265 E23.38818
G1 X101.805 Y35.079 E23.65812
G1 X101.843 Y34.407 E23.67009
G1 X101.961 Y33.744 E23.68206
G1 X102.157 Y33.1 E23.69403
G1 X102.427 Y32.483 E23.706
G1 X102.769 Y31.903 E23.71797
G1 X103.177 Y31.367 E23.72994
G1 X103.645 Y30.884 E23.7419
G1 X104.168 Y30.46 E23.75386
G1 X104.737 Y30.1 E23.76583
G1 X105.344 Y29.81 E23.77779
G1 X105.982 Y29.595 E23.78976
G1 X106.641 Y29.457 E23.80173
G1 X107.475 Y29.395 E23.81659
G1 X145.475 Y29.395 E24.49208
G1 X146.147 Y29.435 E24.50405
G1 X146.81 Y29.554 E24.51602
G1 X147.453 Y29.751 E24.52798
G1 X148.069 Y30.023 E24.53995
G1 X148.648 Y30.366 E24.55191
G1 X149.183 Y30.775 E24.56388
G1 X149.665 Y31.245 E24.57585
G1 X150.088 Y31.769 E24.58782
G1 X150.447 Y32.339 E24.59979
G1 X150.735 Y32.947 E24.61175
G1 X150.949 Y33.585 E24.62371
G1 X151.085 Y34.245 E24.63569
G1 X151.145 Y35.065 E24.65031
G1 X151.145 Y159.009 E26.85353
G1 X151.118 Y159.563 E26.86339
G1 X151.022 Y160.541 E26.88086
G1 X150.916 Y161.206 E26.89283
G1 X150.805 Y161.632 E26.90066
G1 X150.521 Y162.569 E26.91806
G1 X150.288 Y163.2 E26.93002
G1 X150.094 Y163.599 E26.9379
G1 X149.63 Y164.466 E26.95538
G1 X149.278 Y165.04 E26.96735
G1 X149.01 Y165.393 E26.97523
G1 X148.388 Y166.149 E26.99263
G1 X148.015 Y166.56 E27.0025
G1 X132.061 Y182.487 E27.40323
G1 X131.65 Y182.859 E27.41308
G1 X130.895 Y183.478 E27.43044
G1 X130.35 Y183.873 E27.4424
G1 X129.971 Y184.095 E27.45021
G1 X129.104 Y184.558 E27.46768
G1 X128.492 Y184.839 E27.47965
G1 X128.076 Y184.983 E27.48748
G1 X127.141 Y185.266 E27.50484
G1 X126.486 Y185.422 E27.51681
G1 X126.052 Y185.482 E27.5246
G1 X125.075 Y185.578 E27.54205
G1 X124.521 Y185.605 E27.55191
G1 X87.525 Y185.605 E28.20955
G1 X86.853 Y185.565 E28.22152
G1 X86.19 Y185.446 E28.23349
G1 X85.547 Y185.249 E28.24545
G1 X84.931 Y184.977 E28.25742
G1 X84.352 Y184.634 E28.26938
G1 X83.817 Y184.225 E28.28135
G1 X83.335 Y183.755 E28.29332
G1 X82.912 Y183.231 E28.30529
G1 X82.553 Y182.661 E28.31726
G1 X82.265 Y182.053 E28.32922
G1 X82.051 Y181.415 E28.34118
G1 X81.915 Y180.755 E28.35316
G1 X81.855 Y179.935 E28.36778
G1 X81.855 Y56.937 E30.55419
G1 X81.918 Y56.096 E30.56918
G1 X81.96 Y55.816 E30.57421
G1 X82.099 Y55.157 E30.58618
G1 X82.369 Y54.391 E30.60062
G1 X82.471 Y54.157 E30.60516
G1 X82.776 Y53.557 E30.61712
M204 S625
M205 X6 Y6
G0 F3750 X83.151 Y53.748
M204 S500
M205 X5 Y5
G1 F1200 X83.552 Y53.165 E30.6297
G1 X83.715 Y52.959 E30.63437
G1 X84.147 Y52.477 E30.64588
G1 X84.695 Y52.007 E30.65871
G1 X84.903 Y51.852 E30.66332
G1 X85.445 Y51.498 E30.67483
G1 X86.128 Y51.172 E30.68828
G1 X86.371 Y51.077 E30.69292
G1 X86.988 Y50.879 E30.70444
G1 X87.6 Y50.762 E30.71551
G1 X87.844 Y50.73 E30.71989
G1 X88.527 Y50.685 E30.73205
G1 X102.263 Y50.685 E30.97623
G1 X102.225 Y35.078 E31.25366
G1 X102.263 Y34.431 E31.26518
G1 X102.381 Y33.794 E31.27669
G1 X102.576 Y33.176 E31.28821
G1 X102.846 Y32.588 E31.29971
G1 X103.187 Y32.036 E31.31125
G1 X103.592 Y31.531 E31.32275
G1 X104.057 Y31.08 E31.33427
G1 X104.574 Y30.69 E31.34578
G1 X105.135 Y30.366 E31.3573
G1 X105.731 Y30.113 E31.36881
G1 X106.354 Y29.936 E31.38032
G1 X106.994 Y29.837 E31.39183
G1 X107.475 Y29.815 E31.40039
G1 X145.475 Y29.815 E32.07588
G1 X146.122 Y29.855 E32.0874
G1 X146.758 Y29.974 E32.0989
G1 X147.375 Y30.171 E32.11042
G1 X147.964 Y30.442 E32.12194
G1 X148.514 Y30.784 E32.13345
G1 X149.018 Y31.191 E32.14497
G1 X149.468 Y31.657 E32.15648
G1 X149.857 Y32.174 E32.16799
G1 X150.18 Y32.736 E32.17951
G1 X150.431 Y33.333 E32.19102
G1 X150.607 Y33.957 E32.20254
G1 X150.704 Y34.597 E32.21405
G1 X150.725 Y35.065 E32.22238
G1 X150.725 Y159.009 E34.4256
G1 X150.7 Y159.522 E34.43473
G1 X150.604 Y160.5 E34.4522
G1 X150.501 Y161.139 E34.46371
G1 X150.403 Y161.51 E34.47053
G1 X150.119 Y162.447 E34.48793
G1 X149.894 Y163.054 E34.49944
G1 X149.724 Y163.401 E34.50631
G1 X149.26 Y164.268 E34.52379
G1 X148.919 Y164.819 E34.53531
G1 X148.685 Y165.127 E34.54218
G1 X148.063 Y165.883 E34.55959
G1 X147.718 Y166.262 E34.5687
G1 X131.764 Y182.189 E34.96943
G1 X131.384 Y182.534 E34.97855
G1 X130.629 Y183.153 E34.9959
G1 X130.103 Y183.532 E35.00743
G1 X129.773 Y183.724 E35.01422
G1 X128.906 Y184.187 E35.03169
G1 X128.317 Y184.456 E35.0432
G1 X127.954 Y184.581 E35.05002
G1 X127.019 Y184.864 E35.06739
G1 X126.389 Y185.013 E35.0789
G1 X126.011 Y185.064 E35.08568
G1 X125.034 Y185.16 E35.10313
G1 X124.521 Y185.185 E35.11226
G1 X87.525 Y185.185 E35.7699
G1 X86.878 Y185.145 E35.78142
G1 X86.242 Y185.026 E35.79292
G1 X85.625 Y184.829 E35.80443
G1 X85.036 Y184.558 E35.81596
G1 X84.486 Y184.216 E35.82747
G1 X83.982 Y183.809 E35.83899
G1 X83.532 Y183.343 E35.8505
G1 X83.143 Y182.826 E35.862
G1 X82.82 Y182.264 E35.87353
G1 X82.569 Y181.667 E35.88504
G1 X82.393 Y181.043 E35.89656
G1 X82.296 Y180.403 E35.90807
G1 X82.275 Y179.935 E35.9164
G1 X82.275 Y56.937 E38.10281
G1 X82.333 Y56.158 E38.11669
G1 X82.375 Y55.878 E38.12173
G1 X82.511 Y55.245 E38.13323
G1 X82.754 Y54.559 E38.14617
G1 X82.856 Y54.325 E38.15071
G1 X83.151 Y53.748 E38.16223
M204 S625
M205 X6 Y6
G0 F3750 X83.526 Y53.941
M204 S500
M205 X5 Y5
G1 F1200 X83.881 Y53.426 E38.17335
G1 X84.044 Y53.22 E38.17802
G1 X84.46 Y52.759 E38.18906
G1 X84.946 Y52.344 E38.20042
G1 X85.154 Y52.189 E38.20503
G1 X85.675 Y51.851 E38.21607
G1 X86.281 Y51.564 E38.22799
G1 X86.524 Y51.469 E38.23262
G1 X87.116 Y51.28 E38.24367
G1 X87.655 Y51.178 E38.25342
G1 X87.899 Y51.146 E38.2578
G1 X88.527 Y51.105 E38.26898
G1 X102.684 Y51.105 E38.52064
G1 X102.645 Y35.077 E38.80555
G1 X102.683 Y34.457 E38.81659
G1 X102.801 Y33.847 E38.82764
G1 X102.996 Y33.257 E38.83868
G1 X103.265 Y32.697 E38.84973
G1 X103.604 Y32.176 E38.86078
G1 X104.007 Y31.703 E38.87182
G1 X104.467 Y31.286 E38.88286
G1 X104.977 Y30.931 E38.8939
G1 X105.529 Y30.644 E38.90496
G1 X106.112 Y30.431 E38.916
G1 X106.718 Y30.295 E38.92704
G1 X107.475 Y30.235 E38.94054
G1 X145.475 Y30.235 E39.61602
G1 X146.095 Y30.275 E39.62707
G1 X146.705 Y30.394 E39.63811
G1 X147.294 Y30.591 E39.64916
G1 X147.853 Y30.861 E39.66019
G1 X148.373 Y31.201 E39.67123
G1 X148.845 Y31.605 E39.68228
G1 X149.262 Y32.067 E39.69334
G1 X149.615 Y32.577 E39.70437
G1 X149.9 Y33.129 E39.71541
G1 X150.112 Y33.714 E39.72647
G1 X150.247 Y34.32 E39.73751
G1 X150.305 Y35.065 E39.75079
G1 X150.305 Y159.009 E41.95402
G1 X150.282 Y159.481 E41.96242
G1 X150.186 Y160.459 E41.97988
G1 X150.086 Y161.072 E41.99093
G1 X150.001 Y161.388 E41.99674
G1 X149.717 Y162.325 E42.01415
G1 X149.499 Y162.907 E42.02519
G1 X149.353 Y163.203 E42.03106
G1 X148.889 Y164.07 E42.04854
G1 X148.562 Y164.598 E42.05958
G1 X148.361 Y164.86 E42.06545
G1 X147.739 Y165.616 E42.08285
G1 X147.421 Y165.965 E42.09125
G1 X131.467 Y181.892 E42.49197
G1 X131.117 Y182.209 E42.50037
G1 X130.362 Y182.828 E42.51772
G1 X129.858 Y183.19 E42.52875
G1 X129.575 Y183.354 E42.53457
G1 X128.708 Y183.817 E42.55204
G1 X128.143 Y184.073 E42.56307
G1 X127.832 Y184.179 E42.56891
G1 X126.897 Y184.462 E42.58627
G1 X126.292 Y184.603 E42.59732
G1 X125.97 Y184.646 E42.60309
G1 X124.993 Y184.742 E42.62054
G1 X124.521 Y184.765 E42.62894
G1 X87.525 Y184.765 E43.28658
G1 X86.905 Y184.725 E43.29762
G1 X86.295 Y184.606 E43.30867
G1 X85.706 Y184.409 E43.31971
G1 X85.147 Y184.139 E43.33075
G1 X84.627 Y183.799 E43.34179
G1 X84.155 Y183.395 E43.35284
G1 X83.738 Y182.933 E43.3639
G1 X83.385 Y182.423 E43.37492
G1 X83.1 Y181.871 E43.38597
G1 X82.888 Y181.286 E43.39703
G1 X82.753 Y180.68 E43.40806
G1 X82.695 Y179.935 E43.42135
G1 X82.695 Y56.937 E45.60776
G1 X82.748 Y56.221 E45.62052
G1 X82.79 Y55.941 E45.62555
G1 X82.922 Y55.333 E45.63661
G1 X83.139 Y54.727 E45.64805
G1 X83.241 Y54.493 E45.65259
G1 X83.526 Y53.941 E45.66363
M204 S625
M205 X6 Y6
G0 F3750 X83.9 Y54.134
M204 S500
M205 X5 Y5
G1 F1200 X84.211 Y53.687 E45.67331
G1 X84.374 Y53.481 E45.67798
G1 X84.773 Y53.041 E45.68854
G1 X85.197 Y52.681 E45.69843
G1 X85.405 Y52.526 E45.70304
G1 X85.904 Y52.204 E45.7136
G1 X86.434 Y51.955 E45.72401
G1 X86.677 Y51.86 E45.72864
G1 X87.243 Y51.681 E45.7392
G1 X87.954 Y51.562 E45.75201
G1 X88.527 Y51.525 E45.76222
G1 X103.105 Y51.525 E46.02136
G1 X103.065 Y35.076 E46.31375
G1 X103.104 Y34.483 E46.32432
G1 X103.221 Y33.901 E46.33487
G1 X103.416 Y33.341 E46.34541
G1 X103.684 Y32.811 E46.35597
G1 X104.021 Y32.322 E46.36653
G1 X104.421 Y31.884 E46.37707
G1 X104.876 Y31.502 E46.38763
G1 X105.378 Y31.185 E46.39818
G1 X105.918 Y30.939 E46.40873
G1 X106.486 Y30.767 E46.41928
G1 X107.073 Y30.673 E46.42985
G1 X107.475 Y30.655 E46.437
G1 X145.475 Y30.655 E47.11249
G1 X146.067 Y30.695 E47.12304
G1 X146.649 Y30.814 E47.1336
G1 X147.209 Y31.01 E47.14414
G1 X147.738 Y31.28 E47.1547
G1 X148.226 Y31.618 E47.16525
G1 X148.664 Y32.019 E47.17581
G1 X149.044 Y32.475 E47.18636
G1 X149.36 Y32.978 E47.19692
G1 X149.605 Y33.518 E47.20746
G1 X149.775 Y34.087 E47.21802
G1 X149.868 Y34.673 E47.22856
G1 X149.885 Y35.065 E47.23554
G1 X149.885 Y159.009 E49.43876
G1 X149.864 Y159.44 E49.44644
G1 X149.768 Y160.418 E49.4639
G1 X149.599 Y161.266 E49.47927
G1 X149.315 Y162.203 E49.49668
G1 X148.983 Y163.005 E49.51211
G1 X148.519 Y163.872 E49.52959
G1 X148.037 Y164.593 E49.545
G1 X147.415 Y165.349 E49.56241
G1 X147.125 Y165.668 E49.57007
G1 X131.171 Y181.595 E49.9708
G1 X130.851 Y181.884 E49.97846
G1 X130.096 Y182.503 E49.99582
G1 X129.377 Y182.983 E50.01119
G1 X128.51 Y183.446 E50.02866
G1 X127.711 Y183.777 E50.04403
G1 X126.776 Y184.06 E50.0614
G1 X125.929 Y184.228 E50.07675
G1 X124.952 Y184.324 E50.0942
G1 X124.521 Y184.345 E50.10187
G1 X87.525 Y184.345 E50.75951
G1 X86.933 Y184.305 E50.77006
G1 X86.351 Y184.186 E50.78061
G1 X85.791 Y183.99 E50.79116
G1 X85.262 Y183.72 E50.80172
G1 X84.774 Y183.382 E50.81227
G1 X84.336 Y182.981 E50.82283
G1 X83.956 Y182.525 E50.83338
G1 X83.64 Y182.022 E50.84394
G1 X83.395 Y181.482 E50.85448
G1 X83.225 Y180.913 E50.86504
G1 X83.132 Y180.327 E50.87558
G1 X83.115 Y179.935 E50.88256
G1 X83.115 Y56.937 E53.06897
G1 X83.164 Y56.283 E53.08062
G1 X83.206 Y56.003 E53.08566
G1 X83.333 Y55.423 E53.09621
G1 X83.524 Y54.895 E53.10619
G1 X83.626 Y54.661 E53.11073
G1 X83.9 Y54.134 E53.12129
M204 S625
M205 X6 Y6
G0 F3750 X84.273 Y54.328
M204 S500
M205 X5 Y5
G1 F1200 X84.703 Y53.741 E53.13422
G1 X85.084 Y53.324 E53.14426
G1 X85.656 Y52.863 E53.15732
G1 X86.131 Y52.558 E53.16736
G1 X86.587 Y52.346 E53.1763
G1 X86.83 Y52.251 E53.18093
G1 X87.369 Y52.083 E53.19097
G1 X88.008 Y51.979 E53.20248
G1 X88.527 Y51.945 E53.21172
G1 X103.526 Y51.945 E53.47835
G1 X103.485 Y35.075 E53.77823
G1 X103.524 Y34.511 E53.78828
G1 X103.641 Y33.959 E53.79831
G1 X103.836 Y33.429 E53.80835
G1 X104.103 Y32.932 E53.81838
G1 X104.438 Y32.477 E53.82842
G1 X104.834 Y32.074 E53.83846
G1 X105.282 Y31.731 E53.84849
G1 X105.775 Y31.455 E53.85854
G1 X106.301 Y31.252 E53.86856
G1 X106.851 Y31.124 E53.8786
G1 X107.475 Y31.075 E53.88972
G1 X145.475 Y31.075 E54.56521
G1 X146.038 Y31.115 E54.57524
G1 X146.59 Y31.234 E54.58528
G1 X147.12 Y31.43 E54.59532
G1 X147.616 Y31.698 E54.60535
G1 X148.07 Y32.034 E54.61539
G1 X148.472 Y32.431 E54.62543
G1 X148.814 Y32.88 E54.63546
G1 X149.089 Y33.374 E54.64551
G1 X149.291 Y33.901 E54.65555
G1 X149.417 Y34.451 E54.66558
G1 X149.465 Y35.065 E54.67652
G1 X149.465 Y159.009 E56.87975
G1 X149.446 Y159.399 E56.88669
G1 X149.35 Y160.377 E56.90416
G1 X149.197 Y161.144 E56.91806
G1 X148.913 Y162.081 E56.93547
G1 X148.613 Y162.807 E56.94943
G1 X148.149 Y163.674 E56.96691
G1 X147.712 Y164.326 E56.98086
G1 X147.09 Y165.082 E56.99826
G1 X146.828 Y165.371 E57.0052
G1 X130.874 Y181.298 E57.40593
G1 X130.585 Y181.56 E57.41286
G1 X129.83 Y182.179 E57.43022
G1 X129.18 Y182.613 E57.44411
G1 X128.313 Y183.076 E57.46158
G1 X127.589 Y183.375 E57.47551
G1 X126.654 Y183.658 E57.49287
G1 X125.888 Y183.81 E57.50675
G1 X124.911 Y183.906 E57.5242
G1 X124.521 Y183.925 E57.53114
G1 X87.525 Y183.925 E58.18878
G1 X86.962 Y183.885 E58.19882
G1 X86.41 Y183.766 E58.20885
G1 X85.88 Y183.57 E58.2189
G1 X85.384 Y183.302 E58.22892
G1 X84.93 Y182.966 E58.23896
G1 X84.528 Y182.569 E58.249
G1 X84.186 Y182.12 E58.25904
G1 X83.911 Y181.626 E58.26909
G1 X83.709 Y181.099 E58.27912
G1 X83.583 Y180.549 E58.28915
G1 X83.535 Y179.935 E58.3001
G1 X83.535 Y56.937 E60.48651
G1 X83.579 Y56.345 E60.49706
G1 X83.621 Y56.065 E60.50209
G1 X83.744 Y55.514 E60.51213
G1 X84.011 Y54.829 E60.5252
G1 X84.273 Y54.328 E60.53525
M204 S625
M205 X6 Y6
G0 F3750 X84.646 Y54.524
M204 S500
M205 X5 Y5
G1 F1200 X85.032 Y54.002 E60.54679
G1 X85.394 Y53.609 E60.55629
G1 X85.907 Y53.199 E60.56796
G1 X86.358 Y52.913 E60.57745
G1 X86.983 Y52.642 E60.58956
G1 X87.494 Y52.485 E60.59906
G1 X88.063 Y52.395 E60.60931
G1 X88.527 Y52.365 E60.61757
G1 X103.947 Y52.365 E60.89168
G1 X103.905 Y35.074 E61.19904
G1 X103.944 Y34.541 E61.20854
G1 X104.061 Y34.02 E61.21803
G1 X104.255 Y33.523 E61.22752
G1 X104.522 Y33.06 E61.23702
G1 X104.854 Y32.641 E61.24652
G1 X105.245 Y32.277 E61.25602
G1 X105.685 Y31.976 E61.26549
G1 X106.166 Y31.744 E61.27499
G1 X106.676 Y31.585 E61.28448
G1 X107.204 Y31.505 E61.29397
G1 X107.475 Y31.495 E61.2988
G1 X145.475 Y31.495 E61.97428
G1 X146.008 Y31.535 E61.98378
G1 X146.528 Y31.654 E61.99327
G1 X147.025 Y31.849 E62.00276
G1 X147.488 Y32.116 E62.01226
G1 X147.905 Y32.45 E62.02175
G1 X148.268 Y32.841 E62.03124
G1 X148.568 Y33.283 E62.04073
G1 X148.8 Y33.764 E62.05023
G1 X148.956 Y34.275 E62.05972
G1 X149.045 Y35.065 E62.07386
G1 X149.045 Y159.009 E64.27708
G1 X149.028 Y159.358 E64.28329
G1 X148.932 Y160.336 E64.30076
G1 X148.796 Y161.023 E64.31321
G1 X148.512 Y161.96 E64.33061
G1 X148.243 Y162.609 E64.3431
G1 X147.779 Y163.476 E64.36058
G1 X147.388 Y164.059 E64.37306
G1 X146.766 Y164.815 E64.39046
G1 X146.531 Y165.074 E64.39668
G1 X130.577 Y181.001 E64.79741
G1 X130.318 Y181.235 E64.80361
G1 X129.563 Y181.854 E64.82097
G1 X128.982 Y182.242 E64.83339
G1 X128.115 Y182.705 E64.85086
G1 X127.467 Y182.973 E64.86333
G1 X126.532 Y183.256 E64.88069
G1 X125.847 Y183.392 E64.8931
G1 X124.87 Y183.488 E64.91056
G1 X124.521 Y183.505 E64.91677
G1 X87.525 Y183.505 E65.57441
G1 X86.992 Y183.465 E65.58391
G1 X86.472 Y183.346 E65.59339
G1 X85.975 Y183.151 E65.60288
G1 X85.512 Y182.884 E65.61238
G1 X85.095 Y182.55 E65.62188
G1 X84.732 Y182.159 E65.63136
G1 X84.432 Y181.717 E65.64086
G1 X84.2 Y181.236 E65.65035
G1 X84.044 Y180.725 E65.65985
G1 X83.955 Y179.935 E65.67398
G1 X83.955 Y56.937 E67.86039
G1 X83.994 Y56.407 E67.86984
G1 X84.036 Y56.127 E67.87487
G1 X84.155 Y55.607 E67.88435
G1 X84.396 Y54.996 E67.89603
G1 X84.646 Y54.524 E67.90552
M204 S625
M205 X6 Y6
G0 F3750 X85.018 Y54.722
M204 S500
M205 X5 Y5
G1 F1200 X85.362 Y54.262 E67.91573
G1 X85.703 Y53.895 E67.92464
G1 X86.158 Y53.536 E67.93494
G1 X86.583 Y53.269 E67.94386
G1 X87.136 Y53.033 E67.95455
G1 X87.616 Y52.888 E67.96346
G1 X88.117 Y52.812 E67.97247
G1 X88.527 Y52.785 E67.97977
G1 X104.368 Y52.785 E68.26136
G1 X104.325 Y35.073 E68.57621
G1 X104.364 Y34.573 E68.58513
G1 X104.481 Y34.085 E68.59405
G1 X104.675 Y33.622 E68.60297
G1 X104.939 Y33.196 E68.61188
G1 X105.268 Y32.817 E68.6208
G1 X105.653 Y32.495 E68.62972
G1 X106.084 Y32.239 E68.63864
G1 X106.55 Y32.054 E68.64755
G1 X107.04 Y31.945 E68.65647
G1 X107.475 Y31.915 E68.66422
G1 X145.475 Y31.915 E69.33971
G1 X145.975 Y31.955 E69.34863
G1 X146.462 Y32.074 E69.35754
G1 X146.925 Y32.268 E69.36646
G1 X147.35 Y32.534 E69.37537
G1 X147.728 Y32.864 E69.38429
G1 X148.049 Y33.249 E69.3932
G1 X148.305 Y33.681 E69.40213
G1 X148.488 Y34.148 E69.41105
G1 X148.596 Y34.637 E69.41995
G1 X148.625 Y35.065 E69.42757
G1 X148.625 Y159.009 E71.6308
G1 X148.61 Y159.317 E71.63628
G1 X148.514 Y160.295 E71.65375
G1 X148.394 Y160.901 E71.66473
G1 X148.11 Y161.838 E71.68213
G1 X147.872 Y162.41 E71.69315
G1 X147.408 Y163.277 E71.71063
G1 X147.064 Y163.792 E71.72164
G1 X146.442 Y164.548 E71.73904
G1 X146.234 Y164.776 E71.74452
G1 X130.28 Y180.703 E72.14525
G1 X130.052 Y180.91 E72.15073
G1 X129.297 Y181.529 E72.16808
G1 X128.784 Y181.872 E72.17905
G1 X127.917 Y182.335 E72.19652
G1 X127.346 Y182.571 E72.20751
G1 X126.411 Y182.854 E72.22487
G1 X125.806 Y182.974 E72.23584
G1 X124.829 Y183.07 E72.25329
G1 X124.521 Y183.085 E72.25877
G1 X87.525 Y183.085 E72.91641
G1 X87.025 Y183.045 E72.92532
G1 X86.538 Y182.926 E72.93424
G1 X86.075 Y182.732 E72.94316
G1 X85.65 Y182.466 E72.95207
G1 X85.272 Y182.136 E72.96099
G1 X84.951 Y181.751 E72.9699
G1 X84.695 Y181.319 E72.97883
G1 X84.512 Y180.852 E72.98774
G1 X84.404 Y180.363 E72.99665
G1 X84.375 Y179.935 E73.00427
G1 X84.375 Y56.937 E75.19068
G1 X84.452 Y56.19 E75.20403
G1 X84.566 Y55.701 E75.21296
G1 X84.781 Y55.164 E75.22324
G1 X85.018 Y54.722 E75.23215
M204 S625
M205 X6 Y6
G0 F3750 X85.389 Y54.922
M204 S500
M205 X5 Y5
G1 F1200 X85.691 Y54.523 E75.24105
G1 X86.201 Y54.028 E75.25368
G1 X86.806 Y53.627 E75.26658
G1 X87.289 Y53.424 E75.2759
G1 X87.928 Y53.26 E75.28763
G1 X88.527 Y53.205 E75.29832
G1 X104.789 Y53.205 E75.58739
G1 X104.745 Y35.072 E75.90972
G1 X104.784 Y34.606 E75.91804
G1 X104.901 Y34.154 E75.92634
G1 X105.094 Y33.729 E75.93463
G1 X105.357 Y33.343 E75.94294
G1 X105.681 Y33.007 E75.95123
G1 X106.058 Y32.732 E75.95953
G1 X106.476 Y32.524 E75.96783
G1 X106.924 Y32.391 E75.97613
G1 X107.475 Y32.335 E75.98598
G1 X145.475 Y32.335 E76.66147
G1 X145.94 Y32.375 E76.66976
G1 X146.392 Y32.494 E76.67807
G1 X146.817 Y32.687 E76.68637
G1 X147.202 Y32.951 E76.69467
G1 X147.537 Y33.276 E76.70296
G1 X147.812 Y33.654 E76.71127
G1 X148.018 Y34.072 E76.71956
G1 X148.15 Y34.52 E76.72786
G1 X148.205 Y35.065 E76.7376
G1 X148.205 Y159.009 E78.94082
G1 X148.192 Y159.276 E78.94557
G1 X148.096 Y160.254 E78.96304
G1 X147.992 Y160.779 E78.97256
G1 X147.708 Y161.716 E78.98996
G1 X147.502 Y162.212 E78.99951
G1 X147.038 Y163.079 E79.01699
G1 X146.739 Y163.526 E79.02655
G1 X146.117 Y164.282 E79.04395
G1 X145.938 Y164.479 E79.04868
G1 X129.984 Y180.406 E79.44941
G1 X129.786 Y180.585 E79.45415
G1 X129.031 Y181.204 E79.47151
G1 X128.586 Y181.501 E79.48102
G1 X127.719 Y181.964 E79.49849
G1 X127.224 Y182.169 E79.50801
G1 X126.289 Y182.452 E79.52538
G1 X125.765 Y182.556 E79.53488
G1 X124.788 Y182.652 E79.55233
G1 X124.521 Y182.665 E79.55708
G1 X87.525 Y182.665 E80.21472
G1 X87.06 Y182.625 E80.22302
G1 X86.608 Y182.506 E80.23132
G1 X86.183 Y182.313 E80.23962
G1 X85.798 Y182.049 E80.24792
G1 X85.463 Y181.724 E80.25622
G1 X85.188 Y181.346 E80.26453
G1 X84.982 Y180.928 E80.27281
G1 X84.85 Y180.48 E80.28111
G1 X84.795 Y179.935 E80.29085
G1 X84.795 Y56.937 E82.47726
G1 X84.867 Y56.252 E82.4895
G1 X85.064 Y55.566 E82.50219
G1 X85.389 Y54.922 E82.51501
M204 S625
M205 X6 Y6
G0 F3750 X85.551 Y55.5
M204 S500
M205 X5 Y5
G1 F1200 X85.857 Y54.99 E82.52558
G1 X86.02 Y54.784 E82.53025
G1 X86.452 Y54.365 E82.54095
G1 X86.66 Y54.21 E82.54556
G1 X87.199 Y53.911 E82.55652
G1 X87.442 Y53.816 E82.56116
G1 X87.983 Y53.677 E82.57109
G1 X88.527 Y53.625 E82.5808
G1 X105.21 Y53.625 E82.87736
G1 X105.165 Y35.071 E83.20717
G1 X105.204 Y34.643 E83.21481
G1 X105.321 Y34.23 E83.22244
G1 X105.513 Y33.846 E83.23008
G1 X105.773 Y33.504 E83.23771
G1 X106.091 Y33.215 E83.24535
G1 X106.457 Y32.991 E83.25298
G1 X106.859 Y32.839 E83.26062
G1 X107.475 Y32.755 E83.27167
G1 X145.475 Y32.755 E83.94716
G1 X145.903 Y32.795 E83.9548
G1 X146.315 Y32.913 E83.96242
G1 X146.699 Y33.106 E83.97006
G1 X147.041 Y33.366 E83.97769
G1 X147.328 Y33.686 E83.98533
G1 X147.551 Y34.052 E83.99295
G1 X147.703 Y34.454 E84.00059
G1 X147.785 Y35.065 E84.01155
G1 X147.785 Y159.009 E86.21478
G1 X147.774 Y159.235 E86.2188
G1 X147.678 Y160.213 E86.23627
G1 X147.59 Y160.657 E86.24431
G1 X147.306 Y161.594 E86.26172
G1 X147.132 Y162.014 E86.2698
G1 X146.668 Y162.881 E86.28728
G1 X146.415 Y163.259 E86.29536
G1 X145.793 Y164.015 E86.31277
G1 X145.641 Y164.182 E86.31678
G1 X129.687 Y180.109 E86.71751
G1 X129.52 Y180.26 E86.72151
G1 X128.765 Y180.879 E86.73887
G1 X128.388 Y181.131 E86.74693
G1 X127.521 Y181.594 E86.7644
G1 X127.102 Y181.767 E86.77246
G1 X126.167 Y182.05 E86.78982
G1 X125.724 Y182.138 E86.79785
G1 X124.747 Y182.234 E86.8153
G1 X124.521 Y182.245 E86.81932
G1 X87.525 Y182.245 E87.47696
G1 X87.097 Y182.205 E87.4846
G1 X86.685 Y182.087 E87.49222
G1 X86.301 Y181.894 E87.49986
G1 X85.959 Y181.634 E87.5075
G1 X85.672 Y181.314 E87.51514
G1 X85.449 Y180.948 E87.52276
G1 X85.297 Y180.546 E87.5304
G1 X85.215 Y179.935 E87.54136
G1 X85.215 Y56.937 E89.72777
G1 X85.283 Y56.314 E89.73891
G1 X85.449 Y55.734 E89.74963
G1 X85.551 Y55.5 E89.75417
M204 S625
M205 X6 Y6
G0 F3750 X85.936 Y55.668
M204 S500
M205 X5 Y5
G1 F1200 X86.35 Y55.044 E89.76748
G1 X86.911 Y54.547 E89.7808
G1 X87.352 Y54.302 E89.78977
G1 X88.037 Y54.093 E89.8025
G1 X88.527 Y54.045 E89.81125
G1 X105.631 Y54.045 E90.11529
G1 X105.585 Y35.07 E90.45259
G1 X105.624 Y34.683 E90.45951
G1 X105.741 Y34.313 E90.4664
G1 X105.931 Y33.974 E90.47331
G1 X106.187 Y33.682 E90.48022
G1 X106.497 Y33.448 E90.48712
G1 X106.848 Y33.282 E90.49402
G1 X107.225 Y33.192 E90.50091
G1 X107.475 Y33.175 E90.50537
G1 X145.475 Y33.175 E91.18085
G1 X145.861 Y33.215 E91.18775
G1 X146.231 Y33.333 E91.19466
G1 X146.569 Y33.524 E91.20156
G1 X146.861 Y33.78 E91.20846
G1 X147.094 Y34.091 E91.21537
G1 X147.259 Y34.442 E91.22226
G1 X147.349 Y34.82 E91.22917
G1 X147.365 Y35.065 E91.23353
G1 X147.365 Y159.009 E93.43676
G1 X147.356 Y159.194 E93.44005
G1 X147.26 Y160.172 E93.45752
G1 X147.188 Y160.535 E93.4641
G1 X146.904 Y161.472 E93.4815
G1 X146.761 Y161.816 E93.48812
G1 X146.297 Y162.683 E93.5056
G1 X146.091 Y162.992 E93.51221
G1 X145.469 Y163.748 E93.52961
G1 X145.344 Y163.885 E93.53291
G1 X129.39 Y179.812 E93.93363
G1 X129.253 Y179.936 E93.93692
G1 X128.498 Y180.555 E93.95427
G1 X128.19 Y180.76 E93.96085
G1 X127.323 Y181.223 E93.97832
G1 X126.981 Y181.365 E93.9849
G1 X126.046 Y181.648 E94.00227
G1 X125.683 Y181.72 E94.00885
G1 X124.706 Y181.816 E94.0263
G1 X124.521 Y181.825 E94.02959
G1 X87.525 Y181.825 E94.68723
G1 X87.139 Y181.785 E94.69413
G1 X86.769 Y181.667 E94.70103
G1 X86.431 Y181.476 E94.70793
G1 X86.139 Y181.22 E94.71484
G1 X85.906 Y180.909 E94.72175
G1 X85.741 Y180.558 E94.72864
G1 X85.651 Y180.18 E94.73555
G1 X85.635 Y179.935 E94.73991
G1 X85.635 Y56.937 E96.92632
G1 X85.698 Y56.377 E96.93634
G1 X85.936 Y55.668 E96.94963
M204 S625
M205 X6 Y6
G0 F3750 X86.321 Y55.836
M204 S500
M205 X5 Y5
G1 F1200 X86.679 Y55.305 E96.96102
G1 X87.162 Y54.883 E96.97242
G1 X87.748 Y54.598 E96.984
G1 X88.336 Y54.477 E96.99467
G1 X88.527 Y54.465 E96.99807
G1 X106.052 Y54.465 E97.3096
G1 X106.005 Y35.069 E97.65438
G1 X106.044 Y34.728 E97.66048
G1 X106.161 Y34.407 E97.66656
G1 X106.349 Y34.12 E97.67265
G1 X106.598 Y33.886 E97.67873
G1 X106.894 Y33.715 E97.68481
G1 X107.222 Y33.617 E97.69089
G1 X107.475 Y33.595 E97.6954
G1 X145.475 Y33.595 E98.37089
G1 X145.815 Y33.635 E98.37698
G1 X146.137 Y33.752 E98.38307
G1 X146.422 Y33.941 E98.38915
G1 X146.657 Y34.191 E98.39525
G1 X146.827 Y34.488 E98.40133
G1 X146.924 Y34.816 E98.40741
G1 X146.945 Y35.065 E98.41185
G1 X146.945 Y159.009 E100.61508
G1 X146.938 Y159.153 E100.61764
G1 X146.842 Y160.131 E100.63511
G1 X146.786 Y160.413 E100.64022
G1 X146.502 Y161.35 E100.65762
G1 X146.391 Y161.618 E100.66278
G1 X145.927 Y162.485 E100.68026
G1 X145.766 Y162.725 E100.6854
G1 X145.144 Y163.481 E100.7028
G1 X145.048 Y163.587 E100.70534
G1 X129.094 Y179.514 E101.10607
G1 X128.987 Y179.611 E101.10864
G1 X128.232 Y180.23 E101.12599
G1 X127.992 Y180.39 E101.13112
G1 X127.125 Y180.853 E101.14859
G1 X126.859 Y180.963 E101.15371
G1 X125.924 Y181.246 E101.17107
G1 X125.642 Y181.302 E101.17618
G1 X124.665 Y181.398 E101.19363
G1 X124.521 Y181.405 E101.1962
G1 X87.525 Y181.405 E101.85384
G1 X87.185 Y181.365 E101.85992
G1 X86.863 Y181.248 E101.86601
G1 X86.578 Y181.059 E101.87209
G1 X86.343 Y180.809 E101.87819
G1 X86.173 Y180.512 E101.88427
G1 X86.076 Y180.184 E101.89035
G1 X86.055 Y179.935 E101.8948
G1 X86.055 Y56.937 E104.08121
G1 X86.113 Y56.439 E104.09012
G1 X86.321 Y55.836 E104.10146
M204 S625
M205 X6 Y6
G0 F3750 X86.706 Y56.003
M204 S500
M205 X5 Y5
G1 F1200 X87.009 Y55.565 E104.11092
G1 X87.413 Y55.22 E104.12037
G1 X87.901 Y54.989 E104.12996
G1 X88.39 Y54.894 E104.13882
G1 X88.527 Y54.885 E104.14126
G1 X106.406 Y54.885 E104.45908
G1 X106.46 Y54.873 E104.46006
G1 X106.473 Y54.816 E104.4611
G1 X106.425 Y35.068 E104.81214
G1 X106.464 Y34.781 E104.81729
G1 X106.58 Y34.516 E104.82243
G1 X106.764 Y34.293 E104.82757
G1 X107.001 Y34.128 E104.8327
G1 X107.275 Y34.034 E104.83785
G1 X107.475 Y34.015 E104.84142
G1 X145.475 Y34.015 E105.51691
G1 X145.761 Y34.055 E105.52205
G1 X146.026 Y34.171 E105.52719
G1 X146.249 Y34.355 E105.53233
G1 X146.413 Y34.593 E105.53746
G1 X146.506 Y34.867 E105.54261
G1 X146.525 Y35.065 E105.54614
G1 X146.525 Y159.009 E107.74937
G1 X146.52 Y159.112 E107.7512
G1 X146.424 Y160.09 E107.76867
G1 X146.384 Y160.292 E107.77233
G1 X146.1 Y161.229 E107.78974
G1 X146.021 Y161.419 E107.79339
G1 X145.557 Y162.286 E107.81087
G1 X145.442 Y162.458 E107.81455
G1 X144.82 Y163.214 E107.83195
G1 X144.751 Y163.29 E107.83378
G1 X128.797 Y179.217 E108.23451
G1 X128.721 Y179.286 E108.23633
G1 X127.966 Y179.905 E108.25369
G1 X127.795 Y180.019 E108.25734
G1 X126.928 Y180.482 E108.27481
G1 X126.737 Y180.561 E108.27849
G1 X125.802 Y180.844 E108.29585
G1 X125.601 Y180.884 E108.29949
G1 X124.624 Y180.98 E108.31694
G1 X124.521 Y180.985 E108.31878
G1 X87.525 Y180.985 E108.97642
G1 X87.239 Y180.945 E108.98155
G1 X86.974 Y180.829 E108.98669
G1 X86.751 Y180.645 E108.99183
G1 X86.587 Y180.407 E108.99697
G1 X86.494 Y180.133 E109.00211
G1 X86.475 Y179.935 E109.00565
G1 X86.475 Y56.937 E111.19206
G1 X86.529 Y56.501 E111.19987
G1 X86.706 Y56.003 E111.20926
M204 S625
M205 X6 Y6
G0 F3750 X87.175 Y56.032
M204 S500
M205 X5 Y5
G1 F1200 X87.456 Y55.712 E111.21683
G1 X87.811 Y55.475 E111.22442
G1 X88.201 Y55.342 E111.23175
G1 X88.527 Y55.305 E111.23758
G1 X106.452 Y55.305 E111.55621
G1 X106.722 Y55.237 E111.56116
G1 X106.842 Y55.086 E111.56459
G1 X106.893 Y54.864 E111.56864
G1 X106.845 Y35.067 E111.92055
G1 X106.884 Y34.846 E111.92454
G1 X106.998 Y34.654 E111.92851
G1 X107.171 Y34.513 E111.93248
G1 X107.475 Y34.435 E111.93806
G1 X145.475 Y34.435 E112.61354
G1 X145.695 Y34.475 E112.61752
G1 X145.887 Y34.589 E112.62149
G1 X146.028 Y34.763 E112.62547
G1 X146.105 Y35.065 E112.63101
G1 X146.105 Y159.009 E114.83423
G1 X146.102 Y159.071 E114.83534
G1 X146.006 Y160.049 E114.85281
G1 X145.982 Y160.17 E114.855
G1 X145.698 Y161.107 E114.8724
G1 X145.65 Y161.221 E114.8746
G1 X145.186 Y162.088 E114.89208
G1 X145.118 Y162.191 E114.89428
G1 X144.496 Y162.947 E114.91168
G1 X144.454 Y162.993 E114.91279
G1 X128.5 Y178.92 E115.31351
G1 X128.454 Y178.961 E115.31461
G1 X127.699 Y179.58 E115.33197
G1 X127.597 Y179.649 E115.33415
G1 X126.73 Y180.112 E115.35163
G1 X126.616 Y180.159 E115.35382
G1 X125.681 Y180.442 E115.37118
G1 X125.56 Y180.466 E115.37338
G1 X124.583 Y180.562 E115.39083
G1 X124.521 Y180.565 E115.39193
G1 X87.525 Y180.565 E116.04957
G1 X87.305 Y180.525 E116.05354
G1 X87.113 Y180.411 E116.05751
G1 X86.972 Y180.237 E116.0615
G1 X86.895 Y179.935 E116.06704
G1 X86.895 Y56.937 E118.25344
G1 X86.989 Y56.405 E118.26305
G1 X87.175 Y56.032 E118.27046
M204 S625
M205 X6 Y6
G0 F3750 X87.504 Y56.293
M204 S500
M205 X5 Y5
G1 F1200 X87.707 Y56.049 E118.2761
G1 X87.964 Y55.866 E118.28171
G1 X88.256 Y55.759 E118.28724
G1 X88.527 Y55.725 E118.29209
G1 X106.498 Y55.725 E118.61154
G1 X106.862 Y55.644 E118.61817
G1 X107.006 Y55.555 E118.62118
G1 X107.229 Y55.273 E118.62757
G1 X107.313 Y54.91 E118.63419
G1 X107.265 Y35.066 E118.98694
G1 X107.304 Y34.943 E118.98924
G1 X107.475 Y34.855 E118.99265
G1 X145.475 Y34.855 E119.66814
G1 X145.597 Y34.894 E119.67042
G1 X145.685 Y35.065 E119.67384
G1 X145.685 Y159.009 E121.87706
G1 X145.684 Y159.03 E121.87744
G1 X145.588 Y160.008 E121.8949
G1 X145.58 Y160.048 E121.89563
G1 X145.296 Y160.985 E121.91303
G1 X145.28 Y161.023 E121.91377
G1 X144.816 Y161.89 E121.93125
G1 X144.793 Y161.924 E121.93198
G1 X144.157 Y162.696 E121.94976
G1 X128.203 Y178.623 E122.35049
G1 X127.433 Y179.255 E122.36819
G1 X127.399 Y179.278 E122.36892
G1 X126.532 Y179.741 E122.38639
G1 X126.494 Y179.757 E122.38713
G1 X125.559 Y180.04 E122.40449
G1 X125.519 Y180.048 E122.40522
G1 X124.542 Y180.144 E122.42267
G1 X87.525 Y180.145 E123.08068
G1 X87.403 Y180.106 E123.08296
G1 X87.315 Y179.935 E123.08638
G1 X87.315 Y56.937 E125.27279
G1 X87.374 Y56.573 E125.27934
G1 X87.504 Y56.293 E125.28483
M204 S625
M205 X6 Y6
G1 F1500 E118.78483
;MESH:Body optics side cover.stl
G0 F3750 X88.567 Y56.554
G0 X106.593 Y56.574
G0 X107.671 Y56.181
G0 X107.288 Y55.876
M204 S500
M205 X5 Y5
;TYPE:WALL-OUTER
G1 F1500 E125.28483
G1 F1200 X107.611 Y55.469 E125.29407
G1 X107.706 Y55.187 E125.29936
G1 X107.733 Y54.944 E125.3037
G1 X107.686 Y35.485 E125.64961
G1 X107.686 Y35.275 E125.65334
G1 X107.896 Y35.275 E125.65576
G1 X145.265 Y35.275 E126.32003
G1 X145.265 Y158.999 E128.51934
G1 X145.172 Y159.945 E128.53624
G1 X144.899 Y160.845 E128.55296
G1 X144.455 Y161.674 E128.56967
G1 X143.855 Y162.404 E128.58647
G1 X127.911 Y178.321 E128.98695
G1 X127.182 Y178.918 E129.0037
G1 X126.354 Y179.36 E129.02038
G1 X125.456 Y179.632 E129.03706
G1 X124.511 Y179.725 E129.05394
G1 X87.735 Y179.725 E129.70767
G1 X87.735 Y56.953 E131.89006
G1 X87.77 Y56.719 E131.89427
G1 X87.853 Y56.528 E131.89797
G1 X87.978 Y56.37 E131.90155
G1 X88.145 Y56.246 E131.90525
G1 X88.335 Y56.172 E131.90887
G1 X88.538 Y56.145 E131.91251
G1 X106.546 Y56.145 E132.23262
G1 X107.022 Y56.039 E132.24129
G1 X107.288 Y55.876 E132.24684
M204 S625
M205 X6 Y6
G0 F3750 X107.412 Y55.72
G0 X107.773 Y56.007
G0 X107.795 Y56.025
G0 X117.254 Y176.981
G0 X117.606 Y177.321
M204 S500
M205 X5 Y5
G1 F1200 X117.349 Y177.588 E132.25342
G1 X117.259 Y177.948 E132.26002
G1 X117.361 Y178.304 E132.2666
G1 X117.628 Y178.561 E132.27319
G1 X117.988 Y178.651 E132.27979
G1 X118.344 Y178.549 E132.28637
G1 X118.601 Y178.282 E132.29296
G1 X118.691 Y177.922 E132.29955
G1 X118.589 Y177.566 E132.30614
G1 X118.322 Y177.309 E132.31272
G1 X117.962 Y177.219 E132.31932
G1 X117.606 Y177.321 E132.3259
M204 S625
M205 X6 Y6
G0 F3750 X117.468 Y177.465
G0 X116.996 Y177.392
M204 S500
M205 X5 Y5
;TYPE:WALL-INNER
G1 F1200 X116.855 Y177.955 E132.33475
G1 X117.015 Y178.512 E132.34358
G1 X117.432 Y178.914 E132.3524
G1 X117.685 Y178.978 E132.35638
G1 X117.995 Y179.055 E132.36125
G1 X118.264 Y178.978 E132.36551
G1 X118.552 Y178.895 E132.37008
G1 X118.954 Y178.478 E132.3789
G1 X119.095 Y177.915 E132.38774
G1 X118.935 Y177.358 E132.39657
G1 X118.518 Y176.956 E132.4054
G1 X117.955 Y176.815 E132.41424
G1 X117.398 Y176.975 E132.42307
G1 X116.996 Y177.392 E132.4319
M204 S625
M205 X6 Y6
G0 F3750 X116.909 Y177.344
G0 X93.455 Y176.776
G0 X92.754 Y176.981
G0 X93.106 Y177.321
M204 S500
M205 X5 Y5
;TYPE:WALL-OUTER
G1 F1200 X92.849 Y177.588 E132.43848
G1 X92.759 Y177.948 E132.44508
G1 X92.861 Y178.304 E132.45166
G1 X93.128 Y178.561 E132.45825
G1 X93.488 Y178.651 E132.46485
G1 X93.844 Y178.549 E132.47143
G1 X94.101 Y178.282 E132.47802
G1 X94.191 Y177.922 E132.48461
G1 X94.089 Y177.566 E132.4912
G1 X93.822 Y177.309 E132.49779
G1 X93.462 Y177.219 E132.50438
G1 X93.106 Y177.321 E132.51096
M204 S625
M205 X6 Y6
G0 F3750 X92.968 Y177.465
G0 X92.496 Y177.392
M204 S500
M205 X5 Y5
;TYPE:WALL-INNER
G1 F1200 X92.355 Y177.955 E132.51981
G1 X92.515 Y178.512 E132.52864
G1 X92.932 Y178.914 E132.53746
G1 X93.185 Y178.978 E132.54144
G1 X93.495 Y179.055 E132.54631
G1 X93.764 Y178.978 E132.55057
G1 X94.052 Y178.895 E132.55514
G1 X94.454 Y178.478 E132.56396
G1 X94.595 Y177.915 E132.5728
G1 X94.435 Y177.358 E132.58163
G1 X94.018 Y176.956 E132.59046
G1 X93.455 Y176.815 E132.5993
G1 X92.898 Y176.975 E132.60813
G1 X92.496 Y177.392 E132.61696
M204 S625
M205 X6 Y6
G0 F3750 X92.409 Y177.344
G0 X93.597 Y63.609
G0 X94.015 Y64.027
M204 S500
M205 X5 Y5
;TYPE:WALL-OUTER
G1 F1200 X94.015 Y75.447 E132.81996
G1 X103.435 Y75.447 E132.98741
G1 X103.435 Y64.027 E133.19041
G1 X94.015 Y64.027 E133.35786
M204 S625
M205 X6 Y6
G0 F3750 X94.015 Y64.227
G0 X93.625 Y63.637
M204 S500
M205 X5 Y5
;TYPE:WALL-INNER
G1 F1200 X93.625 Y75.837 E133.54375
G1 X103.825 Y75.837 E133.69916
G1 X103.825 Y63.637 E133.88505
G1 X93.625 Y63.637 E134.04046
M204 S625
M205 X6 Y6
G0 F3750 X93.265 Y63.277
M204 S500
M205 X5 Y5
G1 F1200 X93.265 Y76.197 E134.23731
G1 X104.185 Y76.197 E134.4037
G1 X104.185 Y63.277 E134.60055
G1 X93.265 Y63.277 E134.76694
M204 S625
M205 X6 Y6
G0 F3750 X107.185 Y56.443
G0 X107.994 Y55.677
G0 X108.162 Y54.967
G0 X108.112 Y41.423
G0 X108.754 Y40.481
G0 X109.106 Y40.821
M204 S500
M205 X5 Y5
;TYPE:WALL-OUTER
G1 F1200 X108.849 Y41.088 E134.77352
G1 X108.759 Y41.448 E134.78012
G1 X108.861 Y41.804 E134.7867
G1 X109.128 Y42.061 E134.79329
G1 X109.488 Y42.151 E134.79989
G1 X109.844 Y42.049 E134.80647
G1 X110.101 Y41.782 E134.81306
G1 X110.191 Y41.422 E134.81965
G1 X110.089 Y41.066 E134.82624
G1 X109.822 Y40.809 E134.83282
G1 X109.462 Y40.719 E134.83942
G1 X109.106 Y40.821 E134.846
M204 S625
M205 X6 Y6
G0 F3750 X108.968 Y40.965
G0 X108.496 Y40.892
M204 S500
M205 X5 Y5
;TYPE:WALL-INNER
G1 F1200 X108.447 Y41.086 E134.84905
G1 X108.355 Y41.455 E134.85485
G1 X108.448 Y41.782 E134.86003
G1 X108.515 Y42.012 E134.86368
G1 X108.932 Y42.414 E134.8725
G1 X109.495 Y42.555 E134.88135
G1 X110.052 Y42.395 E134.89018
G1 X110.454 Y41.978 E134.899
G1 X110.595 Y41.415 E134.90784
G1 X110.435 Y40.858 E134.91667
G1 X110.018 Y40.456 E134.9255
G1 X109.455 Y40.315 E134.93434
G1 X108.898 Y40.475 E134.94317
G1 X108.496 Y40.892 E134.952
M204 S625
M205 X6 Y6
G0 F3750 X108.409 Y40.844
G0 X108.128 Y55.28
G0 X107.617 Y56.246
G0 X107.551 Y56.172
M204 S500
M205 X5 Y5
G1 F1200 X107.959 Y55.658 E134.962
G1 X108.089 Y55.272 E134.9682
G1 X108.123 Y54.965 E134.97291
G1 X108.091 Y41.796 E135.17356
G1 X108.091 Y41.456 E135.17806
G1 X108.091 Y41.075 E135.18311
G1 X108.077 Y35.844 E135.26281
G1 X108.077 Y35.665 E135.26554
G1 X108.256 Y35.665 E135.2673
G1 X144.875 Y35.665 E135.82525
G1 X144.875 Y158.981 E137.70416
G1 X144.788 Y159.869 E137.71775
G1 X144.538 Y160.693 E137.73087
G1 X144.129 Y161.456 E137.74406
G1 X143.568 Y162.139 E137.75753
G1 X127.648 Y178.032 E138.10028
G1 X126.964 Y178.592 E138.11375
G1 X126.202 Y178.999 E138.12691
G1 X125.38 Y179.248 E138.14
G1 X125.342 Y179.251 E138.14058
G1 X124.514 Y179.332 E138.15325
G1 X124.493 Y179.335 E138.15358
G1 X118.275 Y179.335 E138.24832
G1 X117.995 Y179.335 E138.25212
G1 X117.675 Y179.335 E138.25646
G1 X93.775 Y179.335 E138.62062
G1 X93.495 Y179.335 E138.62442
G1 X93.175 Y179.335 E138.62876
G1 X88.125 Y179.335 E138.70571
G1 X88.125 Y56.984 E140.56991
G1 X88.149 Y56.827 E140.57233
G1 X88.19 Y56.73 E140.57394
G1 X88.253 Y56.651 E140.57548
G1 X88.335 Y56.59 E140.57704
G1 X88.431 Y56.553 E140.5786
G1 X88.566 Y56.535 E140.58068
G1 X106.589 Y56.535 E140.85529
G1 X107.17 Y56.406 E140.86436
G1 X107.551 Y56.172 E140.87117
M204 S625
M205 X6 Y6
G0 F3750 X107.793 Y56.446
M204 S500
M205 X5 Y5
G1 F1200 X108.28 Y55.833 E140.8831
G1 X108.443 Y55.35 E140.89086
G1 X108.483 Y54.984 E140.89647
G1 X108.454 Y42.78 E141.08242
G1 X108.454 Y42.741 E141.08302
G1 X108.453 Y42.452 E141.08742
G1 X108.751 Y42.74 E141.09083
G1 X108.788 Y42.749 E141.09137
G1 X109.501 Y42.928 E141.10257
G1 X110.244 Y42.714 E141.11435
G1 X110.78 Y42.159 E141.12611
G1 X110.968 Y41.409 E141.13789
G1 X110.754 Y40.666 E141.14967
G1 X110.199 Y40.13 E141.16143
G1 X109.449 Y39.942 E141.17321
G1 X108.769 Y40.138 E141.18399
G1 X108.706 Y40.156 E141.18499
G1 X108.448 Y40.423 E141.19065
G1 X108.448 Y40.157 E141.19181
G1 X108.448 Y40.091 E141.1927
G1 X108.438 Y36.204 E141.25193
G1 X108.438 Y36.025 E141.25465
G1 X108.617 Y36.025 E141.25642
G1 X144.515 Y36.025 E141.80338
G1 X144.515 Y158.966 E143.67658
G1 X144.433 Y159.799 E143.68933
G1 X144.204 Y160.554 E143.70135
G1 X143.828 Y161.256 E143.71349
G1 X143.304 Y161.894 E143.72606
G1 X127.409 Y177.762 E144.06828
G1 X126.764 Y178.29 E144.08098
G1 X126.062 Y178.665 E144.0931
G1 X125.306 Y178.894 E144.10514
G1 X124.478 Y178.975 E144.11781
G1 X119.307 Y178.975 E144.1966
G1 X119.28 Y178.975 E144.19701
G1 X118.975 Y178.975 E144.20166
G1 X119.28 Y178.659 E144.20542
G1 X119.286 Y178.633 E144.20581
G1 X119.468 Y177.909 E144.21719
G1 X119.254 Y177.166 E144.22897
G1 X118.699 Y176.63 E144.24072
G1 X117.949 Y176.442 E144.2525
G1 X117.206 Y176.656 E144.26429
G1 X116.67 Y177.211 E144.27604
G1 X116.482 Y177.961 E144.28782
G1 X116.68 Y178.649 E144.29873
G1 X116.696 Y178.704 E144.2996
G1 X116.977 Y178.975 E144.30555
G1 X116.696 Y178.975 E144.30688
G1 X116.638 Y178.975 E144.30768
G1 X94.807 Y178.975 E144.64031
G1 X94.78 Y178.975 E144.64072
G1 X94.475 Y178.975 E144.64536
G1 X94.78 Y178.659 E144.64913
G1 X94.786 Y178.633 E144.64951
G1 X94.968 Y177.909 E144.66089
G1 X94.754 Y177.166 E144.67267
G1 X94.199 Y176.63 E144.68443
G1 X93.449 Y176.442 E144.69621
G1 X92.706 Y176.656 E144.70799
G1 X92.17 Y177.211 E144.71974
G1 X91.982 Y177.961 E144.73153
G1 X92.18 Y178.649 E144.74243
G1 X92.196 Y178.704 E144.74331
G1 X92.477 Y178.975 E144.74925
G1 X92.196 Y178.975 E144.75058
G1 X92.138 Y178.975 E144.75138
G1 X88.485 Y178.975 E144.80704
G1 X88.485 Y57.012 E146.66533
G1 X88.498 Y56.926 E146.66666
G1 X88.504 Y56.914 E146.66686
G1 X88.52 Y56.905 E146.66714
G1 X88.592 Y56.895 E146.66825
G1 X106.628 Y56.895 E146.94306
G1 X107.307 Y56.744 E146.95366
G1 X107.793 Y56.446 E146.96234
M204 S625
M205 X6 Y6
G0 F3750 X108.049 Y56.735
M204 S500
M205 X5 Y5
;TYPE:SKIN
G1 F1200 X108.618 Y56.017 E146.97863
G1 X108.816 Y55.432 E146.9896
G1 X108.863 Y55.005 E146.99724
G1 X108.835 Y43.152 E147.20794
G1 X109.508 Y43.321 E147.22027
G1 X110.447 Y43.051 E147.23764
G1 X111.124 Y42.349 E147.25498
G1 X111.361 Y41.402 E147.27233
G1 X111.091 Y40.463 E147.2897
G1 X110.389 Y39.786 E147.30704
G1 X109.442 Y39.549 E147.32439
G1 X108.826 Y39.726 E147.33578
G1 X108.818 Y36.405 E147.39482
G1 X144.135 Y36.405 E148.02261
G1 X144.135 Y158.949 E150.20095
G1 X144.059 Y159.727 E150.21485
G1 X143.853 Y160.406 E150.22746
G1 X143.511 Y161.043 E150.24031
G1 X143.02 Y161.641 E150.25406
G1 X127.158 Y177.476 E150.65248
G1 X126.551 Y177.973 E150.66643
G1 X125.914 Y178.314 E150.67927
G1 X125.234 Y178.52 E150.6919
G1 X124.461 Y178.595 E150.70571
G1 X119.688 Y178.595 E150.79055
G1 X119.861 Y177.902 E150.80325
G1 X119.591 Y176.963 E150.82061
G1 X118.889 Y176.286 E150.83795
G1 X117.942 Y176.049 E150.8553
G1 X117.003 Y176.319 E150.87267
G1 X116.326 Y177.021 E150.89001
G1 X116.089 Y177.968 E150.90736
G1 X116.27 Y178.595 E150.91896
G1 X95.188 Y178.595 E151.29372
G1 X95.361 Y177.902 E151.30641
G1 X95.091 Y176.963 E151.32378
G1 X94.389 Y176.286 E151.34112
G1 X93.442 Y176.049 E151.35847
G1 X92.503 Y176.319 E151.37584
G1 X91.826 Y177.021 E151.39317
G1 X91.589 Y177.968 E151.41053
G1 X91.77 Y178.595 E151.42213
G1 X88.865 Y178.595 E151.47377
G1 X88.865 Y57.275 E153.63035
G1 X106.67 Y57.275 E153.94685
G1 X107.451 Y57.101 E153.96107
G1 X108.049 Y56.735 E153.97354
M204 S625
M205 X6 Y6
G0 F3750 X104.565 Y62.897
M204 S500
M205 X5 Y5
G1 F1200 X92.885 Y62.897 E154.18116
G1 X92.885 Y76.577 E154.42433
G1 X104.565 Y76.577 E154.63196
G1 X104.565 Y62.897 E154.87513
M204 S625
M205 X6 Y6
G0 F3750 X143.481 Y36.566
M204 S500
M205 X5 Y5
G1 F1200 X143.974 Y37.059 E154.88753
M204 S625
M205 X6 Y6
G0 F3750 X143.974 Y37.653
M204 S500
M205 X5 Y5
G1 F1200 X142.887 Y36.566 E154.91485
M204 S625
M205 X6 Y6
G0 F3750 X142.293 Y36.566
M204 S500
M205 X5 Y5
G1 F1200 X143.974 Y38.247 E154.95711
M204 S625
M205 X6 Y6
G0 F3750 X143.974 Y38.841
M204 S500
M205 X5 Y5
G1 F1200 X141.699 Y36.566 E155.0143
M204 S625
M205 X6 Y6
G0 F3750 X141.105 Y36.566
M204 S500
M205 X5 Y5
G1 F1200 X143.974 Y39.435 E155.08643
M204 S625
M205 X6 Y6
G0 F3750 X143.974 Y40.029
M204 S500
M205 X5 Y5
G1 F1200 X140.511 Y36.566 E155.17348
M204 S625
M205 X6 Y6
G0 F3750 X139.917 Y36.566
M204 S500
M205 X5 Y5
G1 F1200 X143.974 Y40.623 E155.27547
M204 S625
M205 X6 Y6
G0 F3750 X143.974 Y41.217
M204 S500
M205 X5 Y5
G1 F1200 X139.323 Y36.566 E155.39239
M204 S625
M205 X6 Y6
G0 F3750 X138.729 Y36.566
M204 S500
M205 X5 Y5
G1 F1200 X143.974 Y41.811 E155.52425
M204 S625
M205 X6 Y6
G0 F3750 X143.974 Y42.405
M204 S500
M205 X5 Y5
G1 F1200 X138.135 Y36.566 E155.67103
M204 S625
M205 X6 Y6
G0 F3750 X137.541 Y36.566
M204 S500
M205 X5 Y5
G1 F1200 X143.974 Y42.999 E155.83275
M204 S625
M205 X6 Y6
G0 F3750 X143.974 Y43.593
M204 S500
M205 X5 Y5
G1 F1200 X136.947 Y36.566 E156.00941
M204 S625
M205 X6 Y6
G0 F3750 X136.353 Y36.566
M204 S500
M205 X5 Y5
G1 F1200 X143.974 Y44.187 E156.20099
M204 S625
M205 X6 Y6
G0 F3750 X143.974 Y44.781
M204 S500
M205 X5 Y5
G1 F1200 X135.759 Y36.566 E156.40751
M204 S625
M205 X6 Y6
G0 F3750 X135.165 Y36.566
M204 S500
M205 X5 Y5
G1 F1200 X143.974 Y45.375 E156.62896
M204 S625
M205 X6 Y6
G0 F3750 X143.974 Y45.969
M204 S500
M205 X5 Y5
G1 F1200 X134.571 Y36.566 E156.86534
M204 S625
M205 X6 Y6
G0 F3750 X133.977 Y36.566
M204 S500
M205 X5 Y5
G1 F1200 X143.974 Y46.562 E157.11664
M204 S625
M205 X6 Y6
G0 F3750 X143.974 Y47.156
M204 S500
M205 X5 Y5
G1 F1200 X133.383 Y36.566 E157.38288
M204 S625
M205 X6 Y6
G0 F3750 X132.789 Y36.566
M204 S500
M205 X5 Y5
G1 F1200 X143.974 Y47.75 E157.66404
M204 S625
M205 X6 Y6
G0 F3750 X143.974 Y48.344
M204 S500
M205 X5 Y5
G1 F1200 X132.195 Y36.566 E157.96014
M204 S625
M205 X6 Y6
G0 F3750 X131.601 Y36.566
M204 S500
M205 X5 Y5
G1 F1200 X143.974 Y48.938 E158.27118
M204 S625
M205 X6 Y6
G0 F3750 X143.974 Y49.532
M204 S500
M205 X5 Y5
G1 F1200 X131.007 Y36.566 E158.59714
M204 S625
M205 X6 Y6
G0 F3750 X130.413 Y36.566
M204 S500
M205 X5 Y5
G1 F1200 X143.974 Y50.126 E158.93804
M204 S625
M205 X6 Y6
G0 F3750 X143.974 Y50.72
M204 S500
M205 X5 Y5
G1 F1200 X129.819 Y36.566 E159.29387
M204 S625
M205 X6 Y6
G0 F3750 X129.225 Y36.566
M204 S500
M205 X5 Y5
G1 F1200 X143.974 Y51.314 E159.66463
M204 S625
M205 X6 Y6
G0 F3750 X143.974 Y51.908
M204 S500
M205 X5 Y5
G1 F1200 X128.631 Y36.566 E160.05033
M204 S625
M205 X6 Y6
G0 F3750 X128.037 Y36.566
M204 S500
M205 X5 Y5
G1 F1200 X143.974 Y52.502 E160.45096
M204 S625
M205 X6 Y6
G0 F3750 X143.974 Y53.096
M204 S500
M205 X5 Y5
G1 F1200 X127.443 Y36.566 E160.86652
M204 S625
M205 X6 Y6
G0 F3750 X126.85 Y36.566
M204 S500
M205 X5 Y5
G1 F1200 X143.974 Y53.69 E161.297
M204 S625
M205 X6 Y6
G0 F3750 X143.974 Y54.284
M204 S500
M205 X5 Y5
G1 F1200 X126.256 Y36.566 E161.74241
M204 S625
M205 X6 Y6
G0 F3750 X125.662 Y36.566
M204 S500
M205 X5 Y5
G1 F1200 X143.974 Y54.878 E162.20276
M204 S625
M205 X6 Y6
G0 F3750 X143.974 Y55.472
M204 S500
M205 X5 Y5
G1 F1200 X125.068 Y36.566 E162.67804
M204 S625
M205 X6 Y6
G0 F3750 X124.474 Y36.566
M204 S500
M205 X5 Y5
G1 F1200 X143.974 Y56.066 E163.16825
M204 S625
M205 X6 Y6
G0 F3750 X143.974 Y56.66
M204 S500
M205 X5 Y5
G1 F1200 X123.88 Y36.566 E163.67339
M204 S625
M205 X6 Y6
G0 F3750 X123.286 Y36.566
M204 S500
M205 X5 Y5
G1 F1200 X143.974 Y57.254 E164.19347
M204 S625
M205 X6 Y6
G0 F3750 X143.974 Y57.848
M204 S500
M205 X5 Y5
G1 F1200 X122.692 Y36.566 E164.72847
M204 S625
M205 X6 Y6
G0 F3750 X122.098 Y36.566
M204 S500
M205 X5 Y5
G1 F1200 X143.974 Y58.442 E165.27842
M204 S625
M205 X6 Y6
G0 F3750 X143.974 Y59.036
M204 S500
M205 X5 Y5
G1 F1200 X121.504 Y36.566 E165.84329
M204 S625
M205 X6 Y6
G0 F3750 X120.91 Y36.566
M204 S500
M205 X5 Y5
G1 F1200 X143.974 Y59.63 E166.4231
M204 S625
M205 X6 Y6
G0 F3750 X143.974 Y60.224
M204 S500
M205 X5 Y5
G1 F1200 X120.316 Y36.566 E167.01784
M204 S625
M205 X6 Y6
G0 F3750 X119.722 Y36.566
M204 S500
M205 X5 Y5
G1 F1200 X143.974 Y60.818 E167.62751
M204 S625
M205 X6 Y6
G0 F3750 X143.974 Y61.412
M204 S500
M205 X5 Y5
G1 F1200 X119.128 Y36.566 E168.25211
M204 S625
M205 X6 Y6
G0 F3750 X118.534 Y36.566
M204 S500
M205 X5 Y5
G1 F1200 X143.974 Y62.006 E168.89165
M204 S625
M205 X6 Y6
G0 F3750 X143.974 Y62.6
M204 S500
M205 X5 Y5
G1 F1200 X117.94 Y36.566 E169.54612
M204 S625
M205 X6 Y6
G0 F3750 X117.346 Y36.566
M204 S500
M205 X5 Y5
G1 F1200 X143.974 Y63.194 E170.21552
M204 S625
M205 X6 Y6
G0 F3750 X143.974 Y63.788
M204 S500
M205 X5 Y5
G1 F1200 X116.752 Y36.566 E170.89985
M204 S625
M205 X6 Y6
G0 F3750 X116.158 Y36.566
M204 S500
M205 X5 Y5
G1 F1200 X143.974 Y64.382 E171.59912
M204 S625
M205 X6 Y6
G0 F3750 X143.974 Y64.976
M204 S500
M205 X5 Y5
G1 F1200 X115.564 Y36.566 E172.31332
M204 S625
M205 X6 Y6
G0 F3750 X114.97 Y36.566
M204 S500
M205 X5 Y5
G1 F1200 X143.974 Y65.57 E173.04245
M204 S625
M205 X6 Y6
G0 F3750 X143.974 Y66.163
M204 S500
M205 X5 Y5
G1 F1200 X114.376 Y36.566 E173.78651
M204 S625
M205 X6 Y6
G0 F3750 X113.782 Y36.566
M204 S500
M205 X5 Y5
G1 F1200 X143.974 Y66.757 E174.54549
M204 S625
M205 X6 Y6
G0 F3750 X143.974 Y67.351
M204 S500
M205 X5 Y5
G1 F1200 X113.188 Y36.566 E175.31941
M204 S625
M205 X6 Y6
G0 F3750 X112.594 Y36.566
M204 S500
M205 X5 Y5
G1 F1200 X143.974 Y67.945 E176.10826
M204 S625
M205 X6 Y6
G0 F3750 X143.974 Y68.539
M204 S500
M205 X5 Y5
G1 F1200 X112 Y36.566 E176.91204
M204 S625
M205 X6 Y6
G0 F3750 X111.406 Y36.566
M204 S500
M205 X5 Y5
G1 F1200 X143.974 Y69.133 E177.73076
M204 S625
M205 X6 Y6
G0 F3750 X143.974 Y69.727
M204 S500
M205 X5 Y5
G1 F1200 X110.812 Y36.566 E178.5644
M204 S625
M205 X6 Y6
G0 F3750 X110.218 Y36.566
M204 S500
M205 X5 Y5
G1 F1200 X143.974 Y70.321 E179.41298
M204 S625
M205 X6 Y6
G0 F3750 X143.974 Y70.915
M204 S500
M205 X5 Y5
G1 F1200 X109.624 Y36.566 E180.2765
M204 S625
M205 X6 Y6
G0 F3750 X109.03 Y36.566
M204 S500
M205 X5 Y5
G1 F1200 X143.974 Y71.509 E181.15494
M204 S625
M205 X6 Y6
G0 F3750 X143.974 Y72.103
M204 S500
M205 X5 Y5
G1 F1200 X108.98 Y37.109 E182.03466
M204 S625
M205 X6 Y6
G0 F3750 X108.981 Y37.705
M204 S500
M205 X5 Y5
G1 F1200 X143.974 Y72.697 E182.91434
M204 S625
M205 X6 Y6
G0 F3750 X143.974 Y73.291
M204 S500
M205 X5 Y5
G1 F1200 X111.301 Y40.619 E183.73569
M204 S625
M205 X6 Y6
G0 F3750 X111.517 Y41.429
M204 S500
M205 X5 Y5
G1 F1200 X143.974 Y73.885 E184.55161
M204 S625
M205 X6 Y6
G0 F3750 X143.974 Y74.479
M204 S500
M205 X5 Y5
G1 F1200 X111.399 Y41.904 E185.37052
M204 S625
M205 X6 Y6
G0 F3750 X111.28 Y42.379
M204 S500
M205 X5 Y5
G1 F1200 X143.974 Y75.073 E186.19241
M204 S625
M205 X6 Y6
G0 F3750 X143.974 Y75.667
M204 S500
M205 X5 Y5
G1 F1200 X111.007 Y42.7 E187.02117
M204 S625
M205 X6 Y6
G0 F3750 X110.715 Y43.002
M204 S500
M205 X5 Y5
G1 F1200 X143.974 Y76.261 E187.85727
M204 S625
M205 X6 Y6
G0 F3750 X143.974 Y76.855
M204 S500
M205 X5 Y5
G1 F1200 X110.36 Y43.242 E188.70228
M204 S625
M205 X6 Y6
G0 F3750 X109.899 Y43.375
M204 S500
M205 X5 Y5
G1 F1200 X143.974 Y77.449 E189.55888
M204 S625
M205 X6 Y6
G0 F3750 X143.974 Y78.043
M204 S500
M205 X5 Y5
G1 F1200 X109.386 Y43.455 E190.42839
M204 S625
M205 X6 Y6
G0 F3750 X108.996 Y43.659
M204 S500
M205 X5 Y5
G1 F1200 X143.974 Y78.637 E191.3077
M204 S625
M205 X6 Y6
G0 F3750 X143.974 Y79.231
M204 S500
M205 X5 Y5
G1 F1200 X108.997 Y44.254 E192.18699
M204 S625
M205 X6 Y6
G0 F3750 X108.999 Y44.85
M204 S500
M205 X5 Y5
G1 F1200 X143.974 Y79.825 E193.06623
M204 S625
M205 X6 Y6
G0 F3750 X143.974 Y80.419
M204 S500
M205 X5 Y5
G1 F1200 X109 Y45.445 E193.94544
M204 S625
M205 X6 Y6
G0 F3750 X109.001 Y46.041
M204 S500
M205 X5 Y5
G1 F1200 X143.974 Y81.013 E194.82462
M204 S625
M205 X6 Y6
G0 F3750 X143.974 Y81.607
M204 S500
M205 X5 Y5
G1 F1200 X109.003 Y46.636 E195.70375
M204 S625
M205 X6 Y6
G0 F3750 X109.004 Y47.231
M204 S500
M205 X5 Y5
G1 F1200 X143.974 Y82.201 E196.58286
M204 S625
M205 X6 Y6
G0 F3750 X143.974 Y82.795
M204 S500
M205 X5 Y5
G1 F1200 X109.006 Y47.827 E197.46193
M204 S625
M205 X6 Y6
G0 F3750 X109.007 Y48.422
M204 S500
M205 X5 Y5
G1 F1200 X143.974 Y83.389 E198.34096
M204 S625
M205 X6 Y6
G0 F3750 X143.974 Y83.983
M204 S500
M205 X5 Y5
G1 F1200 X109.008 Y49.018 E199.21996
M204 S625
M205 X6 Y6
G0 F3750 X109.01 Y49.613
M204 S500
M205 X5 Y5
G1 F1200 X143.974 Y84.577 E200.09892
M204 S625
M205 X6 Y6
G0 F3750 X143.974 Y85.171
M204 S500
M205 X5 Y5
G1 F1200 X109.011 Y50.208 E200.97786
M204 S625
M205 X6 Y6
G0 F3750 X109.013 Y50.804
M204 S500
M205 X5 Y5
G1 F1200 X143.974 Y85.764 E201.85673
M204 S625
M205 X6 Y6
G0 F3750 X143.974 Y86.358
M204 S500
M205 X5 Y5
G1 F1200 X109.014 Y51.399 E202.73558
M204 S625
M205 X6 Y6
G0 F3750 X109.016 Y51.994
M204 S500
M205 X5 Y5
G1 F1200 X143.974 Y86.952 E203.61439
M204 S625
M205 X6 Y6
G0 F3750 X143.974 Y87.546
M204 S500
M205 X5 Y5
G1 F1200 X109.017 Y52.59 E204.49316
M204 S625
M205 X6 Y6
G0 F3750 X109.018 Y53.185
M204 S500
M205 X5 Y5
G1 F1200 X143.974 Y88.14 E205.37191
M204 S625
M205 X6 Y6
G0 F3750 X143.974 Y88.734
M204 S500
M205 X5 Y5
G1 F1200 X109.019 Y53.78 E206.25063
M204 S625
M205 X6 Y6
G0 F3750 X109.021 Y54.375
M204 S500
M205 X5 Y5
G1 F1200 X143.974 Y89.328 E207.12931
M204 S625
M205 X6 Y6
G0 F3750 X143.974 Y89.922
M204 S500
M205 X5 Y5
G1 F1200 X109.022 Y54.971 E208.00796
M204 S625
M205 X6 Y6
G0 F3750 X108.96 Y55.502
M204 S500
M205 X5 Y5
G1 F1200 X143.974 Y90.516 E208.88818
M204 S625
M205 X6 Y6
G0 F3750 X143.974 Y91.11
M204 S500
M205 X5 Y5
G1 F1200 X108.81 Y55.946 E209.77217
M204 S625
M205 X6 Y6
G0 F3750 X108.585 Y56.316
M204 S500
M205 X5 Y5
G1 F1200 X143.974 Y91.704 E210.6618
M204 S625
M205 X6 Y6
G0 F3750 X143.974 Y92.298
M204 S500
M205 X5 Y5
G1 F1200 X108.323 Y56.647 E211.55803
M204 S625
M205 X6 Y6
G0 F3750 X108.021 Y56.94
M204 S500
M205 X5 Y5
G1 F1200 X143.974 Y92.892 E212.46184
M204 S625
M205 X6 Y6
G0 F3750 X143.974 Y93.486
M204 S500
M205 X5 Y5
G1 F1200 X107.652 Y57.165 E213.37493
M204 S625
M205 X6 Y6
G0 F3750 X107.212 Y57.318
M204 S500
M205 X5 Y5
G1 F1200 X143.974 Y94.08 E214.29909
M204 S625
M205 X6 Y6
G0 F3750 X143.974 Y94.674
M204 S500
M205 X5 Y5
G1 F1200 X106.726 Y57.426 E215.23547
M204 S625
M205 X6 Y6
G0 F3750 X106.141 Y57.436
M204 S500
M205 X5 Y5
G1 F1200 X143.974 Y95.268 E216.18654
M204 S625
M205 X6 Y6
G0 F3750 X143.974 Y95.862
M204 S500
M205 X5 Y5
G1 F1200 X105.547 Y57.436 E217.15255
M204 S625
M205 X6 Y6
G0 F3750 X104.953 Y57.436
M204 S500
M205 X5 Y5
G1 F1200 X143.974 Y96.456 E218.13348
M204 S625
M205 X6 Y6
G0 F3750 X143.974 Y97.05
M204 S500
M205 X5 Y5
G1 F1200 X104.359 Y57.436 E219.12935
M204 S625
M205 X6 Y6
G0 F3750 X103.765 Y57.436
M204 S500
M205 X5 Y5
G1 F1200 X143.974 Y97.644 E220.14015
M204 S625
M205 X6 Y6
G0 F3750 X143.974 Y98.238
M204 S500
M205 X5 Y5
G1 F1200 X103.171 Y57.436 E221.16589
M204 S625
M205 X6 Y6
G0 F3750 X102.577 Y57.436
M204 S500
M205 X5 Y5
G1 F1200 X143.974 Y98.832 E222.20656
M204 S625
M205 X6 Y6
G0 F3750 X143.974 Y99.426
M204 S500
M205 X5 Y5
G1 F1200 X101.983 Y57.436 E223.26216
M204 S625
M205 X6 Y6
G0 F3750 X101.389 Y57.436
M204 S500
M205 X5 Y5
G1 F1200 X143.974 Y100.02 E224.33269
M204 S625
M205 X6 Y6
G0 F3750 X143.974 Y100.614
M204 S500
M205 X5 Y5
G1 F1200 X100.795 Y57.436 E225.41816
M204 S625
M205 X6 Y6
G0 F3750 X100.201 Y57.436
M204 S500
M205 X5 Y5
G1 F1200 X143.974 Y101.208 E226.51855
M204 S625
M205 X6 Y6
G0 F3750 X143.974 Y101.802
M204 S500
M205 X5 Y5
G1 F1200 X99.608 Y57.436 E227.63387
M204 S625
M205 X6 Y6
G0 F3750 X99.014 Y57.436
M204 S500
M205 X5 Y5
G1 F1200 X104.313 Y62.735 E227.76708
M204 S625
M205 X6 Y6
G0 F3750 X104.725 Y63.147
M204 S500
M205 X5 Y5
G1 F1200 X143.974 Y102.396 E228.75377
M204 S625
M205 X6 Y6
G0 F3750 X143.974 Y102.99
M204 S500
M205 X5 Y5
G1 F1200 X104.725 Y63.741 E229.74045
M204 S625
M205 X6 Y6
G0 F3750 X104.725 Y64.335
M204 S500
M205 X5 Y5
G1 F1200 X143.974 Y103.584 E230.72713
M204 S625
M205 X6 Y6
G0 F3750 X143.974 Y104.178
M204 S500
M205 X5 Y5
G1 F1200 X104.725 Y64.929 E231.71381
M204 S625
M205 X6 Y6
G0 F3750 X104.725 Y65.523
M204 S500
M205 X5 Y5
G1 F1200 X143.974 Y104.772 E232.70049
M204 S625
M205 X6 Y6
G0 F3750 X143.974 Y105.365
M204 S500
M205 X5 Y5
G1 F1200 X104.725 Y66.117 E233.68716
M204 S625
M205 X6 Y6
G0 F3750 X104.725 Y66.711
M204 S500
M205 X5 Y5
G1 F1200 X143.974 Y105.959 E234.67383
M204 S625
M205 X6 Y6
G0 F3750 X143.974 Y106.553
M204 S500
M205 X5 Y5
G1 F1200 X104.725 Y67.305 E235.6605
M204 S625
M205 X6 Y6
G0 F3750 X104.725 Y67.899
M204 S500
M205 X5 Y5
G1 F1200 X143.974 Y107.147 E236.64717
M204 S625
M205 X6 Y6
G0 F3750 X143.974 Y107.741
M204 S500
M205 X5 Y5
G1 F1200 X104.725 Y68.493 E237.63384
M204 S625
M205 X6 Y6
G0 F3750 X104.725 Y69.087
M204 S500
M205 X5 Y5
G1 F1200 X143.974 Y108.335 E238.62051
M204 S625
M205 X6 Y6
G0 F3750 X143.974 Y108.929
M204 S500
M205 X5 Y5
G1 F1200 X104.725 Y69.681 E239.60718
M204 S625
M205 X6 Y6
G0 F3750 X104.725 Y70.275
M204 S500
M205 X5 Y5
G1 F1200 X143.974 Y109.523 E240.59384
M204 S625
M205 X6 Y6
G0 F3750 X143.974 Y110.117
M204 S500
M205 X5 Y5
G1 F1200 X104.725 Y70.869 E241.58051
M204 S625
M205 X6 Y6
G0 F3750 X104.725 Y71.463
M204 S500
M205 X5 Y5
G1 F1200 X143.974 Y110.711 E242.56718
M204 S625
M205 X6 Y6
G0 F3750 X143.974 Y111.305
M204 S500
M205 X5 Y5
G1 F1200 X104.725 Y72.057 E243.55385
M204 S625
M205 X6 Y6
G0 F3750 X104.725 Y72.65
M204 S500
M205 X5 Y5
G1 F1200 X143.974 Y111.899 E244.54053
M204 S625
M205 X6 Y6
G0 F3750 X143.974 Y112.493
M204 S500
M205 X5 Y5
G1 F1200 X104.725 Y73.244 E245.52722
M204 S625
M205 X6 Y6
G0 F3750 X104.725 Y73.838
M204 S500
M205 X5 Y5
G1 F1200 X143.974 Y113.087 E246.5139
M204 S625
M205 X6 Y6
G0 F3750 X143.974 Y113.681
M204 S500
M205 X5 Y5
G1 F1200 X104.725 Y74.432 E247.50058
M204 S625
M205 X6 Y6
G0 F3750 X104.725 Y75.026
M204 S500
M205 X5 Y5
G1 F1200 X143.974 Y114.275 E248.48726
M204 S625
M205 X6 Y6
G0 F3750 X143.974 Y114.869
M204 S500
M205 X5 Y5
G1 F1200 X104.725 Y75.62 E249.47394
M204 S625
M205 X6 Y6
G0 F3750 X104.725 Y76.214
M204 S500
M205 X5 Y5
G1 F1200 X143.974 Y115.463 E250.46062
M204 S625
M205 X6 Y6
G0 F3750 X143.974 Y116.057
M204 S500
M205 X5 Y5
G1 F1200 X104.654 Y76.738 E251.44908
M204 S625
M205 X6 Y6
G0 F3750 X104.06 Y76.738
M204 S500
M205 X5 Y5
G1 F1200 X143.974 Y116.651 E252.45246
M204 S625
M205 X6 Y6
G0 F3750 X143.974 Y117.245
M204 S500
M205 X5 Y5
G1 F1200 X103.466 Y76.738 E253.47078
M204 S625
M205 X6 Y6
G0 F3750 X102.872 Y76.738
M204 S500
M205 X5 Y5
G1 F1200 X143.974 Y117.839 E254.50403
M204 S625
M205 X6 Y6
G0 F3750 X143.974 Y118.433
M204 S500
M205 X5 Y5
G1 F1200 X102.278 Y76.738 E255.55222
M204 S625
M205 X6 Y6
G0 F3750 X101.684 Y76.738
M204 S500
M205 X5 Y5
G1 F1200 X143.974 Y119.027 E256.61534
M204 S625
M205 X6 Y6
G0 F3750 X143.974 Y119.621
M204 S500
M205 X5 Y5
G1 F1200 X101.09 Y76.738 E257.69339
M204 S625
M205 X6 Y6
G0 F3750 X100.496 Y76.738
M204 S500
M205 X5 Y5
G1 F1200 X143.974 Y120.215 E258.78637
M204 S625
M205 X6 Y6
G0 F3750 X143.974 Y120.809
M204 S500
M205 X5 Y5
G1 F1200 X99.902 Y76.738 E259.89428
M204 S625
M205 X6 Y6
G0 F3750 X99.308 Y76.738
M204 S500
M205 X5 Y5
G1 F1200 X143.974 Y121.403 E261.01713
M204 S625
M205 X6 Y6
G0 F3750 X143.974 Y121.997
M204 S500
M205 X5 Y5
G1 F1200 X98.714 Y76.738 E262.15491
M204 S625
M205 X6 Y6
G0 F3750 X98.12 Y76.738
M204 S500
M205 X5 Y5
G1 F1200 X143.974 Y122.591 E263.30762
M204 S625
M205 X6 Y6
G0 F3750 X143.974 Y123.185
M204 S500
M205 X5 Y5
G1 F1200 X97.526 Y76.738 E264.47527
M204 S625
M205 X6 Y6
G0 F3750 X96.933 Y76.738
M204 S500
M205 X5 Y5
G1 F1200 X143.974 Y123.779 E265.65783
M204 S625
M205 X6 Y6
G0 F3750 X143.974 Y124.373
M204 S500
M205 X5 Y5
G1 F1200 X96.339 Y76.738 E266.85533
M204 S625
M205 X6 Y6
G0 F3750 X95.745 Y76.738
M204 S500
M205 X5 Y5
G1 F1200 X143.974 Y124.966 E268.06775
M204 S625
M205 X6 Y6
G0 F3750 X143.974 Y125.56
M204 S500
M205 X5 Y5
G1 F1200 X95.151 Y76.738 E269.2951
M204 S625
M205 X6 Y6
G0 F3750 X94.557 Y76.738
M204 S500
M205 X5 Y5
G1 F1200 X143.974 Y126.154 E270.53738
M204 S625
M205 X6 Y6
G0 F3750 X143.974 Y126.748
M204 S500
M205 X5 Y5
G1 F1200 X93.963 Y76.738 E271.79459
M204 S625
M205 X6 Y6
G0 F3750 X93.369 Y76.738
M204 S500
M205 X5 Y5
G1 F1200 X143.974 Y127.342 E273.06674
M204 S625
M205 X6 Y6
G0 F3750 X143.974 Y127.936
M204 S500
M205 X5 Y5
G1 F1200 X92.775 Y76.738 E274.35382
M204 S625
M205 X6 Y6
G0 F3750 X92.722 Y76.685
M204 S500
M205 X5 Y5
G1 F1200 X89.025 Y72.988 E274.44676
M204 S625
M205 X6 Y6
G0 F3750 X89.025 Y72.394
M204 S500
M205 X5 Y5
G1 F1200 X92.722 Y76.091 E274.5397
M204 S625
M205 X6 Y6
G0 F3750 X92.722 Y75.497
M204 S500
M205 X5 Y5
G1 F1200 X89.025 Y71.8 E274.63264
M204 S625
M205 X6 Y6
G0 F3750 X89.025 Y71.206
M204 S500
M205 X5 Y5
G1 F1200 X92.722 Y74.903 E274.72558
M204 S625
M205 X6 Y6
G0 F3750 X92.722 Y74.309
M204 S500
M205 X5 Y5
G1 F1200 X89.025 Y70.612 E274.81852
M204 S625
M205 X6 Y6
G0 F3750 X89.025 Y70.018
M204 S500
M205 X5 Y5
G1 F1200 X92.722 Y73.715 E274.91146
M204 S625
M205 X6 Y6
G0 F3750 X92.722 Y73.121
M204 S500
M205 X5 Y5
G1 F1200 X89.025 Y69.424 E275.0044
M204 S625
M205 X6 Y6
G0 F3750 X89.025 Y68.83
M204 S500
M205 X5 Y5
G1 F1200 X92.722 Y72.527 E275.09733
M204 S625
M205 X6 Y6
G0 F3750 X92.722 Y71.933
M204 S500
M205 X5 Y5
G1 F1200 X89.025 Y68.236 E275.19027
M204 S625
M205 X6 Y6
G0 F3750 X89.025 Y67.642
M204 S500
M205 X5 Y5
G1 F1200 X92.722 Y71.34 E275.28322
M204 S625
M205 X6 Y6
G0 F3750 X92.722 Y70.746
M204 S500
M205 X5 Y5
G1 F1200 X89.025 Y67.048 E275.37618
M204 S625
M205 X6 Y6
G0 F3750 X89.025 Y66.454
M204 S500
M205 X5 Y5
G1 F1200 X92.722 Y70.152 E275.46913
M204 S625
M205 X6 Y6
G0 F3750 X92.722 Y69.558
M204 S500
M205 X5 Y5
G1 F1200 X89.025 Y65.86 E275.56208
M204 S625
M205 X6 Y6
G0 F3750 X89.025 Y65.266
M204 S500
M205 X5 Y5
G1 F1200 X92.722 Y68.964 E275.65503
M204 S625
M205 X6 Y6
G0 F3750 X92.722 Y68.37
M204 S500
M205 X5 Y5
G1 F1200 X89.025 Y64.672 E275.74798
M204 S625
M205 X6 Y6
G0 F3750 X89.025 Y64.078
M204 S500
M205 X5 Y5
G1 F1200 X92.722 Y67.776 E275.84093
M204 S625
M205 X6 Y6
G0 F3750 X92.722 Y67.182
M204 S500
M205 X5 Y5
G1 F1200 X89.025 Y63.484 E275.93389
M204 S625
M205 X6 Y6
G0 F3750 X89.025 Y62.89
M204 S500
M205 X5 Y5
G1 F1200 X92.722 Y66.588 E276.02684
M204 S625
M205 X6 Y6
G0 F3750 X92.722 Y65.994
M204 S500
M205 X5 Y5
G1 F1200 X89.025 Y62.296 E276.11979
M204 S625
M205 X6 Y6
G0 F3750 X89.025 Y61.702
M204 S500
M205 X5 Y5
G1 F1200 X92.722 Y65.4 E276.21274
M204 S625
M205 X6 Y6
G0 F3750 X92.722 Y64.806
M204 S500
M205 X5 Y5
G1 F1200 X89.025 Y61.108 E276.30569
M204 S625
M205 X6 Y6
G0 F3750 X89.025 Y60.514
M204 S500
M205 X5 Y5
G1 F1200 X92.722 Y64.212 E276.39864
M204 S625
M205 X6 Y6
G0 F3750 X92.722 Y63.618
M204 S500
M205 X5 Y5
G1 F1200 X89.025 Y59.92 E276.4916
M204 S625
M205 X6 Y6
G0 F3750 X89.025 Y59.326
M204 S500
M205 X5 Y5
G1 F1200 X92.722 Y63.024 E276.58455
M204 S625
M205 X6 Y6
G0 F3750 X93.028 Y62.735
M204 S500
M205 X5 Y5
G1 F1200 X89.025 Y58.732 E276.68518
M204 S625
M205 X6 Y6
G0 F3750 X89.025 Y58.139
M204 S500
M205 X5 Y5
G1 F1200 X93.622 Y62.735 E276.80073
M204 S625
M205 X6 Y6
G0 F3750 X94.216 Y62.735
M204 S500
M205 X5 Y5
G1 F1200 X89.025 Y57.545 E276.93121
M204 S625
M205 X6 Y6
G0 F3750 X89.51 Y57.436
M204 S500
M205 X5 Y5
G1 F1200 X94.81 Y62.735 E277.06444
M204 S625
M205 X6 Y6
G0 F3750 X95.404 Y62.735
M204 S500
M205 X5 Y5
G1 F1200 X90.104 Y57.436 E277.19766
M204 S625
M205 X6 Y6
G0 F3750 X90.698 Y57.436
M204 S500
M205 X5 Y5
G1 F1200 X95.998 Y62.735 E277.33089
M204 S625
M205 X6 Y6
G0 F3750 X96.592 Y62.735
M204 S500
M205 X5 Y5
G1 F1200 X91.292 Y57.436 E277.46411
M204 S625
M205 X6 Y6
G0 F3750 X91.886 Y57.436
M204 S500
M205 X5 Y5
G1 F1200 X97.186 Y62.735 E277.59734
M204 S625
M205 X6 Y6
G0 F3750 X97.78 Y62.735
M204 S500
M205 X5 Y5
G1 F1200 X92.48 Y57.436 E277.73056
M204 S625
M205 X6 Y6
G0 F3750 X93.074 Y57.436
M204 S500
M205 X5 Y5
G1 F1200 X98.374 Y62.735 E277.86378
M204 S625
M205 X6 Y6
G0 F3750 X98.968 Y62.735
M204 S500
M205 X5 Y5
G1 F1200 X93.668 Y57.436 E277.99701
M204 S625
M205 X6 Y6
G0 F3750 X94.262 Y57.436
M204 S500
M205 X5 Y5
G1 F1200 X99.562 Y62.735 E278.13023
M204 S625
M205 X6 Y6
G0 F3750 X100.156 Y62.735
M204 S500
M205 X5 Y5
G1 F1200 X94.856 Y57.436 E278.26346
M204 S625
M205 X6 Y6
G0 F3750 X95.45 Y57.436
M204 S500
M205 X5 Y5
G1 F1200 X100.749 Y62.735 E278.39667
M204 S625
M205 X6 Y6
G0 F3750 X101.343 Y62.735
M204 S500
M205 X5 Y5
G1 F1200 X96.044 Y57.436 E278.52988
M204 S625
M205 X6 Y6
G0 F3750 X96.638 Y57.436
M204 S500
M205 X5 Y5
G1 F1200 X101.937 Y62.735 E278.66309
M204 S625
M205 X6 Y6
G0 F3750 X102.531 Y62.735
M204 S500
M205 X5 Y5
G1 F1200 X97.232 Y57.436 E278.7963
M204 S625
M205 X6 Y6
G0 F3750 X97.826 Y57.436
M204 S500
M205 X5 Y5
G1 F1200 X103.125 Y62.735 E278.92951
M204 S625
M205 X6 Y6
G0 F3750 X103.719 Y62.735
M204 S500
M205 X5 Y5
G1 F1200 X98.42 Y57.436 E279.06273
M204 S625
M205 X6 Y6
G0 F3750 X93.597 Y63.609
G0 X89.025 Y73.582
M204 S500
M205 X5 Y5
G1 F1200 X143.974 Y128.53 E280.44408
M204 S625
M205 X6 Y6
G0 F3750 X143.974 Y129.124
M204 S500
M205 X5 Y5
G1 F1200 X89.025 Y74.176 E281.82543
M204 S625
M205 X6 Y6
G0 F3750 X89.025 Y74.77
M204 S500
M205 X5 Y5
G1 F1200 X143.974 Y129.718 E283.20678
M204 S625
M205 X6 Y6
G0 F3750 X143.974 Y130.312
M204 S500
M205 X5 Y5
G1 F1200 X89.025 Y75.364 E284.58813
M204 S625
M205 X6 Y6
G0 F3750 X89.025 Y75.958
M204 S500
M205 X5 Y5
G1 F1200 X143.974 Y130.906 E285.96949
M204 S625
M205 X6 Y6
G0 F3750 X143.974 Y131.5
M204 S500
M205 X5 Y5
G1 F1200 X89.025 Y76.552 E287.35084
M204 S625
M205 X6 Y6
G0 F3750 X89.025 Y77.146
M204 S500
M205 X5 Y5
G1 F1200 X143.974 Y132.094 E288.73219
M204 S625
M205 X6 Y6
G0 F3750 X143.974 Y132.688
M204 S500
M205 X5 Y5
G1 F1200 X89.025 Y77.74 E290.11354
M204 S625
M205 X6 Y6
G0 F3750 X89.025 Y78.333
M204 S500
M205 X5 Y5
G1 F1200 X143.974 Y133.282 E291.49491
M204 S625
M205 X6 Y6
G0 F3750 X143.974 Y133.876
M204 S500
M205 X5 Y5
G1 F1200 X89.025 Y78.927 E292.87627
M204 S625
M205 X6 Y6
G0 F3750 X89.025 Y79.521
M204 S500
M205 X5 Y5
G1 F1200 X143.974 Y134.47 E294.25763
M204 S625
M205 X6 Y6
G0 F3750 X143.974 Y135.064
M204 S500
M205 X5 Y5
G1 F1200 X89.025 Y80.115 E295.639
M204 S625
M205 X6 Y6
G0 F3750 X89.025 Y80.709
M204 S500
M205 X5 Y5
G1 F1200 X143.974 Y135.658 E297.02036
M204 S625
M205 X6 Y6
G0 F3750 X143.974 Y136.252
M204 S500
M205 X5 Y5
G1 F1200 X89.025 Y81.303 E298.40173
M204 S625
M205 X6 Y6
G0 F3750 X89.025 Y81.897
M204 S500
M205 X5 Y5
G1 F1200 X143.974 Y136.846 E299.78309
M204 S625
M205 X6 Y6
G0 F3750 X143.974 Y137.44
M204 S500
M205 X5 Y5
G1 F1200 X89.025 Y82.491 E301.16446
M204 S625
M205 X6 Y6
G0 F3750 X89.025 Y83.085
M204 S500
M205 X5 Y5
G1 F1200 X143.974 Y138.034 E302.54582
M204 S625
M205 X6 Y6
G0 F3750 X143.974 Y138.628
M204 S500
M205 X5 Y5
G1 F1200 X89.025 Y83.679 E303.92718
M204 S625
M205 X6 Y6
G0 F3750 X89.025 Y84.273
M204 S500
M205 X5 Y5
G1 F1200 X143.974 Y139.222 E305.30855
M204 S625
M205 X6 Y6
G0 F3750 X143.974 Y139.816
M204 S500
M205 X5 Y5
G1 F1200 X89.025 Y84.867 E306.68991
M204 S625
M205 X6 Y6
G0 F3750 X89.025 Y85.461
M204 S500
M205 X5 Y5
G1 F1200 X143.974 Y140.41 E308.07128
M204 S625
M205 X6 Y6
G0 F3750 X143.974 Y141.004
M204 S500
M205 X5 Y5
G1 F1200 X89.025 Y86.055 E309.45264
M204 S625
M205 X6 Y6
G0 F3750 X89.025 Y86.649
M204 S500
M205 X5 Y5
G1 F1200 X143.974 Y141.598 E310.83401
M204 S625
M205 X6 Y6
G0 F3750 X143.974 Y142.192
M204 S500
M205 X5 Y5
G1 F1200 X89.025 Y87.243 E312.21537
M204 S625
M205 X6 Y6
G0 F3750 X89.025 Y87.837
M204 S500
M205 X5 Y5
G1 F1200 X143.974 Y142.786 E313.59673
M204 S625
M205 X6 Y6
G0 F3750 X143.974 Y143.38
M204 S500
M205 X5 Y5
G1 F1200 X89.025 Y88.431 E314.9781
M204 S625
M205 X6 Y6
G0 F3750 X89.025 Y89.025
M204 S500
M205 X5 Y5
G1 F1200 X143.974 Y143.974 E316.35946
M204 S625
M205 X6 Y6
G0 F3750 X143.974 Y144.567
M204 S500
M205 X5 Y5
G1 F1200 X89.025 Y89.619 E317.74082
M204 S625
M205 X6 Y6
G0 F3750 X89.025 Y90.213
M204 S500
M205 X5 Y5
G1 F1200 X143.974 Y145.161 E319.12217
M204 S625
M205 X6 Y6
G0 F3750 X143.974 Y145.755
M204 S500
M205 X5 Y5
G1 F1200 X89.025 Y90.807 E320.50352
M204 S625
M205 X6 Y6
G0 F3750 X89.025 Y91.401
M204 S500
M205 X5 Y5
G1 F1200 X143.974 Y146.349 E321.88487
M204 S625
M205 X6 Y6
G0 F3750 X143.974 Y146.943
M204 S500
M205 X5 Y5
G1 F1200 X89.025 Y91.995 E323.26622
M204 S625
M205 X6 Y6
G0 F3750 X89.025 Y92.589
M204 S500
M205 X5 Y5
G1 F1200 X143.974 Y147.537 E324.64757
M204 S625
M205 X6 Y6
G0 F3750 X143.974 Y148.131
M204 S500
M205 X5 Y5
G1 F1200 X89.025 Y93.183 E326.02893
M204 S625
M205 X6 Y6
G0 F3750 X89.025 Y93.777
M204 S500
M205 X5 Y5
G1 F1200 X143.974 Y148.725 E327.41028
M204 S625
M205 X6 Y6
G0 F3750 X143.974 Y149.319
M204 S500
M205 X5 Y5
G1 F1200 X89.025 Y94.371 E328.79163
M204 S625
M205 X6 Y6
G0 F3750 X89.025 Y94.965
M204 S500
M205 X5 Y5
G1 F1200 X143.974 Y149.913 E330.17298
M204 S625
M205 X6 Y6
G0 F3750 X143.974 Y150.507
M204 S500
M205 X5 Y5
G1 F1200 X89.025 Y95.559 E331.55433
M204 S625
M205 X6 Y6
G0 F3750 X89.025 Y96.153
M204 S500
M205 X5 Y5
G1 F1200 X143.974 Y151.101 E332.93569
M204 S625
M205 X6 Y6
G0 F3750 X143.974 Y151.695
M204 S500
M205 X5 Y5
G1 F1200 X89.025 Y96.747 E334.31704
M204 S625
M205 X6 Y6
G0 F3750 X89.025 Y97.341
M204 S500
M205 X5 Y5
G1 F1200 X143.974 Y152.289 E335.69839
M204 S625
M205 X6 Y6
G0 F3750 X143.974 Y152.883
M204 S500
M205 X5 Y5
G1 F1200 X89.025 Y97.934 E337.07975
M204 S625
M205 X6 Y6
G0 F3750 X89.025 Y98.528
M204 S500
M205 X5 Y5
G1 F1200 X143.974 Y153.477 E338.46112
M204 S625
M205 X6 Y6
G0 F3750 X143.974 Y154.071
M204 S500
M205 X5 Y5
G1 F1200 X89.025 Y99.122 E339.84248
M204 S625
M205 X6 Y6
G0 F3750 X89.025 Y99.716
M204 S500
M205 X5 Y5
G1 F1200 X143.974 Y154.665 E341.22385
M204 S625
M205 X6 Y6
G0 F3750 X143.974 Y155.259
M204 S500
M205 X5 Y5
G1 F1200 X89.025 Y100.31 E342.60521
M204 S625
M205 X6 Y6
G0 F3750 X89.025 Y100.904
M204 S500
M205 X5 Y5
G1 F1200 X143.974 Y155.853 E343.98657
M204 S625
M205 X6 Y6
G0 F3750 X143.974 Y156.447
M204 S500
M205 X5 Y5
G1 F1200 X89.025 Y101.498 E345.36794
M204 S625
M205 X6 Y6
G0 F3750 X89.025 Y102.092
M204 S500
M205 X5 Y5
G1 F1200 X143.974 Y157.041 E346.7493
M204 S625
M205 X6 Y6
G0 F3750 X143.974 Y157.635
M204 S500
M205 X5 Y5
G1 F1200 X89.025 Y102.686 E348.13067
M204 S625
M205 X6 Y6
G0 F3750 X89.025 Y103.28
M204 S500
M205 X5 Y5
G1 F1200 X143.974 Y158.229 E349.51203
M204 S625
M205 X6 Y6
G0 F3750 X143.974 Y158.823
M204 S500
M205 X5 Y5
G1 F1200 X89.025 Y103.874 E350.8934
M204 S625
M205 X6 Y6
G0 F3750 X89.025 Y104.468
M204 S500
M205 X5 Y5
G1 F1200 X143.932 Y159.375 E352.2737
M204 S625
M205 X6 Y6
G0 F3750 X143.843 Y159.881
M204 S500
M205 X5 Y5
G1 F1200 X89.025 Y105.062 E353.65179
M204 S625
M205 X6 Y6
G0 F3750 X89.025 Y105.656
M204 S500
M205 X5 Y5
G1 F1200 X143.706 Y160.337 E355.02642
M204 S625
M205 X6 Y6
G0 F3750 X143.499 Y160.724
M204 S500
M205 X5 Y5
G1 F1200 X89.025 Y106.25 E356.39584
M204 S625
M205 X6 Y6
G0 F3750 X89.025 Y106.844
M204 S500
M205 X5 Y5
G1 F1200 X143.266 Y161.085 E357.75941
M204 S625
M205 X6 Y6
G0 F3750 X142.999 Y161.412
M204 S500
M205 X5 Y5
G1 F1200 X89.025 Y107.438 E359.11626
M204 S625
M205 X6 Y6
G0 F3750 X89.025 Y108.032
M204 S500
M205 X5 Y5
G1 F1200 X142.711 Y161.718 E360.46587
M204 S625
M205 X6 Y6
G0 F3750 X142.414 Y162.015
M204 S500
M205 X5 Y5
G1 F1200 X89.025 Y108.626 E361.80802
M204 S625
M205 X6 Y6
G0 F3750 X89.025 Y109.22
M204 S500
M205 X5 Y5
G1 F1200 X142.117 Y162.312 E363.1427
M204 S625
M205 X6 Y6
G0 F3750 X141.82 Y162.609
M204 S500
M205 X5 Y5
G1 F1200 X89.025 Y109.814 E364.46992
M204 S625
M205 X6 Y6
G0 F3750 X89.025 Y110.408
M204 S500
M205 X5 Y5
G1 F1200 X141.523 Y162.906 E365.78966
M204 S625
M205 X6 Y6
G0 F3750 X141.225 Y163.202
M204 S500
M205 X5 Y5
G1 F1200 X89.025 Y111.002 E367.10192
M204 S625
M205 X6 Y6
G0 F3750 X89.025 Y111.596
M204 S500
M205 X5 Y5
G1 F1200 X140.928 Y163.499 E368.40671
M204 S625
M205 X6 Y6
G0 F3750 X140.631 Y163.796
M204 S500
M205 X5 Y5
G1 F1200 X89.025 Y112.19 E369.70404
M204 S625
M205 X6 Y6
G0 F3750 X89.025 Y112.784
M204 S500
M205 X5 Y5
G1 F1200 X140.333 Y164.092 E370.99387
M204 S625
M205 X6 Y6
G0 F3750 X140.036 Y164.389
M204 S500
M205 X5 Y5
G1 F1200 X89.025 Y113.378 E372.27624
M204 S625
M205 X6 Y6
G0 F3750 X89.025 Y113.972
M204 S500
M205 X5 Y5
G1 F1200 X139.739 Y164.686 E373.55114
M204 S625
M205 X6 Y6
G0 F3750 X139.442 Y164.982
M204 S500
M205 X5 Y5
G1 F1200 X89.025 Y114.566 E374.81856
M204 S625
M205 X6 Y6
G0 F3750 X89.025 Y115.16
M204 S500
M205 X5 Y5
G1 F1200 X139.145 Y165.279 E376.07852
M204 S625
M205 X6 Y6
G0 F3750 X138.848 Y165.576
M204 S500
M205 X5 Y5
G1 F1200 X89.025 Y115.754 E377.331
M204 S625
M205 X6 Y6
G0 F3750 X89.025 Y116.348
M204 S500
M205 X5 Y5
G1 F1200 X138.55 Y165.873 E378.57601
M204 S625
M205 X6 Y6
G0 F3750 X138.253 Y166.17
M204 S500
M205 X5 Y5
G1 F1200 X89.025 Y116.942 E379.81356
M204 S625
M205 X6 Y6
G0 F3750 X89.025 Y117.535
M204 S500
M205 X5 Y5
G1 F1200 X137.956 Y166.467 E381.04365
M204 S625
M205 X6 Y6
G0 F3750 X137.658 Y166.763
M204 S500
M205 X5 Y5
G1 F1200 X89.025 Y118.129 E382.26625
M204 S625
M205 X6 Y6
G0 F3750 X89.025 Y118.723
M204 S500
M205 X5 Y5
G1 F1200 X137.361 Y167.06 E383.48138
M204 S625
M205 X6 Y6
G0 F3750 X137.064 Y167.357
M204 S500
M205 X5 Y5
G1 F1200 X89.025 Y119.317 E384.68905
M204 S625
M205 X6 Y6
G0 F3750 X89.025 Y119.911
M204 S500
M205 X5 Y5
G1 F1200 X136.767 Y167.653 E385.88923
M204 S625
M205 X6 Y6
G0 F3750 X136.47 Y167.95
M204 S500
M205 X5 Y5
G1 F1200 X89.025 Y120.505 E387.08195
M204 S625
M205 X6 Y6
G0 F3750 X89.025 Y121.099
M204 S500
M205 X5 Y5
G1 F1200 X136.172 Y168.246 E388.26718
M204 S625
M205 X6 Y6
G0 F3750 X135.875 Y168.543
M204 S500
M205 X5 Y5
G1 F1200 X89.025 Y121.693 E389.44495
M204 S625
M205 X6 Y6
G0 F3750 X89.025 Y122.287
M204 S500
M205 X5 Y5
G1 F1200 X135.578 Y168.84 E390.61524
M204 S625
M205 X6 Y6
G0 F3750 X135.28 Y169.137
M204 S500
M205 X5 Y5
G1 F1200 X89.025 Y122.881 E391.77806
M204 S625
M205 X6 Y6
G0 F3750 X89.025 Y123.475
M204 S500
M205 X5 Y5
G1 F1200 X134.983 Y169.434 E392.93342
M204 S625
M205 X6 Y6
G0 F3750 X134.686 Y169.731
M204 S500
M205 X5 Y5
G1 F1200 X89.025 Y124.069 E394.0813
M204 S625
M205 X6 Y6
G0 F3750 X89.025 Y124.663
M204 S500
M205 X5 Y5
G1 F1200 X134.389 Y170.027 E395.22171
M204 S625
M205 X6 Y6
G0 F3750 X134.092 Y170.324
M204 S500
M205 X5 Y5
G1 F1200 X89.025 Y125.257 E396.35465
M204 S625
M205 X6 Y6
G0 F3750 X89.025 Y125.851
M204 S500
M205 X5 Y5
G1 F1200 X133.795 Y170.621 E397.48012
M204 S625
M205 X6 Y6
G0 F3750 X133.497 Y170.917
M204 S500
M205 X5 Y5
G1 F1200 X89.025 Y126.445 E398.59811
M204 S625
M205 X6 Y6
G0 F3750 X89.025 Y127.039
M204 S500
M205 X5 Y5
G1 F1200 X133.2 Y171.214 E399.70862
M204 S625
M205 X6 Y6
G0 F3750 X132.903 Y171.511
M204 S500
M205 X5 Y5
G1 F1200 X89.025 Y127.633 E400.81167
M204 S625
M205 X6 Y6
G0 F3750 X89.025 Y128.227
M204 S500
M205 X5 Y5
G1 F1200 X132.605 Y171.807 E401.90723
M204 S625
M205 X6 Y6
G0 F3750 X132.308 Y172.104
M204 S500
M205 X5 Y5
G1 F1200 X89.025 Y128.821 E402.99532
M204 S625
M205 X6 Y6
G0 F3750 X89.025 Y129.415
M204 S500
M205 X5 Y5
G1 F1200 X132.011 Y172.401 E404.07595
M204 S625
M205 X6 Y6
G0 F3750 X131.714 Y172.698
M204 S500
M205 X5 Y5
G1 F1200 X89.025 Y130.009 E405.14911
M204 S625
M205 X6 Y6
G0 F3750 X89.025 Y130.603
M204 S500
M205 X5 Y5
G1 F1200 X131.417 Y172.995 E406.2148
M204 S625
M205 X6 Y6
G0 F3750 X131.119 Y173.291
M204 S500
M205 X5 Y5
G1 F1200 X89.025 Y131.197 E407.273
M204 S625
M205 X6 Y6
G0 F3750 X89.025 Y131.791
M204 S500
M205 X5 Y5
G1 F1200 X130.822 Y173.588 E408.32374
M204 S625
M205 X6 Y6
G0 F3750 X130.525 Y173.885
M204 S500
M205 X5 Y5
G1 F1200 X89.025 Y132.385 E409.36701
M204 S625
M205 X6 Y6
G0 F3750 X89.025 Y132.979
M204 S500
M205 X5 Y5
G1 F1200 X130.227 Y174.181 E410.40279
M204 S625
M205 X6 Y6
G0 F3750 X129.93 Y174.478
M204 S500
M205 X5 Y5
G1 F1200 X89.025 Y133.573 E411.4311
M204 S625
M205 X6 Y6
G0 F3750 X89.025 Y134.167
M204 S500
M205 X5 Y5
G1 F1200 X129.633 Y174.775 E412.45195
M204 S625
M205 X6 Y6
G0 F3750 X129.336 Y175.071
M204 S500
M205 X5 Y5
G1 F1200 X89.025 Y134.761 E413.46531
M204 S625
M205 X6 Y6
G0 F3750 X89.025 Y135.355
M204 S500
M205 X5 Y5
G1 F1200 X129.039 Y175.368 E414.47121
M204 S625
M205 X6 Y6
G0 F3750 X128.742 Y175.665
M204 S500
M205 X5 Y5
G1 F1200 X89.025 Y135.949 E415.46965
M204 S625
M205 X6 Y6
G0 F3750 X89.025 Y136.543
M204 S500
M205 X5 Y5
G1 F1200 X128.444 Y175.962 E416.4606
M204 S625
M205 X6 Y6
G0 F3750 X128.147 Y176.259
M204 S500
M205 X5 Y5
G1 F1200 X89.025 Y137.136 E417.4441
M204 S625
M205 X6 Y6
G0 F3750 X89.025 Y137.73
M204 S500
M205 X5 Y5
G1 F1200 X127.849 Y176.555 E418.42011
M204 S625
M205 X6 Y6
G0 F3750 X127.552 Y176.852
M204 S500
M205 X5 Y5
G1 F1200 X89.025 Y138.324 E419.38866
M204 S625
M205 X6 Y6
G0 F3750 X89.025 Y138.918
M204 S500
M205 X5 Y5
G1 F1200 X127.255 Y177.149 E420.34974
M204 S625
M205 X6 Y6
G0 F3750 X126.949 Y177.437
M204 S500
M205 X5 Y5
G1 F1200 X89.025 Y139.512 E421.30312
M204 S625
M205 X6 Y6
G0 F3750 X89.025 Y140.106
M204 S500
M205 X5 Y5
G1 F1200 X126.623 Y177.704 E422.2483
M204 S625
M205 X6 Y6
G0 F3750 X126.265 Y177.941
M204 S500
M205 X5 Y5
G1 F1200 X89.025 Y140.7 E423.18449
M204 S625
M205 X6 Y6
G0 F3750 X89.025 Y141.294
M204 S500
M205 X5 Y5
G1 F1200 X125.879 Y178.148 E424.11096
M204 S625
M205 X6 Y6
G0 F3750 X125.428 Y178.292
M204 S500
M205 X5 Y5
G1 F1200 X89.025 Y141.888 E425.02611
M204 S625
M205 X6 Y6
G0 F3750 X89.025 Y142.482
M204 S500
M205 X5 Y5
G1 F1200 X124.929 Y178.386 E425.9287
M204 S625
M205 X6 Y6
G0 F3750 X124.382 Y178.433
M204 S500
M205 X5 Y5
G1 F1200 X89.025 Y143.076 E426.81754
M204 S625
M205 X6 Y6
G0 F3750 X89.025 Y143.67
M204 S500
M205 X5 Y5
G1 F1200 X123.788 Y178.433 E427.69145
M204 S625
M205 X6 Y6
G0 F3750 X123.194 Y178.433
M204 S500
M205 X5 Y5
G1 F1200 X89.025 Y144.264 E428.55043
M204 S625
M205 X6 Y6
G0 F3750 X89.025 Y144.858
M204 S500
M205 X5 Y5
G1 F1200 X122.6 Y178.433 E429.39447
M204 S625
M205 X6 Y6
G0 F3750 X122.006 Y178.433
M204 S500
M205 X5 Y5
G1 F1200 X89.025 Y145.452 E430.22358
M204 S625
M205 X6 Y6
G0 F3750 X89.025 Y146.046
M204 S500
M205 X5 Y5
G1 F1200 X121.412 Y178.433 E431.03776
M204 S625
M205 X6 Y6
G0 F3750 X120.818 Y178.433
M204 S500
M205 X5 Y5
G1 F1200 X119.923 Y177.538 E431.06026
M204 S625
M205 X6 Y6
G0 F3750 X119.959 Y178.168
M204 S500
M205 X5 Y5
G1 F1200 X120.224 Y178.433 E431.06692
M204 S625
M205 X6 Y6
G0 F3750 X118.376 Y175.991
M204 S500
M205 X5 Y5
G1 F1200 X89.025 Y146.64 E431.80477
M204 S625
M205 X6 Y6
G0 F3750 X89.025 Y147.234
M204 S500
M205 X5 Y5
G1 F1200 X117.731 Y175.94 E432.52641
M204 S625
M205 X6 Y6
G0 F3750 X117.27 Y176.073
M204 S500
M205 X5 Y5
G1 F1200 X89.025 Y147.828 E433.23647
M204 S625
M205 X6 Y6
G0 F3750 X89.025 Y148.422
M204 S500
M205 X5 Y5
G1 F1200 X116.849 Y176.246 E433.93593
M204 S625
M205 X6 Y6
G0 F3750 X116.558 Y176.549
M204 S500
M205 X5 Y5
G1 F1200 X89.025 Y149.016 E434.62809
M204 S625
M205 X6 Y6
G0 F3750 X89.025 Y149.61
M204 S500
M205 X5 Y5
G1 F1200 X116.266 Y176.85 E435.31289
M204 S625
M205 X6 Y6
G0 F3750 X116.097 Y177.275
M204 S500
M205 X5 Y5
G1 F1200 X89.025 Y150.204 E435.99344
M204 S625
M205 X6 Y6
G0 F3750 X89.025 Y150.798
M204 S500
M205 X5 Y5
G1 F1200 X115.978 Y177.751 E436.67101
M204 S625
M205 X6 Y6
G0 F3750 X116.052 Y178.419
M204 S500
M205 X5 Y5
G1 F1200 X89.025 Y151.392 E437.35044
M204 S625
M205 X6 Y6
G0 F3750 X89.025 Y151.986
M204 S500
M205 X5 Y5
G1 F1200 X115.471 Y178.432 E438.01527
M204 S625
M205 X6 Y6
G0 F3750 X114.877 Y178.432
M204 S500
M205 X5 Y5
G1 F1200 X89.025 Y152.58 E438.66516
M204 S625
M205 X6 Y6
G0 F3750 X89.025 Y153.174
M204 S500
M205 X5 Y5
G1 F1200 X114.284 Y178.432 E439.30014
M204 S625
M205 X6 Y6
G0 F3750 X113.69 Y178.432
M204 S500
M205 X5 Y5
G1 F1200 X89.025 Y153.768 E439.92018
M204 S625
M205 X6 Y6
G0 F3750 X89.025 Y154.362
M204 S500
M205 X5 Y5
G1 F1200 X113.096 Y178.432 E440.52529
M204 S625
M205 X6 Y6
G0 F3750 X112.502 Y178.432
M204 S500
M205 X5 Y5
G1 F1200 X89.025 Y154.956 E441.11546
M204 S625
M205 X6 Y6
G0 F3750 X89.025 Y155.55
M204 S500
M205 X5 Y5
G1 F1200 X111.908 Y178.432 E441.69071
M204 S625
M205 X6 Y6
G0 F3750 X111.314 Y178.432
M204 S500
M205 X5 Y5
G1 F1200 X89.025 Y156.144 E442.25102
M204 S625
M205 X6 Y6
G0 F3750 X89.025 Y156.737
M204 S500
M205 X5 Y5
G1 F1200 X110.72 Y178.432 E442.79641
M204 S625
M205 X6 Y6
G0 F3750 X110.126 Y178.432
M204 S500
M205 X5 Y5
G1 F1200 X89.025 Y157.331 E443.32687
M204 S625
M205 X6 Y6
G0 F3750 X89.025 Y157.925
M204 S500
M205 X5 Y5
G1 F1200 X109.532 Y178.432 E443.84239
M204 S625
M205 X6 Y6
G0 F3750 X108.938 Y178.432
M204 S500
M205 X5 Y5
G1 F1200 X89.025 Y158.519 E444.34299
M204 S625
M205 X6 Y6
G0 F3750 X89.025 Y159.113
M204 S500
M205 X5 Y5
G1 F1200 X108.344 Y178.432 E444.82865
M204 S625
M205 X6 Y6
G0 F3750 X107.75 Y178.432
M204 S500
M205 X5 Y5
G1 F1200 X89.025 Y159.707 E445.29938
M204 S625
M205 X6 Y6
G0 F3750 X89.025 Y160.301
M204 S500
M205 X5 Y5
G1 F1200 X107.156 Y178.432 E445.75517
M204 S625
M205 X6 Y6
G0 F3750 X106.562 Y178.432
M204 S500
M205 X5 Y5
G1 F1200 X89.025 Y160.895 E446.19604
M204 S625
M205 X6 Y6
G0 F3750 X89.025 Y161.489
M204 S500
M205 X5 Y5
G1 F1200 X105.968 Y178.432 E446.62197
M204 S625
M205 X6 Y6
G0 F3750 X105.374 Y178.432
M204 S500
M205 X5 Y5
G1 F1200 X89.025 Y162.083 E447.03296
M204 S625
M205 X6 Y6
G0 F3750 X89.025 Y162.677
M204 S500
M205 X5 Y5
G1 F1200 X104.78 Y178.432 E447.42903
M204 S625
M205 X6 Y6
G0 F3750 X104.186 Y178.432
M204 S500
M205 X5 Y5
G1 F1200 X89.025 Y163.271 E447.81016
M204 S625
M205 X6 Y6
G0 F3750 X89.025 Y163.865
M204 S500
M205 X5 Y5
G1 F1200 X103.592 Y178.432 E448.17636
M204 S625
M205 X6 Y6
G0 F3750 X102.998 Y178.432
M204 S500
M205 X5 Y5
G1 F1200 X89.025 Y164.459 E448.52763
M204 S625
M205 X6 Y6
G0 F3750 X89.025 Y165.053
M204 S500
M205 X5 Y5
G1 F1200 X102.404 Y178.432 E448.86397
M204 S625
M205 X6 Y6
G0 F3750 X101.81 Y178.432
M204 S500
M205 X5 Y5
G1 F1200 X89.025 Y165.647 E449.18537
M204 S625
M205 X6 Y6
G0 F3750 X89.025 Y166.241
M204 S500
M205 X5 Y5
G1 F1200 X101.216 Y178.432 E449.49184
M204 S625
M205 X6 Y6
G0 F3750 X100.622 Y178.432
M204 S500
M205 X5 Y5
G1 F1200 X89.025 Y166.835 E449.78337
M204 S625
M205 X6 Y6
G0 F3750 X89.025 Y167.429
M204 S500
M205 X5 Y5
G1 F1200 X100.028 Y178.432 E450.05998
M204 S625
M205 X6 Y6
G0 F3750 X99.434 Y178.432
M204 S500
M205 X5 Y5
G1 F1200 X89.025 Y168.023 E450.32165
M204 S625
M205 X6 Y6
G0 F3750 X89.025 Y168.617
M204 S500
M205 X5 Y5
G1 F1200 X98.84 Y178.432 E450.56839
M204 S625
M205 X6 Y6
G0 F3750 X98.246 Y178.432
M204 S500
M205 X5 Y5
G1 F1200 X89.025 Y169.211 E450.8002
M204 S625
M205 X6 Y6
G0 F3750 X89.025 Y169.805
M204 S500
M205 X5 Y5
G1 F1200 X97.652 Y178.432 E451.01707
M204 S625
M205 X6 Y6
G0 F3750 X97.058 Y178.432
M204 S500
M205 X5 Y5
G1 F1200 X89.025 Y170.399 E451.21901
M204 S625
M205 X6 Y6
G0 F3750 X89.025 Y170.993
M204 S500
M205 X5 Y5
G1 F1200 X94.072 Y176.04 E451.34589
M204 S625
M205 X6 Y6
G0 F3750 X93.346 Y175.908
M204 S500
M205 X5 Y5
G1 F1200 X89.025 Y171.587 E451.45452
M204 S625
M205 X6 Y6
G0 F3750 X89.025 Y172.181
M204 S500
M205 X5 Y5
G1 F1200 X92.884 Y176.04 E451.55153
M204 S625
M205 X6 Y6
G0 F3750 X92.423 Y176.173
M204 S500
M205 X5 Y5
G1 F1200 X89.025 Y172.775 E451.63695
M204 S625
M205 X6 Y6
G0 F3750 X89.025 Y173.369
M204 S500
M205 X5 Y5
G1 F1200 X92.13 Y176.474 E451.71501
M204 S625
M205 X6 Y6
G0 F3750 X91.838 Y176.775
M204 S500
M205 X5 Y5
G1 F1200 X89.025 Y173.963 E451.78571
M204 S625
M205 X6 Y6
G0 F3750 X89.025 Y174.557
M204 S500
M205 X5 Y5
G1 F1200 X91.626 Y177.158 E451.8511
M204 S625
M205 X6 Y6
G0 F3750 X91.508 Y177.633
M204 S500
M205 X5 Y5
G1 F1200 X89.025 Y175.151 E451.9135
M204 S625
M205 X6 Y6
G0 F3750 X89.025 Y175.745
M204 S500
M205 X5 Y5
G1 F1200 X91.492 Y178.212 E451.97552
M204 S625
M205 X6 Y6
G0 F3750 X91.119 Y178.433
M204 S500
M205 X5 Y5
G1 F1200 X89.025 Y176.338 E452.02818
M204 S625
M205 X6 Y6
G0 F3750 X89.025 Y176.932
M204 S500
M205 X5 Y5
G1 F1200 X90.525 Y178.433 E452.0659
M204 S625
M205 X6 Y6
G0 F3750 X89.931 Y178.433
M204 S500
M205 X5 Y5
G1 F1200 X89.025 Y177.526 E452.08869
M204 S625
M205 X6 Y6
G0 F3750 X89.025 Y178.12
M204 S500
M205 X5 Y5
G1 F1200 X89.337 Y178.433 E452.09654
M204 S625
M205 X6 Y6
G0 F3750 X92.878 Y176.941
G0 X95.363 Y177.331
M204 S500
M205 X5 Y5
G1 F1200 X96.464 Y178.432 E452.12422
M204 S625
M205 X6 Y6
G0 F3750 X95.87 Y178.432
M204 S500
M205 X5 Y5
G1 F1200 X95.488 Y178.05 E452.13382
M104 S200
M204 S625
M205 X6 Y6
G0 F3750 X110.634 Y41.415
G0 X110.274 Y39.591
M204 S500
M205 X5 Y5
G1 F1200 X108.982 Y38.299 E452.1663
M204 S625
M205 X6 Y6
G0 F3750 X108.983 Y38.895
M204 S500
M205 X5 Y5
G1 F1200 X109.482 Y39.394 E452.17885
M204 S625
M205 X6 Y6
;MESH:NONMESH
G0 F600 X109.482 Y39.394 Z0.42
G0 F3750 X110.469 Y40.838
G0 X116.886 Y177.421
G0 X117.073 Y177.468
;TIME_ELAPSED:1327.920920
;LAYER:1
M106 S85
M204 S750
M205 X7.5 Y7.5
;TYPE:WALL-INNER
;MESH:Body optics side cover.stl
G1 F1800 X116.961 Y177.98 E452.18254
G1 X117.119 Y178.481 E452.18625
G1 X117.508 Y178.837 E452.18997
G1 X118.02 Y178.949 E452.19367
G1 X118.521 Y178.791 E452.19737
G1 X118.877 Y178.402 E452.20109
G1 X118.989 Y177.89 E452.20479
G1 X118.831 Y177.389 E452.20849
G1 X118.442 Y177.033 E452.21221
G1 X117.93 Y176.921 E452.21591
G1 X117.429 Y177.079 E452.21962
G1 X117.073 Y177.468 E452.22334
M204 S2812
M205 X18 Y18
G0 F9375 X117.372 Y177.623
M204 S500
M205 X5 Y5
;TYPE:WALL-OUTER
G1 F1500 X117.297 Y177.965 E452.22622
G1 X117.403 Y178.3 E452.22911
G1 X117.663 Y178.538 E452.23201
G1 X118.005 Y178.613 E452.23489
G1 X118.34 Y178.507 E452.23778
G1 X118.578 Y178.247 E452.24068
G1 X118.653 Y177.905 E452.24357
G1 X118.547 Y177.57 E452.24646
G1 X118.287 Y177.332 E452.24936
G1 X117.945 Y177.257 E452.25224
G1 X117.61 Y177.363 E452.25513
G1 X117.372 Y177.623 E452.25803
M204 S2812
M205 X18 Y18
G0 F9375 X117.33 Y177.818
G0 X116.954 Y177.735
G0 X116.915 Y177.726
G0 X93.429 Y176.882
G0 X92.485 Y177.422
G0 X92.573 Y177.468
M204 S750
M205 X7.5 Y7.5
;TYPE:WALL-INNER
G1 F1800 X92.461 Y177.98 E452.26173
G1 X92.619 Y178.481 E452.26543
G1 X93.008 Y178.837 E452.26915
G1 X93.52 Y178.949 E452.27285
G1 X94.021 Y178.791 E452.27656
G1 X94.377 Y178.402 E452.28028
G1 X94.489 Y177.89 E452.28397
G1 X94.331 Y177.389 E452.28768
G1 X93.942 Y177.033 E452.2914
G1 X93.43 Y176.921 E452.2951
G1 X92.929 Y177.079 E452.2988
G1 X92.573 Y177.468 E452.30252
M204 S2812
M205 X18 Y18
G0 F9375 X92.872 Y177.623
M204 S500
M205 X5 Y5
;TYPE:WALL-OUTER
G1 F1500 X92.797 Y177.965 E452.3054
G1 X92.903 Y178.3 E452.30829
G1 X93.163 Y178.538 E452.31119
G1 X93.505 Y178.613 E452.31408
G1 X93.84 Y178.507 E452.31697
G1 X94.078 Y178.247 E452.31987
G1 X94.153 Y177.905 E452.32275
G1 X94.047 Y177.57 E452.32564
G1 X93.787 Y177.332 E452.32854
G1 X93.445 Y177.257 E452.33142
G1 X93.11 Y177.363 E452.33432
G1 X92.872 Y177.623 E452.33722
M204 S2812
M205 X18 Y18
G0 F9375 X92.83 Y177.818
G0 X92.454 Y177.735
G0 X92.415 Y177.726
G0 X93.425 Y63.437
M204 S750
M205 X7.5 Y7.5
;TYPE:WALL-INNER
G1 F1800 X93.425 Y76.037 E452.4261
G1 X104.025 Y76.037 E452.50087
G1 X104.025 Y63.437 E452.58975
G1 X93.425 Y63.437 E452.66452
M204 S2812
M205 X18 Y18
G0 F9375 X93.725 Y63.737
M204 S750
M205 X7.5 Y7.5
G1 F1800 X93.725 Y75.737 E452.74917
G1 X103.725 Y75.737 E452.81971
G1 X103.725 Y63.737 E452.90435
G1 X93.725 Y63.737 E452.97489
M204 S2812
M205 X18 Y18
G0 F9375 X94.05 Y64.062
M204 S500
M205 X5 Y5
;TYPE:WALL-OUTER
G1 F1500 X94.05 Y75.412 E453.0683
G1 X103.4 Y75.412 E453.14525
G1 X103.4 Y64.062 E453.23865
G1 X94.05 Y64.062 E453.3156
M204 S2812
M205 X18 Y18
G0 F9375 X94.05 Y64.262
G0 X93.665 Y64.262
G0 X93.625 Y64.262
G0 X107.507 Y56.13
G0 X108.062 Y54.992
G0 X108.034 Y47.437
G0 X108.485 Y40.922
G0 X108.573 Y40.968
M204 S750
M205 X7.5 Y7.5
;TYPE:WALL-INNER
G1 F1800 X108.461 Y41.48 E453.3193
G1 X108.619 Y41.981 E453.323
G1 X109.008 Y42.337 E453.32672
G1 X109.52 Y42.449 E453.33042
G1 X110.021 Y42.291 E453.33413
G1 X110.377 Y41.902 E453.33784
G1 X110.489 Y41.39 E453.34154
G1 X110.331 Y40.889 E453.34525
G1 X109.942 Y40.533 E453.34897
G1 X109.43 Y40.421 E453.35266
G1 X108.929 Y40.579 E453.35637
G1 X108.573 Y40.968 E453.36009
M204 S2812
M205 X18 Y18
G0 F9375 X108.872 Y41.123
M204 S500
M205 X5 Y5
;TYPE:WALL-OUTER
G1 F1500 X108.797 Y41.465 E453.36297
G1 X108.903 Y41.8 E453.36586
G1 X109.163 Y42.038 E453.36876
G1 X109.505 Y42.113 E453.37164
G1 X109.84 Y42.007 E453.37454
G1 X110.078 Y41.747 E453.37744
G1 X110.153 Y41.405 E453.38032
G1 X110.047 Y41.07 E453.38321
G1 X109.787 Y40.832 E453.38611
G1 X109.445 Y40.757 E453.38899
G1 X109.11 Y40.863 E453.39188
G1 X108.872 Y41.123 E453.39478
M204 S2812
M205 X18 Y18
G0 F9375 X108.83 Y41.318
G0 X108.454 Y41.235
G0 X108.415 Y41.226
G0 X108.164 Y55.722
M204 S750
M205 X7.5 Y7.5
;TYPE:WALL-INNER
G1 F1800 X108.323 Y55.021 E453.39986
G1 X108.292 Y42.415 E453.48878
G1 X108.292 Y42.149 E453.49065
G1 X108.291 Y41.94 E453.49213
G1 X108.357 Y42.148 E453.49234
G1 X108.553 Y42.327 E453.49354
G1 X108.865 Y42.613 E453.49653
G1 X109.456 Y42.741 E453.50079
G1 X109.534 Y42.759 E453.50136
G1 X110.188 Y42.553 E453.50619
G1 X110.653 Y42.045 E453.51105
G1 X110.781 Y41.454 E453.51532
G1 X110.799 Y41.376 E453.51588
G1 X110.593 Y40.722 E453.52072
G1 X110.085 Y40.257 E453.52558
G1 X109.494 Y40.129 E453.52984
G1 X109.416 Y40.111 E453.53041
G1 X108.762 Y40.317 E453.53524
G1 X108.549 Y40.55 E453.53747
G1 X108.297 Y40.825 E453.5401
G1 X108.289 Y40.863 E453.54037
G1 X108.289 Y40.826 E453.54037
G1 X108.289 Y40.453 E453.54181
G1 X108.277 Y36.014 E453.57313
G1 X108.277 Y35.865 E453.57418
G1 X108.426 Y35.865 E453.57486
G1 X144.675 Y35.865 E453.83056
G1 X144.675 Y158.972 E454.69895
G1 X144.591 Y159.83 E454.70503
G1 X144.352 Y160.613 E454.7108
G1 X143.959 Y161.348 E454.71668
G1 X143.424 Y162 E454.72263
G1 X127.51 Y177.887 E454.88125
G1 X126.854 Y178.424 E454.88723
G1 X126.124 Y178.814 E454.89307
G1 X125.343 Y179.051 E454.89883
G1 X124.484 Y179.135 E454.90492
G1 X118.934 Y179.135 E454.94407
G1 X118.688 Y179.135 E454.9458
G1 X118.428 Y179.135 E454.94764
G1 X118.688 Y179.053 E454.94795
G1 X118.854 Y178.872 E454.94911
G1 X119.153 Y178.545 E454.95223
G1 X119.281 Y177.954 E454.9565
G1 X119.299 Y177.876 E454.95706
G1 X119.093 Y177.222 E454.9619
G1 X118.585 Y176.757 E454.96676
G1 X117.994 Y176.629 E454.97103
G1 X117.916 Y176.611 E454.97159
G1 X117.262 Y176.817 E454.97643
G1 X116.797 Y177.325 E454.98128
G1 X116.669 Y177.916 E454.98555
G1 X116.651 Y177.994 E454.98611
G1 X116.857 Y178.648 E454.99095
G1 X117.103 Y178.873 E454.9933
G1 X117.365 Y179.113 E454.99581
G1 X117.466 Y179.135 E454.99654
G1 X117.365 Y179.135 E454.99656
G1 X117.009 Y179.135 E454.99799
G1 X94.434 Y179.135 E455.15723
G1 X94.188 Y179.135 E455.15897
G1 X93.928 Y179.135 E455.1608
G1 X94.188 Y179.053 E455.16112
G1 X94.354 Y178.872 E455.16228
G1 X94.653 Y178.545 E455.1654
G1 X94.781 Y177.954 E455.16967
G1 X94.799 Y177.876 E455.17023
G1 X94.593 Y177.222 E455.17507
G1 X94.085 Y176.757 E455.17993
G1 X93.494 Y176.629 E455.18419
G1 X93.416 Y176.611 E455.18476
G1 X92.762 Y176.817 E455.18959
G1 X92.297 Y177.325 E455.19445
G1 X92.169 Y177.916 E455.19872
G1 X92.151 Y177.994 E455.19928
G1 X92.357 Y178.648 E455.20412
G1 X92.603 Y178.873 E455.20647
G1 X92.865 Y179.113 E455.20898
G1 X92.966 Y179.135 E455.20971
G1 X92.865 Y179.135 E455.20973
G1 X92.509 Y179.135 E455.21116
G1 X88.325 Y179.135 E455.24067
G1 X88.325 Y57.004 E456.10218
G1 X88.347 Y56.873 E456.10312
G1 X88.366 Y56.833 E456.10343
G1 X88.397 Y56.797 E456.10376
G1 X88.439 Y56.767 E456.10413
G1 X88.499 Y56.746 E456.10458
G1 X88.581 Y56.735 E456.10516
G1 X106.609 Y56.735 E456.23233
G1 X107.213 Y56.605 E456.23669
G1 X107.681 Y56.33 E456.24052
G1 X108.164 Y55.722 E456.24599
M204 S2812
M205 X18 Y18
G0 F9375 X107.887 Y55.589
M204 S750
M205 X7.5 Y7.5
G1 F1800 X108.023 Y54.988 E456.25034
G1 X107.976 Y35.714 E456.3863
G1 X107.976 Y35.565 E456.38735
G1 X108.125 Y35.565 E456.38803
G1 X144.975 Y35.565 E456.64797
G1 X144.975 Y158.991 E457.51861
G1 X144.887 Y159.886 E457.52495
G1 X144.63 Y160.73 E457.53118
G1 X144.211 Y161.514 E457.53745
G1 X143.647 Y162.201 E457.54372
G1 X127.711 Y178.11 E457.70256
G1 X127.02 Y178.676 E457.70886
G1 X126.241 Y179.092 E457.71509
G1 X125.43 Y179.337 E457.72106
G1 X125.399 Y179.347 E457.72129
G1 X124.503 Y179.435 E457.72765
G1 X88.025 Y179.435 E457.98496
