;START_OF_HEADER
;HEADER_VERSION:0.1
;FLAVOR:Griffin
;GENERATOR.NAME:Cura_SteamEngine
;GENERATOR.VERSION:4.7.1
;GENERATOR.BUILD_DATE:2020-09-02
;TARGET_MACHINE.NAME:Ultimaker 3
;EXTRUDER_TRAIN.0.INITIAL_TEMPERATURE:205
;EXTRUDER_TRAIN.0.MATERIAL.VOLUME_USED:1002
;EXTRUDER_TRAIN.0.MATERIAL.GUID:506c9f0d-e3aa-4bd4-b2d2-23e2425b1aa9
;EXTRUDER_TRAIN.0.NOZZLE.DIAMETER:0.4
;EXTRUDER_TRAIN.0.NOZZLE.NAME:AA 0.4
;BUILD_PLATE.TYPE:glass
;BUILD_PLATE.INITIAL_TEMPERATURE:60
;PRINT.TIME:1303
;PRINT.GROUPS:1
;PRINT.SIZE.MIN.X:9
;PRINT.SIZE.MIN.Y:6
;PRINT.SIZE.MIN.Z:0.27
;PRINT.SIZE.MAX.X:126.38
;PRINT.SIZE.MAX.Y:130.395
;PRINT.SIZE.MAX.Z:6.97
;END_OF_HEADER
;Generated with Cura_SteamEngine 4.7.1
T0
M82 ;absolute extrusion mode

G92 E0
M109 S205
G0 F15000 X9 Y6 Z2
G280
G1 F1500 E-6.5
;LAYER_COUNT:68
;LAYER:0
M107
M204 S625
M205 X6 Y6
G1 F600 Z2.27
G0 F4285.7 X108.011 Y87.361 Z2.27
M204 S500
M205 X5 Y5
;TYPE:SKIRT
G1 F600 Z0.27
G1 F1500 E0
G1 F1200 X108.49 Y86.791 E0.01323
G1 X109.027 Y86.276 E0.02646
G1 X109.616 Y85.821 E0.03969
G1 X110.25 Y85.432 E0.05291
G1 X110.923 Y85.113 E0.06615
G1 X111.626 Y84.868 E0.07939
G1 X112.351 Y84.7 E0.09262
G1 X113.09 Y84.611 E0.10585
G1 X113.55 Y84.596 E0.11403
G1 X119.45 Y84.596 E0.21891
G1 X120.193 Y84.636 E0.23213
G1 X120.928 Y84.755 E0.24537
G1 X121.646 Y84.953 E0.25861
G1 X122.338 Y85.226 E0.27183
G1 X122.997 Y85.572 E0.28506
G1 X123.615 Y85.987 E0.29829
G1 X124.185 Y86.466 E0.31153
G1 X124.7 Y87.003 E0.32476
G1 X125.155 Y87.592 E0.33799
G1 X125.544 Y88.226 E0.35121
G1 X125.863 Y88.899 E0.36445
G1 X126.108 Y89.602 E0.37768
G1 X126.276 Y90.327 E0.39091
G1 X126.365 Y91.066 E0.40414
G1 X126.38 Y91.526 E0.41232
G1 X126.38 Y120.528 E0.92786
G1 X126.335 Y121.317 E0.94191
G1 X126.258 Y121.989 E0.95393
G1 X126.134 Y122.723 E0.96717
G1 X125.885 Y123.569 E0.98284
G1 X125.65 Y124.215 E0.99506
G1 X125.359 Y124.9 E1.00829
G1 X124.935 Y125.643 E1.0235
G1 X124.561 Y126.214 E1.03563
G1 X124.12 Y126.814 E1.04887
G1 X123.527 Y127.451 E1.06434
G1 X123.026 Y127.925 E1.0766
G1 X122.458 Y128.407 E1.08984
G1 X121.726 Y128.893 E1.10546
G1 X121.135 Y129.234 E1.11759
G1 X120.472 Y129.571 E1.13081
G1 X119.674 Y129.866 E1.14593
G1 X119.018 Y130.064 E1.15811
G1 X118.295 Y130.241 E1.17134
G1 X117.441 Y130.347 E1.18664
G1 X116.757 Y130.389 E1.19882
G1 X116.012 Y130.395 E1.21207
G1 X115.126 Y130.296 E1.22791
G1 X114.447 Y130.176 E1.24017
G1 X113.722 Y130.008 E1.2534
G1 X112.913 Y129.717 E1.26868
G1 X112.288 Y129.448 E1.28078
G1 X111.621 Y129.118 E1.29401
G1 X110.896 Y128.646 E1.30939
G1 X110.344 Y128.236 E1.32161
G1 X109.771 Y127.761 E1.33484
G1 X109.173 Y127.134 E1.35024
G1 X108.733 Y126.611 E1.36239
G1 X108.285 Y126.017 E1.37562
G1 X107.838 Y125.249 E1.39141
G1 X107.53 Y124.633 E1.40365
G1 X107.233 Y123.951 E1.41688
G1 X106.984 Y123.131 E1.43211
G1 X106.827 Y122.468 E1.44422
G1 X106.695 Y121.735 E1.45746
G1 X106.633 Y120.949 E1.47148
G1 X106.62 Y120.527 E1.47898
G1 X106.62 Y91.526 E1.9945
G1 X106.66 Y90.783 E2.00773
G1 X106.779 Y90.048 E2.02096
G1 X106.977 Y89.33 E2.0342
G1 X107.25 Y88.638 E2.04743
G1 X107.596 Y87.979 E2.06066
G1 X108.011 Y87.361 E2.07389
M204 S625
M205 X6 Y6
G0 F4285.7 X108.428 Y87.508
M204 S500
M205 X5 Y5
G1 F1200 X108.904 Y86.966 E2.08671
G1 X109.437 Y86.48 E2.09954
G1 X110.021 Y86.056 E2.11236
G1 X110.648 Y85.699 E2.12519
G1 X111.31 Y85.413 E2.13801
G1 X112 Y85.203 E2.15083
G1 X112.709 Y85.071 E2.16365
G1 X113.55 Y85.016 E2.17863
G1 X119.45 Y85.016 E2.28351
G1 X120.17 Y85.056 E2.29633
G1 X120.882 Y85.175 E2.30916
G1 X121.576 Y85.373 E2.32199
G1 X122.243 Y85.646 E2.3348
G1 X122.877 Y85.991 E2.34763
G1 X123.468 Y86.404 E2.36045
G1 X124.01 Y86.88 E2.37327
G1 X124.496 Y87.413 E2.38609
G1 X124.92 Y87.997 E2.39892
G1 X125.277 Y88.624 E2.41175
G1 X125.563 Y89.286 E2.42456
G1 X125.773 Y89.976 E2.43739
G1 X125.905 Y90.685 E2.45021
G1 X125.96 Y91.526 E2.46519
G1 X125.96 Y120.528 E2.98073
G1 X125.918 Y121.269 E2.99392
G1 X125.841 Y121.941 E3.00594
G1 X125.719 Y122.652 E3.01877
G1 X125.491 Y123.426 E3.03311
G1 X125.256 Y124.072 E3.04533
G1 X124.972 Y124.735 E3.05815
G1 X124.584 Y125.413 E3.07204
G1 X124.21 Y125.984 E3.08417
G1 X123.782 Y126.565 E3.097
G1 X123.238 Y127.146 E3.11115
G1 X122.737 Y127.62 E3.12341
G1 X122.186 Y128.086 E3.13623
G1 X121.516 Y128.53 E3.15052
G1 X120.925 Y128.871 E3.16265
G1 X120.282 Y129.196 E3.17546
G1 X119.553 Y129.464 E3.18926
G1 X118.897 Y129.662 E3.20144
G1 X118.196 Y129.832 E3.21427
G1 X117.415 Y129.928 E3.22825
G1 X116.731 Y129.97 E3.24044
G1 X116.01 Y129.974 E3.25325
G1 X115.199 Y129.883 E3.26776
G1 X114.52 Y129.763 E3.28002
G1 X113.818 Y129.598 E3.29283
G1 X113.079 Y129.332 E3.3068
G1 X112.454 Y129.063 E3.31889
G1 X111.809 Y128.741 E3.33171
G1 X111.146 Y128.309 E3.34577
G1 X110.594 Y127.899 E3.358
G1 X110.04 Y127.438 E3.37081
G1 X109.494 Y126.864 E3.38489
G1 X109.054 Y126.341 E3.39704
G1 X108.621 Y125.764 E3.40986
G1 X108.213 Y125.061 E3.42431
G1 X107.905 Y124.445 E3.43655
G1 X107.619 Y123.783 E3.44937
G1 X107.393 Y123.034 E3.46328
G1 X107.236 Y122.371 E3.47539
G1 X107.109 Y121.661 E3.48821
G1 X107.052 Y120.924 E3.50135
G1 X107.04 Y120.527 E3.50841
G1 X107.04 Y91.526 E4.02393
G1 X107.08 Y90.806 E4.03675
G1 X107.199 Y90.094 E4.04958
G1 X107.397 Y89.4 E4.06241
G1 X107.67 Y88.733 E4.07522
G1 X108.015 Y88.099 E4.08805
G1 X108.428 Y87.508 E4.10087
M204 S625
M205 X6 Y6
G0 F4285.7 X108.845 Y87.66
M204 S500
M205 X5 Y5
G1 F1200 X109.318 Y87.147 E4.11327
G1 X109.846 Y86.692 E4.12566
G1 X110.423 Y86.3 E4.13806
G1 X111.042 Y85.977 E4.15048
G1 X111.693 Y85.726 E4.16288
G1 X112.369 Y85.552 E4.17529
G1 X113.06 Y85.456 E4.18769
G1 X113.55 Y85.436 E4.19641
G1 X119.45 Y85.436 E4.30128
G1 X120.147 Y85.476 E4.31369
G1 X120.834 Y85.595 E4.32609
G1 X121.503 Y85.793 E4.33849
G1 X122.146 Y86.065 E4.3509
G1 X122.752 Y86.409 E4.36329
G1 X123.316 Y86.821 E4.3757
G1 X123.829 Y87.294 E4.38811
G1 X124.284 Y87.822 E4.4005
G1 X124.676 Y88.399 E4.4129
G1 X124.999 Y89.018 E4.42531
G1 X125.25 Y89.669 E4.43771
G1 X125.424 Y90.345 E4.45012
G1 X125.52 Y91.036 E4.46252
G1 X125.54 Y91.526 E4.47124
G1 X125.54 Y120.528 E4.98678
G1 X125.5 Y121.221 E4.99911
G1 X125.423 Y121.893 E5.01114
G1 X125.304 Y122.581 E5.02355
G1 X125.096 Y123.282 E5.03655
G1 X124.861 Y123.928 E5.04877
G1 X124.585 Y124.569 E5.06117
G1 X124.232 Y125.183 E5.07376
G1 X123.858 Y125.754 E5.0859
G1 X123.443 Y126.315 E5.0983
G1 X122.949 Y126.841 E5.11113
G1 X122.448 Y127.315 E5.12339
G1 X121.915 Y127.765 E5.13579
G1 X121.307 Y128.166 E5.14873
G1 X120.716 Y128.507 E5.16086
G1 X120.092 Y128.82 E5.17327
G1 X119.432 Y129.062 E5.18577
G1 X118.776 Y129.26 E5.19795
G1 X118.097 Y129.423 E5.21036
G1 X117.389 Y129.509 E5.22304
G1 X116.705 Y129.551 E5.23522
G1 X116.008 Y129.553 E5.24761
G1 X115.272 Y129.469 E5.26078
G1 X114.593 Y129.349 E5.27304
G1 X113.914 Y129.188 E5.28544
G1 X113.245 Y128.946 E5.29809
G1 X112.62 Y128.677 E5.31018
G1 X111.996 Y128.365 E5.32258
G1 X111.397 Y127.972 E5.33532
G1 X110.845 Y127.562 E5.34754
G1 X110.309 Y127.115 E5.35995
G1 X109.816 Y126.594 E5.3727
G1 X109.376 Y126.071 E5.38485
G1 X108.958 Y125.512 E5.39726
G1 X108.589 Y124.874 E5.41036
G1 X108.281 Y124.258 E5.4226
G1 X108.005 Y123.617 E5.43501
G1 X107.802 Y122.937 E5.44762
G1 X107.645 Y122.274 E5.45973
G1 X107.492 Y121.242 E5.47828
G1 X107.46 Y120.527 E5.491
G1 X107.46 Y91.526 E6.00652
G1 X107.5 Y90.829 E6.01893
G1 X107.619 Y90.142 E6.03132
G1 X107.817 Y89.473 E6.04373
G1 X108.089 Y88.83 E6.05614
G1 X108.433 Y88.224 E6.06852
G1 X108.845 Y87.66 E6.08094
M204 S625
M205 X6 Y6
G0 F4285.7 X108.851 Y88.353
M204 S500
M205 X5 Y5
G1 F1200 X109.26 Y87.818 E6.09291
G1 X109.73 Y87.336 E6.10488
G1 X110.254 Y86.913 E6.11685
G1 X110.824 Y86.554 E6.12882
G1 X111.432 Y86.266 E6.14078
G1 X112.07 Y86.052 E6.15274
G1 X112.73 Y85.916 E6.16472
G1 X113.55 Y85.856 E6.17934
G1 X119.45 Y85.856 E6.28422
G1 X120.122 Y85.896 E6.29618
G1 X120.785 Y86.015 E6.30816
G1 X121.428 Y86.212 E6.32011
G1 X122.044 Y86.484 E6.33208
G1 X122.623 Y86.827 E6.34404
G1 X123.158 Y87.236 E6.35601
G1 X123.64 Y87.706 E6.36798
G1 X124.063 Y88.23 E6.37995
G1 X124.422 Y88.8 E6.39193
G1 X124.71 Y89.408 E6.40389
G1 X124.924 Y90.046 E6.41585
G1 X125.06 Y90.706 E6.42783
G1 X125.12 Y91.526 E6.44244
G1 X125.12 Y120.528 E6.95798
G1 X125.083 Y121.173 E6.96947
G1 X125.006 Y121.845 E6.98149
G1 X124.89 Y122.509 E6.99347
G1 X124.701 Y123.138 E7.00515
G1 X124.466 Y123.784 E7.01737
G1 X124.199 Y124.402 E7.02933
G1 X123.881 Y124.953 E7.04064
G1 X123.507 Y125.524 E7.05277
G1 X123.105 Y126.064 E7.06474
G1 X122.661 Y126.536 E7.07626
G1 X122.16 Y127.01 E7.08852
G1 X121.644 Y127.443 E7.10049
G1 X121.097 Y127.802 E7.11213
G1 X120.506 Y128.143 E7.12425
G1 X119.904 Y128.444 E7.13622
G1 X119.31 Y128.66 E7.14745
G1 X118.654 Y128.858 E7.15963
G1 X117.999 Y129.014 E7.1716
G1 X117.364 Y129.089 E7.18297
G1 X116.68 Y129.131 E7.19515
G1 X116.006 Y129.133 E7.20713
G1 X115.345 Y129.055 E7.21896
G1 X114.666 Y128.935 E7.23122
G1 X114.011 Y128.779 E7.24319
G1 X113.411 Y128.56 E7.25454
G1 X112.786 Y128.291 E7.26664
G1 X112.185 Y127.989 E7.27859
G1 X111.647 Y127.635 E7.29004
G1 X111.095 Y127.225 E7.30227
G1 X110.579 Y126.792 E7.31424
G1 X110.137 Y126.323 E7.3257
G1 X109.697 Y125.8 E7.33785
G1 X109.295 Y125.26 E7.34981
G1 X108.965 Y124.686 E7.36158
G1 X108.657 Y124.07 E7.37382
G1 X108.392 Y123.451 E7.38579
G1 X108.211 Y122.841 E7.3971
G1 X108.054 Y122.178 E7.40922
G1 X107.912 Y121.216 E7.4265
G1 X107.88 Y120.527 E7.43876
G1 X107.88 Y91.526 E7.95428
G1 X107.92 Y90.854 E7.96625
G1 X108.039 Y90.191 E7.97822
G1 X108.236 Y89.548 E7.99018
G1 X108.508 Y88.932 E8.00215
G1 X108.851 Y88.353 E8.01411
M204 S625
M205 X6 Y6
G0 F4285.7 X109.269 Y88.487
M204 S500
M205 X5 Y5
G1 F1200 X109.676 Y87.983 E8.02563
G1 X110.142 Y87.533 E8.03714
G1 X110.659 Y87.144 E8.04864
G1 X111.221 Y86.821 E8.06016
G1 X111.818 Y86.57 E8.07168
G1 X112.442 Y86.394 E8.0832
G1 X113.082 Y86.297 E8.09471
G1 X113.55 Y86.276 E8.10304
G1 X119.45 Y86.276 E8.20791
G1 X120.097 Y86.316 E8.21944
G1 X120.733 Y86.435 E8.23094
G1 X121.35 Y86.632 E8.24245
G1 X121.939 Y86.903 E8.25398
G1 X122.489 Y87.245 E8.26549
G1 X122.993 Y87.652 E8.27701
G1 X123.443 Y88.118 E8.28852
G1 X123.832 Y88.635 E8.30002
G1 X124.155 Y89.197 E8.31154
G1 X124.406 Y89.794 E8.32306
G1 X124.582 Y90.418 E8.33458
G1 X124.679 Y91.058 E8.34609
G1 X124.7 Y91.526 E8.35442
G1 X124.7 Y120.528 E8.86995
G1 X124.666 Y121.126 E8.8806
G1 X124.589 Y121.798 E8.89263
G1 X124.476 Y122.435 E8.90413
G1 X124.307 Y122.995 E8.91452
G1 X124.072 Y123.641 E8.92674
G1 X123.813 Y124.235 E8.93826
G1 X123.53 Y124.723 E8.94829
G1 X123.156 Y125.294 E8.96042
G1 X122.768 Y125.813 E8.97194
G1 X122.372 Y126.231 E8.98218
G1 X121.871 Y126.705 E8.99444
G1 X121.374 Y127.12 E9.00595
G1 X120.887 Y127.438 E9.01629
G1 X120.296 Y127.779 E9.02842
G1 X119.716 Y128.068 E9.03993
G1 X119.189 Y128.258 E9.04989
G1 X118.533 Y128.456 E9.06207
G1 X117.903 Y128.605 E9.07358
G1 X117.338 Y128.67 E9.08369
G1 X116.654 Y128.712 E9.09587
G1 X116.006 Y128.712 E9.10739
G1 X115.418 Y128.642 E9.11792
G1 X114.739 Y128.522 E9.13017
G1 X114.11 Y128.37 E9.14168
G1 X113.577 Y128.174 E9.15177
G1 X112.952 Y127.905 E9.16387
G1 X112.374 Y127.613 E9.17538
G1 X111.898 Y127.298 E9.18552
G1 X111.346 Y126.888 E9.19775
G1 X110.85 Y126.47 E9.20928
G1 X110.459 Y126.053 E9.21944
G1 X110.019 Y125.53 E9.23159
G1 X109.633 Y125.009 E9.24311
G1 X109.34 Y124.498 E9.25359
G1 X109.032 Y123.882 E9.26583
G1 X108.779 Y123.286 E9.27734
G1 X108.619 Y122.744 E9.28738
G1 X108.462 Y122.081 E9.29949
G1 X108.331 Y121.191 E9.31549
G1 X108.3 Y120.527 E9.3273
G1 X108.3 Y91.526 E9.84282
G1 X108.34 Y90.879 E9.85435
G1 X108.459 Y90.243 E9.86585
G1 X108.656 Y89.626 E9.87736
G1 X108.927 Y89.037 E9.88889
G1 X109.269 Y88.487 E9.9004
M204 S625
M205 X6 Y6
G0 F4285.7 X109.686 Y88.628
M204 S500
M205 X5 Y5
G1 F1200 X110.09 Y88.156 E9.91144
G1 X110.552 Y87.739 E9.92251
G1 X111.062 Y87.386 E9.93353
G1 X111.614 Y87.101 E9.94457
G1 X112.199 Y86.889 E9.95564
G1 X112.805 Y86.754 E9.96667
G1 X113.55 Y86.696 E9.97995
G1 X119.45 Y86.696 E10.08483
G1 X120.07 Y86.736 E10.09588
G1 X120.68 Y86.855 E10.10692
G1 X121.269 Y87.052 E10.11796
G1 X121.828 Y87.322 E10.129
G1 X122.348 Y87.662 E10.14004
G1 X122.82 Y88.066 E10.15109
G1 X123.237 Y88.528 E10.16215
G1 X123.59 Y89.038 E10.17318
G1 X123.875 Y89.59 E10.18422
G1 X124.087 Y90.175 E10.19528
G1 X124.222 Y90.781 E10.20632
G1 X124.28 Y91.526 E10.2196
G1 X124.28 Y120.528 E10.73514
G1 X124.249 Y121.078 E10.74493
G1 X124.172 Y121.75 E10.75695
G1 X124.061 Y122.361 E10.76799
G1 X123.912 Y122.851 E10.7771
G1 X123.677 Y123.497 E10.78932
G1 X123.427 Y124.066 E10.80036
G1 X123.178 Y124.492 E10.80914
G1 X122.804 Y125.063 E10.82127
G1 X122.431 Y125.56 E10.83232
G1 X122.083 Y125.926 E10.84129
G1 X121.582 Y126.4 E10.85355
G1 X121.105 Y126.797 E10.86458
G1 X120.677 Y127.075 E10.87366
G1 X120.086 Y127.416 E10.88579
G1 X119.529 Y127.691 E10.89683
G1 X119.068 Y127.856 E10.90553
G1 X118.412 Y128.054 E10.91771
G1 X117.807 Y128.195 E10.92876
G1 X117.312 Y128.251 E10.93761
G1 X116.628 Y128.293 E10.94979
G1 X116.007 Y128.291 E10.96083
G1 X115.491 Y128.228 E10.97007
G1 X114.812 Y128.108 E10.98233
G1 X114.209 Y127.961 E10.99336
G1 X113.744 Y127.789 E11.00217
G1 X113.119 Y127.52 E11.01427
G1 X112.565 Y127.238 E11.02532
G1 X112.148 Y126.96 E11.03423
G1 X111.596 Y126.55 E11.04645
G1 X111.122 Y126.149 E11.05749
G1 X110.78 Y125.782 E11.06641
G1 X110.34 Y125.259 E11.07855
G1 X109.971 Y124.759 E11.0896
G1 X109.716 Y124.31 E11.09878
G1 X109.408 Y123.694 E11.11102
G1 X109.166 Y123.122 E11.12206
G1 X109.028 Y122.647 E11.13086
G1 X108.871 Y121.984 E11.14297
G1 X108.75 Y121.165 E11.15768
G1 X108.72 Y120.527 E11.16904
G1 X108.72 Y91.526 E11.68456
G1 X108.76 Y90.906 E11.6956
G1 X108.879 Y90.296 E11.70665
G1 X109.076 Y89.707 E11.71769
G1 X109.346 Y89.148 E11.72873
G1 X109.686 Y88.628 E11.73977
M204 S625
M205 X6 Y6
G0 F4285.7 X110.103 Y88.775
M204 S500
M205 X5 Y5
G1 F1200 X110.504 Y88.337 E11.75033
G1 X110.96 Y87.957 E11.76088
G1 X111.463 Y87.641 E11.77144
G1 X112.003 Y87.396 E11.78198
G1 X112.572 Y87.226 E11.79253
G1 X113.158 Y87.133 E11.80308
G1 X113.55 Y87.116 E11.81006
G1 X119.45 Y87.116 E11.91493
G1 X120.042 Y87.156 E11.92548
G1 X120.624 Y87.275 E11.93604
G1 X121.184 Y87.471 E11.94659
G1 X121.713 Y87.741 E11.95714
G1 X122.201 Y88.079 E11.9677
G1 X122.639 Y88.48 E11.97825
G1 X123.019 Y88.936 E11.9888
G1 X123.335 Y89.439 E11.99936
G1 X123.58 Y89.979 E12.0099
G1 X123.75 Y90.548 E12.02046
G1 X123.843 Y91.134 E12.03101
G1 X123.86 Y91.526 E12.03798
G1 X123.86 Y120.528 E12.55352
G1 X123.831 Y121.03 E12.56246
G1 X123.754 Y121.702 E12.57448
G1 X123.647 Y122.286 E12.58504
G1 X123.517 Y122.708 E12.59289
G1 X123.282 Y123.354 E12.60511
G1 X123.042 Y123.897 E12.61566
G1 X122.827 Y124.262 E12.62319
G1 X122.453 Y124.833 E12.63532
G1 X122.095 Y125.307 E12.64588
G1 X121.795 Y125.62 E12.65359
G1 X121.294 Y126.094 E12.66585
G1 X120.836 Y126.472 E12.67641
G1 X120.467 Y126.711 E12.68422
G1 X119.876 Y127.052 E12.69635
G1 X119.343 Y127.313 E12.7069
G1 X118.946 Y127.454 E12.71439
G1 X118.29 Y127.652 E12.72657
G1 X117.712 Y127.785 E12.73711
G1 X117.286 Y127.832 E12.74473
G1 X116.602 Y127.874 E12.75691
G1 X116.009 Y127.87 E12.76745
G1 X115.565 Y127.815 E12.77541
G1 X114.886 Y127.695 E12.78766
G1 X114.309 Y127.552 E12.79823
G1 X113.91 Y127.403 E12.8058
G1 X113.285 Y127.134 E12.8179
G1 X112.756 Y126.863 E12.82846
G1 X112.398 Y126.623 E12.83612
G1 X111.846 Y126.213 E12.84835
G1 X111.395 Y125.828 E12.85889
G1 X111.101 Y125.512 E12.86656
G1 X110.661 Y124.989 E12.87871
G1 X110.311 Y124.51 E12.88925
G1 X110.092 Y124.122 E12.89717
G1 X109.784 Y123.506 E12.90942
G1 X109.554 Y122.959 E12.91996
G1 X109.437 Y122.55 E12.92753
G1 X109.28 Y121.887 E12.93964
G1 X109.169 Y121.14 E12.95306
G1 X109.14 Y120.527 E12.96397
G1 X109.14 Y91.526 E13.47949
G1 X109.18 Y90.934 E13.49004
G1 X109.299 Y90.352 E13.5006
G1 X109.495 Y89.792 E13.51115
G1 X109.765 Y89.263 E13.5217
G1 X110.103 Y88.775 E13.53226
M204 S625
M205 X6 Y6
G0 F4285.7 X110.519 Y88.931
M204 S500
M205 X5 Y5
G1 F1200 X110.916 Y88.529 E13.5423
G1 X111.365 Y88.187 E13.55233
G1 X111.859 Y87.912 E13.56238
G1 X112.386 Y87.71 E13.57241
G1 X112.936 Y87.584 E13.58244
G1 X113.55 Y87.536 E13.59339
G1 X119.45 Y87.536 E13.69827
G1 X120.013 Y87.576 E13.7083
G1 X120.565 Y87.695 E13.71834
G1 X121.095 Y87.891 E13.72839
G1 X121.591 Y88.159 E13.73841
G1 X122.045 Y88.495 E13.74845
G1 X122.447 Y88.892 E13.75849
G1 X122.789 Y89.341 E13.76852
G1 X123.064 Y89.835 E13.77857
G1 X123.266 Y90.362 E13.78861
G1 X123.392 Y90.912 E13.79864
G1 X123.44 Y91.526 E13.80959
G1 X123.44 Y120.528 E14.32512
G1 X123.414 Y120.982 E14.33321
G1 X123.337 Y121.654 E14.34523
G1 X123.233 Y122.209 E14.35527
G1 X123.123 Y122.564 E14.36187
G1 X122.888 Y123.21 E14.37409
G1 X122.658 Y123.726 E14.38414
G1 X122.476 Y124.032 E14.39047
G1 X122.102 Y124.603 E14.4026
G1 X121.76 Y125.052 E14.41263
G1 X121.506 Y125.315 E14.41913
G1 X121.005 Y125.789 E14.43139
G1 X120.569 Y126.147 E14.44142
G1 X120.257 Y126.347 E14.44801
G1 X119.666 Y126.688 E14.46014
G1 X119.158 Y126.935 E14.47018
G1 X118.825 Y127.052 E14.47645
G1 X118.169 Y127.25 E14.48863
G1 X117.618 Y127.374 E14.49867
G1 X117.261 Y127.412 E14.50505
G1 X116.577 Y127.454 E14.51724
G1 X116.012 Y127.449 E14.52728
G1 X115.638 Y127.401 E14.53398
G1 X114.959 Y127.281 E14.54624
G1 X114.411 Y127.144 E14.55628
G1 X114.076 Y127.017 E14.56265
G1 X113.451 Y126.748 E14.57474
G1 X112.949 Y126.489 E14.58478
G1 X112.649 Y126.286 E14.59122
G1 X112.097 Y125.876 E14.60345
G1 X111.669 Y125.508 E14.61348
G1 X111.423 Y125.242 E14.61992
G1 X110.983 Y124.719 E14.63207
G1 X110.651 Y124.262 E14.64211
G1 X110.467 Y123.934 E14.6488
G1 X110.159 Y123.318 E14.66104
G1 X109.943 Y122.797 E14.67106
G1 X109.845 Y122.453 E14.67742
G1 X109.688 Y121.79 E14.68953
G1 X109.588 Y121.114 E14.70168
G1 X109.56 Y120.527 E14.71213
G1 X109.56 Y91.526 E15.22765
G1 X109.6 Y90.963 E15.23768
G1 X109.719 Y90.411 E15.24772
G1 X109.915 Y89.881 E15.25776
G1 X110.183 Y89.385 E15.26779
G1 X110.519 Y88.931 E15.27783
M204 S625
M205 X6 Y6
G0 F4285.7 X110.601 Y89.513
M204 S500
M205 X5 Y5
G1 F1200 X110.935 Y89.096 E15.28732
G1 X111.326 Y88.733 E15.29681
G1 X111.768 Y88.433 E15.3063
G1 X112.249 Y88.201 E15.3158
G1 X112.76 Y88.045 E15.32529
G1 X113.55 Y87.956 E15.33943
G1 X119.45 Y87.956 E15.4443
G1 X119.983 Y87.996 E15.45381
G1 X120.503 Y88.115 E15.46329
G1 X121 Y88.31 E15.47278
G1 X121.463 Y88.577 E15.48228
G1 X121.88 Y88.911 E15.49178
G1 X122.243 Y89.302 E15.50126
G1 X122.543 Y89.744 E15.51076
G1 X122.775 Y90.225 E15.52025
G1 X122.931 Y90.736 E15.52975
G1 X123.02 Y91.526 E15.54388
G1 X123.02 Y120.528 E16.05942
G1 X122.997 Y120.934 E16.06665
G1 X122.92 Y121.606 E16.07867
G1 X122.819 Y122.131 E16.08817
G1 X122.728 Y122.42 E16.09356
G1 X122.493 Y123.066 E16.10578
G1 X122.273 Y123.553 E16.11528
G1 X122.124 Y123.802 E16.12044
G1 X121.75 Y124.373 E16.13257
G1 X121.425 Y124.797 E16.14207
G1 X121.218 Y125.01 E16.14734
G1 X120.717 Y125.484 E16.1596
G1 X120.302 Y125.821 E16.16911
G1 X120.047 Y125.983 E16.17448
G1 X119.456 Y126.324 E16.18661
G1 X118.975 Y126.556 E16.1961
G1 X118.704 Y126.65 E16.2012
G1 X118.048 Y126.848 E16.21338
G1 X117.526 Y126.963 E16.22288
G1 X117.235 Y126.993 E16.22808
G1 X116.551 Y127.035 E16.24026
G1 X116.017 Y127.028 E16.24976
G1 X115.711 Y126.988 E16.25524
G1 X115.032 Y126.868 E16.2675
G1 X114.514 Y126.736 E16.277
G1 X114.242 Y126.631 E16.28218
G1 X113.617 Y126.362 E16.29428
G1 X113.143 Y126.115 E16.30378
G1 X112.899 Y125.949 E16.30903
G1 X112.347 Y125.539 E16.32125
G1 X111.944 Y125.189 E16.33074
G1 X111.744 Y124.971 E16.336
G1 X111.304 Y124.448 E16.34815
G1 X110.992 Y124.015 E16.35763
G1 X110.843 Y123.747 E16.36308
G1 X110.535 Y123.131 E16.37533
G1 X110.332 Y122.636 E16.38484
G1 X110.254 Y122.357 E16.38999
G1 X110.097 Y121.694 E16.4021
G1 X110.008 Y121.089 E16.41297
G1 X109.98 Y120.527 E16.42297
G1 X109.98 Y91.526 E16.93849
G1 X110.02 Y90.993 E16.94799
G1 X110.139 Y90.473 E16.95747
G1 X110.334 Y89.976 E16.96696
G1 X110.601 Y89.513 E16.97647
M204 S625
M205 X6 Y6
G0 F4285.7 X111.019 Y89.651
M204 S500
M205 X5 Y5
G1 F1200 X111.349 Y89.273 E16.98539
G1 X111.734 Y88.952 E16.9943
G1 X112.166 Y88.696 E17.00322
G1 X112.633 Y88.513 E17.01214
G1 X113.122 Y88.405 E17.02104
G1 X113.55 Y88.376 E17.02867
G1 X119.45 Y88.376 E17.13354
G1 X119.95 Y88.416 E17.14246
G1 X120.437 Y88.535 E17.15137
G1 X120.9 Y88.729 E17.1603
G1 X121.325 Y88.995 E17.16921
G1 X121.703 Y89.325 E17.17813
G1 X122.024 Y89.71 E17.18704
G1 X122.28 Y90.142 E17.19596
G1 X122.463 Y90.609 E17.20488
G1 X122.571 Y91.098 E17.21378
G1 X122.6 Y91.526 E17.22141
G1 X122.6 Y120.528 E17.73695
G1 X122.58 Y120.887 E17.74334
G1 X122.503 Y121.559 E17.75536
G1 X122.333 Y122.277 E17.76848
G1 X122.098 Y122.923 E17.7807
G1 X121.773 Y123.572 E17.7936
G1 X121.399 Y124.143 E17.80573
G1 X120.929 Y124.705 E17.81876
G1 X120.428 Y125.179 E17.83102
G1 X119.837 Y125.619 E17.84411
G1 X119.246 Y125.96 E17.85624
G1 X118.582 Y126.248 E17.86911
G1 X117.926 Y126.446 E17.88129
G1 X117.209 Y126.574 E17.89424
G1 X116.525 Y126.616 E17.90642
G1 X115.784 Y126.574 E17.91961
G1 X115.105 Y126.454 E17.93187
G1 X114.408 Y126.245 E17.9448
G1 X113.783 Y125.976 E17.9569
G1 X113.15 Y125.612 E17.96988
G1 X112.598 Y125.202 E17.9821
G1 X112.066 Y124.701 E17.99509
G1 X111.626 Y124.178 E18.00724
G1 X111.219 Y123.559 E18.02041
G1 X110.911 Y122.943 E18.03265
G1 X110.663 Y122.26 E18.04557
G1 X110.506 Y121.597 E18.05768
G1 X110.427 Y121.063 E18.06727
G1 X110.4 Y120.527 E18.07681
G1 X110.4 Y91.526 E18.59234
G1 X110.44 Y91.026 E18.60125
G1 X110.559 Y90.539 E18.61016
G1 X110.753 Y90.076 E18.61909
G1 X111.019 Y89.651 E18.628
M204 S625
M205 X6 Y6
G0 F4285.7 X111.436 Y89.799
M204 S500
M205 X5 Y5
G1 F1200 X111.761 Y89.464 E18.6363
G1 X112.139 Y89.189 E18.64461
G1 X112.557 Y88.983 E18.65289
G1 X113.005 Y88.851 E18.66119
G1 X113.55 Y88.796 E18.67093
G1 X119.45 Y88.796 E18.77581
G1 X119.915 Y88.836 E18.7841
G1 X120.367 Y88.955 E18.79241
G1 X120.792 Y89.148 E18.80071
G1 X121.177 Y89.412 E18.80901
G1 X121.512 Y89.737 E18.8173
G1 X121.787 Y90.115 E18.82561
G1 X121.993 Y90.533 E18.8339
G1 X122.125 Y90.981 E18.8422
G1 X122.18 Y91.526 E18.85194
G1 X122.18 Y120.528 E19.36748
G1 X122.162 Y120.839 E19.37301
G1 X122.085 Y121.511 E19.38504
G1 X121.939 Y122.133 E19.39639
G1 X121.704 Y122.779 E19.40861
G1 X121.422 Y123.342 E19.41981
G1 X121.048 Y123.913 E19.43194
G1 X120.64 Y124.4 E19.44323
G1 X120.139 Y124.874 E19.45549
G1 X119.627 Y125.256 E19.46685
G1 X119.036 Y125.597 E19.47898
G1 X118.461 Y125.846 E19.49012
G1 X117.805 Y126.044 E19.5023
G1 X117.183 Y126.155 E19.51353
G1 X116.499 Y126.197 E19.52571
G1 X115.857 Y126.16 E19.53714
G1 X115.178 Y126.04 E19.5494
G1 X114.574 Y125.86 E19.5606
G1 X113.949 Y125.591 E19.5727
G1 X113.4 Y125.275 E19.58396
G1 X112.848 Y124.865 E19.59618
G1 X112.387 Y124.431 E19.60743
G1 X111.947 Y123.908 E19.61958
G1 X111.594 Y123.371 E19.63101
G1 X111.286 Y122.755 E19.64325
G1 X111.071 Y122.163 E19.65445
G1 X110.914 Y121.5 E19.66656
G1 X110.825 Y120.693 E19.68099
G1 X110.82 Y120.527 E19.68394
G1 X110.82 Y91.526 E20.19946
G1 X110.86 Y91.061 E20.20776
G1 X110.979 Y90.609 E20.21607
G1 X111.172 Y90.184 E20.22436
G1 X111.436 Y89.799 E20.23266
M204 S625
M205 X6 Y6
G0 F4285.7 X111.591 Y90.302
M204 S500
M205 X5 Y5
G1 F1200 X111.851 Y89.96 E20.2403
G1 X112.171 Y89.673 E20.24794
G1 X112.537 Y89.45 E20.25556
G1 X112.939 Y89.298 E20.2632
G1 X113.55 Y89.216 E20.27416
G1 X119.45 Y89.216 E20.37904
G1 X119.878 Y89.256 E20.38668
G1 X120.29 Y89.374 E20.39429
G1 X120.674 Y89.567 E20.40193
G1 X121.016 Y89.827 E20.40957
G1 X121.303 Y90.147 E20.41721
G1 X121.526 Y90.513 E20.42483
G1 X121.678 Y90.915 E20.43247
G1 X121.76 Y91.526 E20.44343
G1 X121.76 Y120.528 E20.95897
G1 X121.745 Y120.791 E20.96365
G1 X121.668 Y121.463 E20.97567
G1 X121.544 Y121.99 E20.9853
G1 X121.309 Y122.636 E20.99752
G1 X121.07 Y123.112 E21.00699
G1 X120.696 Y123.683 E21.01912
G1 X120.352 Y124.095 E21.02866
G1 X119.851 Y124.569 E21.04092
G1 X119.417 Y124.892 E21.05054
G1 X118.826 Y125.233 E21.06267
G1 X118.339 Y125.443 E21.07209
G1 X117.683 Y125.641 E21.08427
G1 X117.158 Y125.736 E21.09376
G1 X116.474 Y125.778 E21.10594
G1 X115.93 Y125.747 E21.11563
G1 X115.251 Y125.627 E21.12788
G1 X114.74 Y125.474 E21.13736
G1 X114.115 Y125.205 E21.14946
G1 X113.651 Y124.937 E21.15898
G1 X113.099 Y124.527 E21.17121
G1 X112.708 Y124.16 E21.18074
G1 X112.268 Y123.637 E21.19289
G1 X111.97 Y123.183 E21.20254
G1 X111.662 Y122.567 E21.21478
G1 X111.48 Y122.066 E21.22426
G1 X111.323 Y121.403 E21.23637
G1 X111.244 Y120.668 E21.24951
G1 X111.24 Y120.527 E21.25202
G1 X111.24 Y91.526 E21.76754
G1 X111.28 Y91.098 E21.77518
G1 X111.398 Y90.686 E21.7828
G1 X111.591 Y90.302 E21.79044
M204 S625
M205 X6 Y6
G0 F4285.7 X112.009 Y90.432
M204 S500
M205 X5 Y5
G1 F1200 X112.265 Y90.14 E21.79734
G1 X112.576 Y89.907 E21.80425
G1 X112.927 Y89.742 E21.81114
G1 X113.305 Y89.652 E21.81805
G1 X113.55 Y89.636 E21.82242
G1 X119.45 Y89.636 E21.92729
G1 X119.836 Y89.676 E21.93419
G1 X120.206 Y89.794 E21.9411
G1 X120.544 Y89.985 E21.948
G1 X120.836 Y90.241 E21.9549
G1 X121.069 Y90.552 E21.96181
G1 X121.234 Y90.903 E21.9687
G1 X121.324 Y91.281 E21.97561
G1 X121.34 Y91.526 E21.97997
G1 X121.34 Y120.528 E22.49551
G1 X121.328 Y120.743 E22.49934
G1 X121.251 Y121.415 E22.51136
G1 X121.149 Y121.846 E22.51924
G1 X120.914 Y122.492 E22.53146
G1 X120.719 Y122.882 E22.53921
G1 X120.345 Y123.453 E22.55134
G1 X120.063 Y123.79 E22.55915
G1 X119.562 Y124.264 E22.57141
G1 X119.208 Y124.528 E22.57926
G1 X118.617 Y124.869 E22.59139
G1 X118.218 Y125.041 E22.59911
G1 X117.562 Y125.239 E22.6113
G1 X117.132 Y125.316 E22.61906
G1 X116.448 Y125.358 E22.63124
G1 X116.003 Y125.333 E22.63917
G1 X115.324 Y125.213 E22.65142
G1 X114.906 Y125.088 E22.65918
G1 X114.281 Y124.819 E22.67127
G1 X113.901 Y124.6 E22.67907
G1 X113.349 Y124.19 E22.69129
G1 X113.03 Y123.89 E22.69908
G1 X112.59 Y123.367 E22.71123
G1 X112.346 Y122.995 E22.71913
G1 X112.038 Y122.379 E22.73138
G1 X111.889 Y121.97 E22.73911
G1 X111.732 Y121.307 E22.75123
G1 X111.664 Y120.642 E22.76311
G1 X111.66 Y120.527 E22.76515
G1 X111.66 Y91.526 E23.28067
G1 X111.7 Y91.14 E23.28757
G1 X111.818 Y90.77 E23.29448
G1 X112.009 Y90.432 E23.30138
M204 S625
M205 X6 Y6
G0 F4285.7 X112.426 Y90.579
M204 S500
M205 X5 Y5
G1 F1200 X112.676 Y90.344 E23.30748
G1 X112.973 Y90.174 E23.31356
G1 X113.301 Y90.077 E23.31964
G1 X113.55 Y90.056 E23.32408
G1 X119.45 Y90.056 E23.42896
G1 X119.79 Y90.096 E23.43505
G1 X120.112 Y90.213 E23.44114
G1 X120.397 Y90.402 E23.44721
G1 X120.632 Y90.652 E23.45331
G1 X120.802 Y90.949 E23.4594
G1 X120.899 Y91.277 E23.46548
G1 X120.92 Y91.526 E23.46992
G1 X120.92 Y120.528 E23.98546
G1 X120.91 Y120.695 E23.98843
G1 X120.833 Y121.367 E24.00046
G1 X120.754 Y121.703 E24.00659
G1 X120.519 Y122.349 E24.01881
G1 X120.368 Y122.651 E24.02481
G1 X119.994 Y123.222 E24.03695
G1 X119.774 Y123.485 E24.04304
G1 X119.273 Y123.959 E24.0553
G1 X118.998 Y124.164 E24.0614
G1 X118.407 Y124.505 E24.07353
G1 X118.097 Y124.639 E24.07953
G1 X117.441 Y124.837 E24.09171
G1 X117.106 Y124.897 E24.09776
G1 X116.422 Y124.939 E24.10994
G1 X116.076 Y124.92 E24.1161
G1 X115.397 Y124.8 E24.12836
G1 X115.072 Y124.702 E24.13439
G1 X114.447 Y124.433 E24.14649
G1 X114.151 Y124.263 E24.15256
G1 X113.599 Y123.853 E24.16478
G1 X113.351 Y123.619 E24.17084
G1 X112.911 Y123.096 E24.18299
G1 X112.721 Y122.807 E24.18914
G1 X112.413 Y122.191 E24.20138
G1 X112.298 Y121.873 E24.20739
G1 X112.141 Y121.21 E24.2195
G1 X112.083 Y120.617 E24.23009
G1 X112.08 Y120.527 E24.2317
G1 X112.08 Y91.526 E24.74722
G1 X112.12 Y91.186 E24.7533
G1 X112.237 Y90.864 E24.75939
G1 X112.426 Y90.579 E24.76547
M204 S625
M205 X6 Y6
G0 F4285.7 X112.656 Y90.975
M204 S500
M205 X5 Y5
G1 F1200 X112.84 Y90.752 E24.77061
G1 X113.078 Y90.588 E24.77575
G1 X113.352 Y90.495 E24.78089
G1 X113.55 Y90.476 E24.78443
G1 X119.45 Y90.476 E24.88931
G1 X119.736 Y90.516 E24.89444
G1 X120.001 Y90.632 E24.89958
G1 X120.224 Y90.816 E24.90472
G1 X120.388 Y91.054 E24.90986
G1 X120.481 Y91.328 E24.915
G1 X120.5 Y91.526 E24.91854
G1 X120.5 Y120.528 E25.43408
G1 X120.493 Y120.648 E25.43621
G1 X120.416 Y121.32 E25.44824
G1 X120.36 Y121.559 E25.4526
G1 X120.125 Y122.205 E25.46482
G1 X120.016 Y122.421 E25.46912
G1 X119.642 Y122.992 E25.48125
G1 X119.486 Y123.18 E25.4856
G1 X118.985 Y123.654 E25.49786
G1 X118.788 Y123.8 E25.50222
G1 X118.197 Y124.141 E25.51434
G1 X117.975 Y124.237 E25.51864
G1 X117.319 Y124.435 E25.53082
G1 X117.08 Y124.478 E25.53514
G1 X116.396 Y124.52 E25.54732
G1 X116.149 Y124.506 E25.55172
G1 X115.47 Y124.386 E25.56398
G1 X115.238 Y124.316 E25.56828
G1 X114.613 Y124.047 E25.58038
G1 X114.402 Y123.926 E25.5847
G1 X113.85 Y123.516 E25.59693
G1 X113.673 Y123.349 E25.60125
G1 X113.233 Y122.826 E25.6134
G1 X113.097 Y122.62 E25.61779
G1 X112.789 Y122.004 E25.63003
G1 X112.706 Y121.776 E25.63435
G1 X112.549 Y121.113 E25.64646
G1 X112.502 Y120.591 E25.65577
G1 X112.5 Y120.527 E25.65691
G1 X112.5 Y91.526 E26.17243
G1 X112.54 Y91.24 E26.17757
G1 X112.656 Y90.975 E26.18271
M204 S625
M205 X6 Y6
G0 F4285.7 X113.074 Y91.114
M204 S500
M205 X5 Y5
G1 F1200 X113.248 Y90.973 E26.18669
G1 X113.55 Y90.896 E26.19223
G1 X119.45 Y90.896 E26.29711
G1 X119.67 Y90.936 E26.30108
G1 X119.862 Y91.05 E26.30505
G1 X120.003 Y91.224 E26.30903
G1 X120.08 Y91.526 E26.31457
G1 X120.08 Y120.528 E26.83011
G1 X120.076 Y120.6 E26.83139
G1 X119.999 Y121.272 E26.84342
G1 X119.965 Y121.415 E26.84603
G1 X119.73 Y122.061 E26.85825
G1 X119.665 Y122.191 E26.86083
G1 X119.291 Y122.762 E26.87297
G1 X119.197 Y122.875 E26.87558
G1 X118.696 Y123.349 E26.88784
G1 X118.578 Y123.437 E26.89046
G1 X117.987 Y123.778 E26.90258
G1 X117.854 Y123.835 E26.90516
G1 X117.198 Y124.033 E26.91734
G1 X117.055 Y124.059 E26.91992
G1 X116.371 Y124.101 E26.9321
G1 X116.222 Y124.092 E26.93476
G1 X115.543 Y123.972 E26.94701
G1 X115.404 Y123.931 E26.94959
G1 X114.779 Y123.662 E26.96168
G1 X114.652 Y123.589 E26.96429
G1 X114.1 Y123.179 E26.97651
G1 X113.994 Y123.079 E26.9791
G1 X113.554 Y122.556 E26.99125
G1 X113.473 Y122.432 E26.99388
G1 X113.165 Y121.816 E27.00613
G1 X113.115 Y121.679 E27.00872
G1 X112.958 Y121.016 E27.02083
G1 X112.92 Y120.527 E27.02955
G1 X112.92 Y91.526 E27.54507
G1 X112.96 Y91.306 E27.54905
G1 X113.074 Y91.114 E27.55301
M204 S625
M205 X6 Y6
G0 F4285.7 X113.379 Y91.404
M204 S500
M205 X5 Y5
G1 F1200 X113.55 Y91.316 E27.55643
G1 X119.45 Y91.316 E27.66131
G1 X119.572 Y91.355 E27.66359
G1 X119.66 Y91.526 E27.66701
G1 X119.659 Y120.552 E28.18297
G1 X119.582 Y121.224 E28.195
G1 X119.57 Y121.272 E28.19588
G1 X119.335 Y121.918 E28.20809
G1 X119.314 Y121.961 E28.20895
G1 X118.94 Y122.532 E28.22108
G1 X118.908 Y122.57 E28.22196
G1 X118.407 Y123.044 E28.23422
G1 X118.368 Y123.073 E28.23509
G1 X117.777 Y123.414 E28.24721
G1 X117.733 Y123.433 E28.24807
G1 X117.077 Y123.631 E28.26025
G1 X117.029 Y123.64 E28.26112
G1 X116.345 Y123.682 E28.2733
G1 X116.295 Y123.679 E28.27419
G1 X115.616 Y123.559 E28.28644
G1 X115.57 Y123.545 E28.2873
G1 X114.945 Y123.276 E28.29939
G1 X114.903 Y123.252 E28.30025
G1 X114.351 Y122.842 E28.31248
G1 X114.315 Y122.808 E28.31336
G1 X113.875 Y122.285 E28.32551
G1 X113.848 Y122.244 E28.32638
G1 X113.54 Y121.628 E28.33862
G1 X113.524 Y121.582 E28.33949
G1 X113.367 Y120.919 E28.3516
G1 X113.34 Y120.54 E28.35835
G1 X113.34 Y91.526 E28.87411
G1 X113.379 Y91.404 E28.87638
M204 S625
M205 X6 Y6
G1 F1500 E22.37638
;MESH:Middle adjusting piece.stl
G0 F4285.7 X114.164 Y92.14
G0 X118.751 Y120.489
G0 X119.24 Y120.513
M204 S500
M205 X5 Y5
;TYPE:WALL-OUTER
G1 F1500 E28.87638
G1 F1200 X119.166 Y121.156 E28.88789
G1 X118.95 Y121.749 E28.89911
G1 X118.6 Y122.284 E28.91047
G1 X118.139 Y122.72 E28.92175
G1 X117.586 Y123.04 E28.93311
G1 X116.981 Y123.221 E28.94433
G1 X116.342 Y123.261 E28.95571
G1 X115.716 Y123.15 E28.96702
G1 X115.13 Y122.899 E28.97835
G1 X114.625 Y122.522 E28.98955
G1 X114.213 Y122.033 E29.00092
G1 X113.927 Y121.461 E29.01228
G1 X113.78 Y120.843 E29.02358
G1 X113.76 Y120.513 E29.02945
G1 X113.76 Y91.736 E29.54099
G1 X119.24 Y91.736 E29.6384
G1 X119.24 Y120.513 E30.14994
M204 S625
M205 X6 Y6
G0 F4285.7 X119.218 Y120.711
G0 X118.759 Y120.658
G0 X118.85 Y120.494
M204 S500
M205 X5 Y5
;TYPE:WALL-INNER
G1 F1200 X118.784 Y121.067 E30.15873
G1 X118.6 Y121.571 E30.16691
G1 X118.298 Y122.033 E30.17532
G1 X117.939 Y122.372 E30.18284
G1 X117.906 Y122.404 E30.18354
G1 X117.431 Y122.679 E30.1919
G1 X116.909 Y122.835 E30.2002
G1 X116.867 Y122.837 E30.20084
G1 X116.365 Y122.869 E30.20851
G1 X115.827 Y122.774 E30.21683
G1 X115.328 Y122.56 E30.22511
G1 X114.892 Y122.235 E30.23339
G1 X114.542 Y121.818 E30.24169
G1 X114.295 Y121.325 E30.25009
G1 X114.286 Y121.284 E30.25073
G1 X114.175 Y120.818 E30.25803
G1 X114.167 Y120.787 E30.25851
G1 X114.166 Y120.757 E30.25897
G1 X114.152 Y120.537 E30.26233
G1 X114.15 Y120.513 E30.2627
G1 X114.15 Y92.126 E30.69522
G1 X118.85 Y92.126 E30.76683
G1 X118.85 Y120.494 E31.19906
M204 S625
M205 X6 Y6
G0 F4285.7 X118.49 Y120.47
M204 S500
M205 X5 Y5
G1 F1200 X118.431 Y120.986 E31.20697
G1 X118.276 Y121.409 E31.21384
G1 X118.019 Y121.802 E31.22099
G1 X117.692 Y122.112 E31.22786
G1 X117.287 Y122.346 E31.23498
G1 X116.844 Y122.479 E31.24203
G1 X116.389 Y122.507 E31.24898
G1 X115.929 Y122.426 E31.25609
G1 X115.509 Y122.246 E31.26306
G1 X115.14 Y121.971 E31.27007
G1 X114.845 Y121.619 E31.27707
G1 X114.635 Y121.2 E31.28421
G1 X114.524 Y120.734 E31.29151
G1 X114.51 Y120.513 E31.29488
G1 X114.51 Y92.486 E31.72191
G1 X118.49 Y92.486 E31.78256
G1 X118.49 Y120.47 E32.20894
M204 S625
M205 X6 Y6
G0 F4285.7 X118.11 Y120.445
M204 S500
M205 X5 Y5
;TYPE:SKIN
G1 F1200 X118.058 Y120.899 E32.21706
G1 X117.934 Y121.238 E32.22348
G1 X117.725 Y121.557 E32.23025
G1 X117.463 Y121.805 E32.23667
G1 X117.137 Y121.994 E32.24337
G1 X116.779 Y122.102 E32.25001
G1 X116.406 Y122.125 E32.25666
G1 X116.038 Y122.06 E32.2633
G1 X115.698 Y121.914 E32.26988
G1 X115.406 Y121.696 E32.27635
G1 X115.166 Y121.409 E32.283
G1 X114.994 Y121.068 E32.28979
G1 X114.902 Y120.68 E32.29688
G1 X114.89 Y120.489 E32.30028
G1 X114.89 Y92.866 E32.79131
G1 X118.11 Y92.866 E32.84855
G1 X118.11 Y120.445 E33.33879
M204 S625
M205 X6 Y6
G0 F4285.7 X115.841 Y121.781
M204 S500
M205 X5 Y5
G1 F1200 X115.258 Y121.198 E33.35345
M204 S625
M205 X6 Y6
G0 F4285.7 X115.067 Y120.413
M204 S500
M205 X5 Y5
G1 F1200 X116.587 Y121.933 E33.39166
M204 S625
M205 X6 Y6
G0 F4285.7 X117.072 Y121.824
M204 S500
M205 X5 Y5
G1 F1200 X115.067 Y119.819 E33.44206
M204 S625
M205 X6 Y6
G0 F4285.7 X115.067 Y119.225
M204 S500
M205 X5 Y5
G1 F1200 X117.43 Y121.588 E33.50147
M204 S625
M205 X6 Y6
G0 F4285.7 X117.702 Y121.266
M204 S500
M205 X5 Y5
G1 F1200 X115.067 Y118.631 E33.56771
M204 S625
M205 X6 Y6
G0 F4285.7 X115.067 Y118.037
M204 S500
M205 X5 Y5
G1 F1200 X117.883 Y120.853 E33.6385
M204 S625
M205 X6 Y6
G0 F4285.7 X117.931 Y120.307
M204 S500
M205 X5 Y5
G1 F1200 X115.067 Y117.443 E33.7105
M204 S625
M205 X6 Y6
G0 F4285.7 X115.067 Y116.849
M204 S500
M205 X5 Y5
G1 F1200 X117.931 Y119.713 E33.7825
M204 S625
M205 X6 Y6
G0 F4285.7 X117.931 Y119.119
M204 S500
M205 X5 Y5
G1 F1200 X115.067 Y116.255 E33.85449
M204 S625
M205 X6 Y6
G0 F4285.7 X115.067 Y115.661
M204 S500
M205 X5 Y5
G1 F1200 X117.931 Y118.525 E33.92649
M204 S625
M205 X6 Y6
G0 F4285.7 X117.931 Y117.931
M204 S500
M205 X5 Y5
G1 F1200 X115.067 Y115.067 E33.99849
M204 S625
M205 X6 Y6
G0 F4285.7 X115.067 Y114.473
M204 S500
M205 X5 Y5
G1 F1200 X117.931 Y117.338 E34.0705
M204 S625
M205 X6 Y6
G0 F4285.7 X117.931 Y116.744
M204 S500
M205 X5 Y5
G1 F1200 X115.067 Y113.879 E34.14251
M204 S625
M205 X6 Y6
G0 F4285.7 X115.067 Y113.285
M204 S500
M205 X5 Y5
G1 F1200 X117.931 Y116.15 E34.21452
M204 S625
M205 X6 Y6
G0 F4285.7 X117.931 Y115.556
M204 S500
M205 X5 Y5
G1 F1200 X115.067 Y112.691 E34.28653
M204 S625
M205 X6 Y6
G0 F4285.7 X115.067 Y112.097
M204 S500
M205 X5 Y5
G1 F1200 X117.931 Y114.962 E34.35854
M204 S625
M205 X6 Y6
G0 F4285.7 X117.931 Y114.368
M204 S500
M205 X5 Y5
G1 F1200 X115.067 Y111.503 E34.43055
M204 S625
M205 X6 Y6
G0 F4285.7 X115.067 Y110.909
M204 S500
M205 X5 Y5
G1 F1200 X117.931 Y113.774 E34.50257
M204 S625
M205 X6 Y6
G0 F4285.7 X117.931 Y113.18
M204 S500
M205 X5 Y5
G1 F1200 X115.067 Y110.315 E34.57458
M204 S625
M205 X6 Y6
G0 F4285.7 X115.067 Y109.721
M204 S500
M205 X5 Y5
G1 F1200 X117.931 Y112.586 E34.64659
M204 S625
M205 X6 Y6
G0 F4285.7 X117.931 Y111.992
M204 S500
M205 X5 Y5
G1 F1200 X115.067 Y109.127 E34.7186
M204 S625
M205 X6 Y6
G0 F4285.7 X115.067 Y108.533
M204 S500
M205 X5 Y5
G1 F1200 X117.931 Y111.398 E34.79061
M204 S625
M205 X6 Y6
G0 F4285.7 X117.931 Y110.804
M204 S500
M205 X5 Y5
G1 F1200 X115.067 Y107.939 E34.86262
M204 S625
M205 X6 Y6
G0 F4285.7 X115.067 Y107.345
M204 S500
M205 X5 Y5
G1 F1200 X117.931 Y110.21 E34.93463
M204 S625
M205 X6 Y6
G0 F4285.7 X117.931 Y109.616
M204 S500
M205 X5 Y5
G1 F1200 X115.067 Y106.751 E35.00664
M204 S625
M205 X6 Y6
G0 F4285.7 X115.067 Y106.157
M204 S500
M205 X5 Y5
G1 F1200 X117.931 Y109.022 E35.07865
M204 S625
M205 X6 Y6
G0 F4285.7 X117.931 Y108.428
M204 S500
M205 X5 Y5
G1 F1200 X115.067 Y105.563 E35.15066
M204 S625
M205 X6 Y6
G0 F4285.7 X115.067 Y104.97
M204 S500
M205 X5 Y5
G1 F1200 X117.931 Y107.834 E35.22266
M204 S625
M205 X6 Y6
G0 F4285.7 X117.931 Y107.24
M204 S500
M205 X5 Y5
G1 F1200 X115.067 Y104.376 E35.29466
M204 S625
M205 X6 Y6
G0 F4285.7 X115.067 Y103.782
M204 S500
M205 X5 Y5
G1 F1200 X117.931 Y106.646 E35.36666
M204 S625
M205 X6 Y6
G0 F4285.7 X117.931 Y106.052
M204 S500
M205 X5 Y5
G1 F1200 X115.067 Y103.188 E35.43865
M204 S625
M205 X6 Y6
G0 F4285.7 X115.067 Y102.594
M204 S500
M205 X5 Y5
G1 F1200 X117.931 Y105.458 E35.51065
M204 S625
M205 X6 Y6
G0 F4285.7 X117.931 Y104.864
M204 S500
M205 X5 Y5
G1 F1200 X115.067 Y102 E35.58265
M204 S625
M205 X6 Y6
G0 F4285.7 X115.067 Y101.406
M204 S500
M205 X5 Y5
G1 F1200 X117.931 Y104.27 E35.65465
M204 S625
M205 X6 Y6
G0 F4285.7 X117.931 Y103.676
M204 S500
M205 X5 Y5
G1 F1200 X115.067 Y100.812 E35.72665
M204 S625
M205 X6 Y6
G0 F4285.7 X115.067 Y100.218
M204 S500
M205 X5 Y5
G1 F1200 X117.931 Y103.082 E35.79865
M204 S625
M205 X6 Y6
G0 F4285.7 X117.931 Y102.488
M204 S500
M205 X5 Y5
G1 F1200 X115.067 Y99.624 E35.87064
M204 S625
M205 X6 Y6
G0 F4285.7 X115.067 Y99.03
M204 S500
M205 X5 Y5
G1 F1200 X117.931 Y101.894 E35.94264
M204 S625
M205 X6 Y6
G0 F4285.7 X117.931 Y101.3
M204 S500
M205 X5 Y5
G1 F1200 X115.067 Y98.436 E36.01464
M204 S625
M205 X6 Y6
G0 F4285.7 X115.067 Y97.842
M204 S500
M205 X5 Y5
G1 F1200 X117.931 Y100.706 E36.08664
M204 S625
M205 X6 Y6
G0 F4285.7 X117.931 Y100.112
M204 S500
M205 X5 Y5
G1 F1200 X115.067 Y97.248 E36.15864
M204 S625
M205 X6 Y6
G0 F4285.7 X115.067 Y96.654
M104 S200
M204 S500
M205 X5 Y5
G1 F1200 X117.931 Y99.518 E36.23063
M204 S625
M205 X6 Y6
G0 F4285.7 X117.931 Y98.924
M204 S500
M205 X5 Y5
G1 F1200 X115.067 Y96.06 E36.30263
M204 S625
M205 X6 Y6
G0 F4285.7 X115.067 Y95.466
M204 S500
M205 X5 Y5
G1 F1200 X117.931 Y98.33 E36.37463
M204 S625
M205 X6 Y6
G0 F4285.7 X117.931 Y97.737
M204 S500
M205 X5 Y5
G1 F1200 X115.067 Y94.872 E36.44664
M204 S625
M205 X6 Y6
G0 F4285.7 X115.067 Y94.278
M204 S500
M205 X5 Y5
G1 F1200 X117.931 Y97.143 E36.51865
M204 S625
M205 X6 Y6
G0 F4285.7 X117.931 Y96.549
M204 S500
M205 X5 Y5
G1 F1200 X115.067 Y93.684 E36.59066
M204 S625
M205 X6 Y6
G0 F4285.7 X115.067 Y93.09
M204 S500
M205 X5 Y5
G1 F1200 X117.931 Y95.955 E36.66267
M204 S625
M205 X6 Y6
G0 F4285.7 X117.931 Y95.361
M204 S500
M205 X5 Y5
G1 F1200 X115.614 Y93.043 E36.72093
M204 S625
M205 X6 Y6
G0 F4285.7 X116.208 Y93.043
M204 S500
M205 X5 Y5
G1 F1200 X117.931 Y94.767 E36.76426
M204 S625
M205 X6 Y6
G0 F4285.7 X117.931 Y94.173
M204 S500
M205 X5 Y5
G1 F1200 X116.802 Y93.043 E36.79266
M204 S625
M205 X6 Y6
G0 F4285.7 X117.396 Y93.043
M204 S500
M205 X5 Y5
G1 F1200 X117.931 Y93.579 E36.80612
M204 S625
M205 X6 Y6
;MESH:NONMESH
G0 F600 X117.931 Y93.579 Z0.37
G0 F4285.7 X118.65 Y120.484
;TIME_ELAPSED:114.968956
;LAYER:1
M106 S85
M204 S750
M205 X7.5 Y7.5
;TYPE:WALL-INNER
;MESH:Middle adjusting piece.stl
G1 F1500 X118.588 Y121.013 E36.80862
G1 X118.418 Y121.485 E36.81098
G1 X118.149 Y121.896 E36.81329
G1 X117.781 Y122.245 E36.81568
G1 X117.353 Y122.493 E36.818
G1 X116.876 Y122.636 E36.82034
G1 X116.379 Y122.668 E36.82269
G1 X115.891 Y122.583 E36.82502
G1 X115.426 Y122.383 E36.8274
G1 X115.035 Y122.091 E36.82969
G1 X114.707 Y121.701 E36.83209
G1 X114.485 Y121.26 E36.83441
G1 X114.364 Y120.752 E36.83686
G1 X114.35 Y120.515 E36.83798
G1 X114.35 Y92.326 E36.97054
G1 X118.65 Y92.326 E36.99077
G1 X118.65 Y120.484 E37.12318
M204 S2812
M205 X18 Y18
G0 F9642.9 X118.95 Y120.502
M204 S750
M205 X7.5 Y7.5
G1 F1500 X118.882 Y121.082 E37.12593
G1 X118.688 Y121.62 E37.12862
G1 X118.379 Y122.092 E37.13127
G1 X117.964 Y122.486 E37.13396
G1 X117.475 Y122.769 E37.13662
G1 X117.44 Y122.779 E37.13679
G1 X116.963 Y122.922 E37.13913
G1 X116.929 Y122.933 E37.1393
G1 X116.398 Y122.966 E37.1418
G1 X116.359 Y122.969 E37.14199
G1 X115.806 Y122.873 E37.14463
G1 X115.278 Y122.646 E37.14733
G1 X115.248 Y122.623 E37.14751
G1 X114.825 Y122.308 E37.14999
G1 X114.455 Y121.868 E37.15269
G1 X114.201 Y121.364 E37.15534
G1 X114.067 Y120.799 E37.15807
G1 X114.066 Y120.77 E37.15821
G1 X114.052 Y120.534 E37.15932
G1 X114.05 Y120.515 E37.15941
G1 X114.05 Y92.026 E37.29339
G1 X118.95 Y92.026 E37.31643
G1 X118.95 Y120.502 E37.45034
M204 S2812
M205 X18 Y18
G0 F9642.9 X119.275 Y120.523
M204 S500
M205 X5 Y5
;TYPE:WALL-OUTER
G1 F1200 X119.201 Y121.157 E37.45384
G1 X118.981 Y121.766 E37.4574
G1 X118.63 Y122.303 E37.46092
G1 X118.162 Y122.747 E37.46445
G1 X117.606 Y123.069 E37.46798
G1 X116.986 Y123.255 E37.47153
G1 X116.34 Y123.296 E37.47508
G1 X115.711 Y123.186 E37.47859
G1 X115.115 Y122.93 E37.48214
G1 X114.601 Y122.547 E37.48566
G1 X114.183 Y122.05 E37.48922
G1 X113.894 Y121.476 E37.49275
G1 X113.745 Y120.847 E37.4963
G1 X113.725 Y120.515 E37.49812
G1 X113.725 Y91.701 E37.65621
G1 X119.275 Y91.701 E37.68666
G1 X119.275 Y120.523 E37.84479
M204 S2812
M205 X18 Y18
G0 F9642.9 X119.252 Y120.721
G0 X118.87 Y120.676
G0 X118.335 Y120.466
M204 S500
M205 X5 Y5
;TYPE:SKIN
G1 F1500 X118.279 Y120.942 E37.84742
G1 X118.134 Y121.342 E37.84975
G1 X117.906 Y121.691 E37.85204
G1 X117.591 Y121.991 E37.85442
G1 X117.226 Y122.202 E37.85674
G1 X116.822 Y122.323 E37.85905
G1 X116.396 Y122.351 E37.86139
G1 X115.98 Y122.278 E37.86371
G1 X115.583 Y122.107 E37.86608
G1 X115.253 Y121.86 E37.86834
G1 X114.97 Y121.524 E37.87075
G1 X114.784 Y121.156 E37.87302
G1 X114.677 Y120.706 E37.87555
G1 X114.665 Y120.496 E37.87671
G1 X114.665 Y92.641 E38.02953
G1 X118.335 Y92.641 E38.04967
G1 X118.335 Y120.466 E38.20233
M204 S2812
M205 X18 Y18
G0 F9642.9 X118.123 Y120.949
M204 S500
M205 X5 Y5
G1 F1500 X116.933 Y122.139 E38.21156
M204 S2812
M205 X18 Y18
G0 F9642.9 X116.374 Y122.202
M204 S500
M205 X5 Y5
G1 F1500 X118.191 Y120.386 E38.22565
M204 S2812
M205 X18 Y18
G0 F9642.9 X118.191 Y119.891
M204 S500
M205 X5 Y5
G1 F1500 X115.966 Y122.115 E38.24291
M204 S2812
M205 X18 Y18
G0 F9642.9 X115.627 Y121.96
M204 S500
M205 X5 Y5
G1 F1500 X118.191 Y119.396 E38.26281
M204 S2812
M205 X18 Y18
G0 F9642.9 X118.191 Y118.901
M204 S500
M205 X5 Y5
G1 F1500 X115.346 Y121.746 E38.28488
M204 S2812
M205 X18 Y18
G0 F9642.9 X115.119 Y121.478
M204 S500
M205 X5 Y5
G1 F1500 X118.191 Y118.406 E38.30872
M204 S2812
M205 X18 Y18
G0 F9642.9 X118.191 Y117.911
M204 S500
M205 X5 Y5
G1 F1500 X114.945 Y121.157 E38.3339
M204 S2812
M205 X18 Y18
G0 F9642.9 X114.839 Y120.768
M204 S500
M205 X5 Y5
G1 F1500 X118.191 Y117.416 E38.35991
M204 S2812
M205 X18 Y18
G0 F9642.9 X118.191 Y116.921
M204 S500
M205 X5 Y5
G1 F1500 X114.807 Y120.305 E38.38617
M204 S2812
M205 X18 Y18
G0 F9642.9 X114.807 Y119.81
M204 S500
M205 X5 Y5
G1 F1500 X118.191 Y116.426 E38.41242
M204 S2812
M205 X18 Y18
G0 F9642.9 X118.191 Y115.931
M204 S500
M205 X5 Y5
G1 F1500 X114.807 Y119.315 E38.43868
M204 S2812
M205 X18 Y18
G0 F9642.9 X114.807 Y118.82
M204 S500
M205 X5 Y5
G1 F1500 X118.191 Y115.436 E38.46494
M204 S2812
M205 X18 Y18
G0 F9642.9 X118.191 Y114.941
M204 S500
M205 X5 Y5
G1 F1500 X114.807 Y118.325 E38.49119
M204 S2812
M205 X18 Y18
G0 F9642.9 X114.807 Y117.83
M204 S500
M205 X5 Y5
G1 F1500 X118.191 Y114.446 E38.51745
M204 S2812
M205 X18 Y18
G0 F9642.9 X118.191 Y113.951
M204 S500
M205 X5 Y5
G1 F1500 X114.807 Y117.335 E38.5437
M204 S2812
M205 X18 Y18
G0 F9642.9 X114.807 Y116.84
M204 S500
M205 X5 Y5
G1 F1500 X118.191 Y113.456 E38.56996
M204 S2812
M205 X18 Y18
G0 F9642.9 X118.191 Y112.961
M204 S500
M205 X5 Y5
G1 F1500 X114.807 Y116.345 E38.59622
M204 S2812
M205 X18 Y18
G0 F9642.9 X114.807 Y115.85
M204 S500
M205 X5 Y5
G1 F1500 X118.191 Y112.466 E38.62247
M204 S2812
M205 X18 Y18
G0 F9642.9 X118.191 Y111.971
M204 S500
M205 X5 Y5
G1 F1500 X114.807 Y115.355 E38.64873
M204 S2812
M205 X18 Y18
G0 F9642.9 X114.807 Y114.86
M204 S500
M205 X5 Y5
G1 F1500 X118.191 Y111.476 E38.67499
M204 S2812
M205 X18 Y18
G0 F9642.9 X118.191 Y110.981
M204 S500
M205 X5 Y5
G1 F1500 X114.807 Y114.365 E38.70124
M204 S2812
M205 X18 Y18
G0 F9642.9 X114.807 Y113.87
M204 S500
M205 X5 Y5
G1 F1500 X118.191 Y110.486 E38.7275
M204 S2812
M205 X18 Y18
G0 F9642.9 X118.191 Y109.991
M204 S500
M205 X5 Y5
G1 F1500 X114.807 Y113.375 E38.75375
M204 S2812
M205 X18 Y18
G0 F9642.9 X114.807 Y112.88
M204 S500
M205 X5 Y5
G1 F1500 X118.191 Y109.496 E38.78001
M204 S2812
M205 X18 Y18
G0 F9642.9 X118.191 Y109.001
M204 S500
M205 X5 Y5
G1 F1500 X114.807 Y112.385 E38.80627
M204 S2812
M205 X18 Y18
G0 F9642.9 X114.807 Y111.89
M204 S500
M205 X5 Y5
G1 F1500 X118.191 Y108.506 E38.83252
M204 S2812
M205 X18 Y18
G0 F9642.9 X118.191 Y108.011
M204 S500
M205 X5 Y5
G1 F1500 X114.807 Y111.395 E38.85878
M204 S2812
M205 X18 Y18
G0 F9642.9 X114.807 Y110.9
M204 S500
M205 X5 Y5
G1 F1500 X118.191 Y107.517 E38.88503
M204 S2812
M205 X18 Y18
G0 F9642.9 X118.191 Y107.022
M204 S500
M205 X5 Y5
G1 F1500 X114.807 Y110.405 E38.91128
M204 S2812
M205 X18 Y18
G0 F9642.9 X114.807 Y109.91
M204 S500
M205 X5 Y5
G1 F1500 X118.191 Y106.527 E38.93754
M204 S2812
M205 X18 Y18
G0 F9642.9 X118.191 Y106.032
M204 S500
M205 X5 Y5
G1 F1500 X114.807 Y109.415 E38.96379
M204 S2812
M205 X18 Y18
G0 F9642.9 X114.807 Y108.92
M204 S500
M205 X5 Y5
G1 F1500 X118.191 Y105.537 E38.99004
M204 S2812
M205 X18 Y18
G0 F9642.9 X118.191 Y105.042
M204 S500
M205 X5 Y5
G1 F1500 X114.807 Y108.425 E39.01629
M204 S2812
M205 X18 Y18
G0 F9642.9 X114.807 Y107.93
M204 S500
M205 X5 Y5
G1 F1500 X118.191 Y104.547 E39.04255
M204 S2812
M205 X18 Y18
G0 F9642.9 X118.191 Y104.052
M204 S500
M205 X5 Y5
G1 F1500 X114.807 Y107.435 E39.0688
M204 S2812
M205 X18 Y18
G0 F9642.9 X114.807 Y106.94
M204 S500
M205 X5 Y5
G1 F1500 X118.191 Y103.557 E39.09505
M204 S2812
M205 X18 Y18
G0 F9642.9 X118.191 Y103.062
M204 S500
M205 X5 Y5
G1 F1500 X114.807 Y106.445 E39.1213
M204 S2812
M205 X18 Y18
G0 F9642.9 X114.807 Y105.95
M204 S500
M205 X5 Y5
G1 F1500 X118.191 Y102.567 E39.14756
M204 S2812
M205 X18 Y18
G0 F9642.9 X118.191 Y102.072
M204 S500
M205 X5 Y5
G1 F1500 X114.807 Y105.455 E39.17381
M204 S2812
M205 X18 Y18
G0 F9642.9 X114.807 Y104.96
M204 S500
M205 X5 Y5
G1 F1500 X118.191 Y101.577 E39.20006
M204 S2812
M205 X18 Y18
G0 F9642.9 X118.191 Y101.082
M204 S500
M205 X5 Y5
G1 F1500 X114.807 Y104.465 E39.22631
M204 S2812
M205 X18 Y18
G0 F9642.9 X114.807 Y103.97
M204 S500
M205 X5 Y5
G1 F1500 X118.191 Y100.587 E39.25257
M204 S2812
M205 X18 Y18
G0 F9642.9 X118.191 Y100.092
M204 S500
M205 X5 Y5
G1 F1500 X114.807 Y103.475 E39.27882
M204 S2812
M205 X18 Y18
G0 F9642.9 X114.807 Y102.98
M204 S500
M205 X5 Y5
G1 F1500 X118.191 Y99.597 E39.30507
M204 S2812
M205 X18 Y18
G0 F9642.9 X118.191 Y99.102
M204 S500
M205 X5 Y5
G1 F1500 X114.807 Y102.485 E39.33132
M204 S2812
M205 X18 Y18
G0 F9642.9 X114.807 Y101.99
M204 S500
M205 X5 Y5
G1 F1500 X118.191 Y98.607 E39.35758
M204 S2812
M205 X18 Y18
G0 F9642.9 X118.191 Y98.112
M204 S500
M205 X5 Y5
G1 F1500 X114.807 Y101.495 E39.38383
M204 S2812
M205 X18 Y18
G0 F9642.9 X114.807 Y101.001
M204 S500
M205 X5 Y5
G1 F1500 X118.191 Y97.617 E39.41009
M204 S2812
M205 X18 Y18
G0 F9642.9 X118.191 Y97.122
M204 S500
M205 X5 Y5
G1 F1500 X114.807 Y100.506 E39.43634
M204 S2812
M205 X18 Y18
G0 F9642.9 X114.807 Y100.011
M204 S500
M205 X5 Y5
G1 F1500 X118.191 Y96.627 E39.4626
M204 S2812
M205 X18 Y18
G0 F9642.9 X118.191 Y96.132
M204 S500
M205 X5 Y5
G1 F1500 X114.807 Y99.516 E39.48885
M204 S2812
M205 X18 Y18
G0 F9642.9 X114.807 Y99.021
M204 S500
M205 X5 Y5
G1 F1500 X118.191 Y95.637 E39.51511
M204 S2812
M205 X18 Y18
G0 F9642.9 X118.191 Y95.142
M204 S500
M205 X5 Y5
G1 F1500 X114.807 Y98.526 E39.54137
M204 S2812
M205 X18 Y18
G0 F9642.9 X114.807 Y98.031
M204 S500
M205 X5 Y5
G1 F1500 X118.191 Y94.647 E39.56762
M204 S2812
M205 X18 Y18
G0 F9642.9 X118.191 Y94.152
M204 S500
M205 X5 Y5
G1 F1500 X114.807 Y97.536 E39.59388
M204 S2812
M205 X18 Y18
G0 F9642.9 X114.807 Y97.041
M204 S500
M205 X5 Y5
G1 F1500 X118.191 Y93.657 E39.62014
M204 S2812
M205 X18 Y18
G0 F9642.9 X118.191 Y93.162
M204 S500
M205 X5 Y5
G1 F1500 X114.807 Y96.546 E39.64639
M204 S2812
M205 X18 Y18
G0 F9642.9 X114.807 Y96.051
M204 S500
M205 X5 Y5
G1 F1500 X118.075 Y92.783 E39.67175
M204 S2812
M205 X18 Y18
G0 F9642.9 X117.58 Y92.783
M204 S500
M205 X5 Y5
G1 F1500 X114.807 Y95.556 E39.69326
M204 S2812
M205 X18 Y18
G0 F9642.9 X114.807 Y95.061
M204 S500
M205 X5 Y5
G1 F1500 X117.085 Y92.783 E39.71094
M204 S2812
M205 X18 Y18
G0 F9642.9 X116.59 Y92.783
M204 S500
M205 X5 Y5
G1 F1500 X114.807 Y94.566 E39.72477
M204 S2812
M205 X18 Y18
G0 F9642.9 X114.807 Y94.071
M204 S500
M205 X5 Y5
G1 F1500 X116.095 Y92.783 E39.73477
M204 S2812
M205 X18 Y18
G0 F9642.9 X115.6 Y92.783
M204 S500
M205 X5 Y5
G1 F1500 X114.807 Y93.576 E39.74092
M204 S2812
M205 X18 Y18
G0 F9642.9 X114.807 Y93.081
M204 S500
M205 X5 Y5
G1 F1500 X115.105 Y92.783 E39.74323
M204 S2812
M205 X18 Y18
;MESH:NONMESH
G0 F600 X115.105 Y92.783 Z0.47
G0 F9642.9 X118.65 Y120.487
;TIME_ELAPSED:141.531281
;LAYER:2
M106 S170
M204 S1000
M205 X10 Y10
;TYPE:WALL-INNER
;MESH:Middle adjusting piece.stl
G1 F1800 X118.588 Y121.009 E39.7457
G1 X118.42 Y121.482 E39.74806
G1 X118.148 Y121.896 E39.75039
G1 X117.779 Y122.246 E39.75279
G1 X117.357 Y122.491 E39.75508
G1 X116.875 Y122.636 E39.75745
G1 X116.38 Y122.668 E39.75978
G1 X115.892 Y122.583 E39.76211
G1 X115.428 Y122.384 E39.76448
G1 X115.031 Y122.088 E39.76681
G1 X114.708 Y121.706 E39.76916
G1 X114.485 Y121.261 E39.77151
G1 X114.364 Y120.752 E39.77397
G1 X114.35 Y120.515 E39.77508
G1 X114.35 Y92.326 E39.90764
G1 X118.65 Y92.326 E39.92787
G1 X118.65 Y120.487 E40.0603
M204 S5000
M205 X30 Y30
G0 F15000 X118.95 Y120.505
M204 S1000
M205 X10 Y10
G1 F1800 X118.882 Y121.08 E40.06302
G1 X118.691 Y121.616 E40.0657
G1 X118.379 Y122.091 E40.06837
G1 X117.963 Y122.486 E40.07107
G1 X117.478 Y122.768 E40.0737
G1 X116.928 Y122.933 E40.0764
G1 X116.399 Y122.966 E40.0789
G1 X116.36 Y122.969 E40.07908
G1 X115.807 Y122.873 E40.08172
G1 X115.277 Y122.646 E40.08443
G1 X114.826 Y122.31 E40.08708
G1 X114.48 Y121.899 E40.0896
G1 X114.455 Y121.87 E40.08978
G1 X114.201 Y121.365 E40.09244
G1 X114.067 Y120.799 E40.09518
G1 X114.066 Y120.77 E40.09531
G1 X114.052 Y120.534 E40.09643
G1 X114.05 Y120.515 E40.09651
G1 X114.05 Y92.026 E40.23049
G1 X118.95 Y92.026 E40.25353
G1 X118.95 Y120.505 E40.38746
M204 S5000
M205 X30 Y30
G0 F15000 X119.275 Y120.526
M204 S500
M205 X5 Y5
;TYPE:WALL-OUTER
G1 F1200 X119.201 Y121.155 E40.39093
G1 X118.984 Y121.761 E40.39446
G1 X118.63 Y122.302 E40.39801
G1 X118.161 Y122.747 E40.40156
G1 X117.608 Y123.068 E40.40507
G1 X116.987 Y123.255 E40.40862
G1 X116.341 Y123.296 E40.41218
G1 X115.712 Y123.186 E40.41568
G1 X115.114 Y122.93 E40.41925
G1 X114.602 Y122.549 E40.42275
G1 X114.183 Y122.051 E40.42632
G1 X113.894 Y121.476 E40.42985
G1 X113.745 Y120.847 E40.4334
G1 X113.725 Y120.515 E40.43522
G1 X113.725 Y91.701 E40.59331
G1 X119.275 Y91.701 E40.62376
G1 X119.275 Y120.526 E40.7819
M204 S5000
M205 X30 Y30
G0 F15000 X119.252 Y120.724
G0 X118.87 Y120.678
G0 X118.335 Y120.466
M204 S500
M205 X5 Y5
;TYPE:SKIN
G1 F1800 X118.279 Y120.942 E40.78453
G1 X118.137 Y121.34 E40.78685
G1 X117.909 Y121.689 E40.78914
G1 X117.589 Y121.992 E40.79156
G1 X117.23 Y122.2 E40.79383
G1 X116.821 Y122.323 E40.79618
G1 X116.397 Y122.351 E40.79851
G1 X115.981 Y122.278 E40.80082
G1 X115.585 Y122.108 E40.80319
G1 X115.251 Y121.859 E40.80547
G1 X114.97 Y121.527 E40.80786
G1 X114.784 Y121.158 E40.81013
G1 X114.677 Y120.706 E40.81268
G1 X114.665 Y120.496 E40.81383
G1 X114.665 Y92.641 E40.96665
G1 X118.335 Y92.641 E40.98679
G1 X118.335 Y120.466 E41.13945
M204 S5000
M205 X30 Y30
G0 F15000 X116.237 Y122.177
M204 S500
M205 X5 Y5
G1 F1800 X114.841 Y120.78 E41.15028
M204 S5000
M205 X30 Y30
G0 F15000 X114.807 Y120.251
M204 S500
M205 X5 Y5
G1 F1800 X116.739 Y122.183 E41.16527
M204 S5000
M205 X30 Y30
G0 F15000 X117.129 Y122.079
M204 S500
M205 X5 Y5
G1 F1800 X114.807 Y119.757 E41.18329
M204 S5000
M205 X30 Y30
G0 F15000 X114.807 Y119.262
M204 S500
M205 X5 Y5
G1 F1800 X117.451 Y121.905 E41.2038
M204 S5000
M205 X30 Y30
G0 F15000 X117.714 Y121.674
M204 S500
M205 X5 Y5
G1 F1800 X114.807 Y118.767 E41.22636
M204 S5000
M205 X30 Y30
G0 F15000 X114.807 Y118.272
M204 S500
M205 X5 Y5
G1 F1800 X117.929 Y121.394 E41.25058
M204 S5000
M205 X30 Y30
G0 F15000 X118.086 Y121.055
M204 S500
M205 X5 Y5
G1 F1800 X114.807 Y117.777 E41.27602
M204 S5000
M205 X30 Y30
G0 F15000 X114.807 Y117.282
M204 S500
M205 X5 Y5
G1 F1800 X118.17 Y120.645 E41.30211
M204 S5000
M205 X30 Y30
G0 F15000 X118.192 Y120.172
M204 S500
M205 X5 Y5
G1 F1800 X114.807 Y116.787 E41.32838
M204 S5000
M205 X30 Y30
G0 F15000 X114.807 Y116.292
M204 S500
M205 X5 Y5
G1 F1800 X118.192 Y119.677 E41.35464
M204 S5000
M205 X30 Y30
G0 F15000 X118.192 Y119.182
M204 S500
M205 X5 Y5
G1 F1800 X114.807 Y115.797 E41.3809
M204 S5000
M205 X30 Y30
G0 F15000 X114.807 Y115.302
M204 S500
M205 X5 Y5
G1 F1800 X118.192 Y118.687 E41.40717
M204 S5000
M205 X30 Y30
G0 F15000 X118.192 Y118.192
M204 S500
M205 X5 Y5
G1 F1800 X114.807 Y114.807 E41.43343
M204 S5000
M205 X30 Y30
G0 F15000 X114.807 Y114.312
M204 S500
M205 X5 Y5
G1 F1800 X118.192 Y117.697 E41.4597
M204 S5000
M205 X30 Y30
G0 F15000 X118.192 Y117.202
M204 S500
M205 X5 Y5
G1 F1800 X114.807 Y113.817 E41.48596
M204 S5000
M205 X30 Y30
G0 F15000 X114.807 Y113.322
M204 S500
M205 X5 Y5
G1 F1800 X118.192 Y116.707 E41.51222
M204 S5000
M205 X30 Y30
G0 F15000 X118.192 Y116.212
M204 S500
M205 X5 Y5
G1 F1800 X114.807 Y112.827 E41.53849
M204 S5000
M205 X30 Y30
G0 F15000 X114.807 Y112.332
M204 S500
M205 X5 Y5
G1 F1800 X118.192 Y115.717 E41.56475
M204 S5000
M205 X30 Y30
G0 F15000 X118.192 Y115.222
M204 S500
M205 X5 Y5
G1 F1800 X114.807 Y111.837 E41.59102
M204 S5000
M205 X30 Y30
G0 F15000 X114.807 Y111.342
M204 S500
M205 X5 Y5
G1 F1800 X118.192 Y114.727 E41.61728
M204 S5000
M205 X30 Y30
G0 F15000 X118.192 Y114.232
M204 S500
M205 X5 Y5
G1 F1800 X114.807 Y110.847 E41.64354
M204 S5000
M205 X30 Y30
G0 F15000 X114.807 Y110.352
M204 S500
M205 X5 Y5
G1 F1800 X118.192 Y113.737 E41.66981
M204 S5000
M205 X30 Y30
G0 F15000 X118.192 Y113.242
M204 S500
M205 X5 Y5
G1 F1800 X114.807 Y109.857 E41.69607
M204 S5000
M205 X30 Y30
G0 F15000 X114.807 Y109.362
M204 S500
M205 X5 Y5
G1 F1800 X118.192 Y112.747 E41.72234
M204 S5000
M205 X30 Y30
G0 F15000 X118.192 Y112.252
M204 S500
M205 X5 Y5
G1 F1800 X114.807 Y108.867 E41.7486
M204 S5000
M205 X30 Y30
G0 F15000 X114.807 Y108.372
M204 S500
M205 X5 Y5
G1 F1800 X118.192 Y111.757 E41.77486
M204 S5000
M205 X30 Y30
G0 F15000 X118.192 Y111.262
M204 S500
M205 X5 Y5
G1 F1800 X114.807 Y107.877 E41.80113
M204 S5000
M205 X30 Y30
G0 F15000 X114.807 Y107.382
M204 S500
M205 X5 Y5
G1 F1800 X118.192 Y110.767 E41.82739
M204 S5000
M205 X30 Y30
G0 F15000 X118.192 Y110.272
M204 S500
M205 X5 Y5
G1 F1800 X114.807 Y106.887 E41.85366
M204 S5000
M205 X30 Y30
G0 F15000 X114.807 Y106.392
M204 S500
M205 X5 Y5
G1 F1800 X118.192 Y109.777 E41.87992
M204 S5000
M205 X30 Y30
G0 F15000 X118.192 Y109.282
M204 S500
M205 X5 Y5
G1 F1800 X114.807 Y105.897 E41.90619
M204 S5000
M205 X30 Y30
G0 F15000 X114.807 Y105.402
M204 S500
M205 X5 Y5
G1 F1800 X118.192 Y108.787 E41.93245
M204 S5000
M205 X30 Y30
G0 F15000 X118.192 Y108.292
M204 S500
M205 X5 Y5
G1 F1800 X114.807 Y104.907 E41.95871
M204 S5000
M205 X30 Y30
G0 F15000 X114.807 Y104.412
M204 S500
M205 X5 Y5
G1 F1800 X118.192 Y107.797 E41.98498
M204 S5000
M205 X30 Y30
G0 F15000 X118.192 Y107.302
M204 S500
M205 X5 Y5
G1 F1800 X114.807 Y103.917 E42.01124
M204 S5000
M205 X30 Y30
G0 F15000 X114.807 Y103.422
M204 S500
M205 X5 Y5
G1 F1800 X118.192 Y106.807 E42.03751
M204 S5000
M205 X30 Y30
G0 F15000 X118.192 Y106.312
M204 S500
M205 X5 Y5
G1 F1800 X114.807 Y102.927 E42.06377
M204 S5000
M205 X30 Y30
G0 F15000 X114.807 Y102.432
M204 S500
M205 X5 Y5
G1 F1800 X118.192 Y105.817 E42.09003
M204 S5000
M205 X30 Y30
G0 F15000 X118.192 Y105.322
M204 S500
M205 X5 Y5
G1 F1800 X114.807 Y101.937 E42.1163
M204 S5000
M205 X30 Y30
G0 F15000 X114.807 Y101.442
M204 S500
M205 X5 Y5
G1 F1800 X118.192 Y104.827 E42.14256
M204 S5000
M205 X30 Y30
G0 F15000 X118.192 Y104.332
M204 S500
M205 X5 Y5
G1 F1800 X114.807 Y100.947 E42.16883
M204 S5000
M205 X30 Y30
G0 F15000 X114.807 Y100.453
M204 S500
M205 X5 Y5
G1 F1800 X118.192 Y103.837 E42.19509
M204 S5000
M205 X30 Y30
G0 F15000 X118.192 Y103.342
M204 S500
M205 X5 Y5
G1 F1800 X114.807 Y99.958 E42.22135
M204 S5000
M205 X30 Y30
G0 F15000 X114.807 Y99.463
M204 S500
M205 X5 Y5
G1 F1800 X118.192 Y102.847 E42.24761
M204 S5000
M205 X30 Y30
G0 F15000 X118.192 Y102.352
M204 S500
M205 X5 Y5
G1 F1800 X114.807 Y98.968 E42.27387
M204 S5000
M205 X30 Y30
G0 F15000 X114.807 Y98.473
M204 S500
M205 X5 Y5
G1 F1800 X118.192 Y101.858 E42.30013
M204 S5000
M205 X30 Y30
G0 F15000 X118.192 Y101.363
M204 S500
M205 X5 Y5
G1 F1800 X114.807 Y97.978 E42.32639
M204 S5000
M205 X30 Y30
G0 F15000 X114.807 Y97.483
M204 S500
M205 X5 Y5
G1 F1800 X118.192 Y100.868 E42.35266
M204 S5000
M205 X30 Y30
G0 F15000 X118.192 Y100.373
M204 S500
M205 X5 Y5
G1 F1800 X114.807 Y96.988 E42.37892
M204 S5000
M205 X30 Y30
G0 F15000 X114.807 Y96.493
M204 S500
M205 X5 Y5
G1 F1800 X118.192 Y99.878 E42.40519
M204 S5000
M205 X30 Y30
G0 F15000 X118.192 Y99.383
M204 S500
M205 X5 Y5
G1 F1800 X114.807 Y95.998 E42.43145
M204 S5000
M205 X30 Y30
G0 F15000 X114.807 Y95.503
M204 S500
M205 X5 Y5
G1 F1800 X118.192 Y98.888 E42.45772
M204 S5000
M205 X30 Y30
G0 F15000 X118.192 Y98.393
M204 S500
M205 X5 Y5
G1 F1800 X114.807 Y95.008 E42.48398
M204 S5000
M205 X30 Y30
G0 F15000 X114.807 Y94.513
M204 S500
M205 X5 Y5
G1 F1800 X118.192 Y97.898 E42.51024
M204 S5000
M205 X30 Y30
G0 F15000 X118.192 Y97.403
M204 S500
M205 X5 Y5
G1 F1800 X114.807 Y94.018 E42.53651
M204 S5000
M205 X30 Y30
G0 F15000 X114.807 Y93.523
M204 S500
M205 X5 Y5
G1 F1800 X118.192 Y96.908 E42.56277
M204 S5000
M205 X30 Y30
G0 F15000 X118.192 Y96.413
M204 S500
M205 X5 Y5
G1 F1800 X114.807 Y93.028 E42.58904
M204 S5000
M205 X30 Y30
G0 F15000 X115.057 Y92.783
M204 S500
M205 X5 Y5
G1 F1800 X118.192 Y95.918 E42.61336
M204 S5000
M205 X30 Y30
G0 F15000 X118.192 Y95.423
M204 S500
M205 X5 Y5
G1 F1800 X115.552 Y92.783 E42.63384
M204 S5000
M205 X30 Y30
G0 F15000 X116.047 Y92.783
M204 S500
M205 X5 Y5
G1 F1800 X118.192 Y94.928 E42.65049
M204 S5000
M205 X30 Y30
G0 F15000 X118.192 Y94.433
M204 S500
M205 X5 Y5
G1 F1800 X116.542 Y92.783 E42.66329
M204 S5000
M205 X30 Y30
G0 F15000 X117.037 Y92.783
M204 S500
M205 X5 Y5
G1 F1800 X118.192 Y93.938 E42.67225
M204 S5000
M205 X30 Y30
G0 F15000 X118.192 Y93.443
M204 S500
M205 X5 Y5
G1 F1800 X117.532 Y92.783 E42.67737
M204 S5000
M205 X30 Y30
G0 F15000 X118.027 Y92.783
M204 S500
M205 X5 Y5
G1 F1800 X118.192 Y92.948 E42.67865
M204 S5000
M205 X30 Y30
;MESH:NONMESH
G0 F600 X118.192 Y92.948 Z0.57
G0 F15000 X118.65 Y120.487
;TIME_ELAPSED:164.672712
;LAYER:3
M106 S255
M204 S1000
M205 X10 Y10
;TYPE:WALL-INNER
;MESH:Middle adjusting piece.stl
G1 F1800 X118.588 Y121.012 E42.68114
G1 X118.421 Y121.478 E42.68347
G1 X118.148 Y121.896 E42.68581
G1 X117.783 Y122.243 E42.68818
G1 X117.355 Y122.494 E42.69051
G1 X116.879 Y122.636 E42.69285
G1 X116.381 Y122.668 E42.6952
G1 X115.893 Y122.583 E42.69753
G1 X115.432 Y122.385 E42.69989
G1 X115.031 Y122.088 E42.70223
G1 X114.708 Y121.704 E42.70459
G1 X114.488 Y121.264 E42.70691
G1 X114.364 Y120.749 E42.7094
G1 X114.35 Y120.515 E42.7105
G1 X114.35 Y92.326 E42.84306
G1 X118.65 Y92.326 E42.86328
G1 X118.65 Y120.487 E42.99571
M204 S5000
M205 X30 Y30
G0 F15000 X118.95 Y120.505
M204 S1000
M205 X10 Y10
G1 F1800 X118.882 Y121.079 E42.99843
G1 X118.691 Y121.613 E43.0011
G1 X118.38 Y122.089 E43.00377
G1 X117.965 Y122.484 E43.00647
G1 X117.476 Y122.77 E43.00913
G1 X117.441 Y122.78 E43.0093
G1 X116.966 Y122.922 E43.01163
G1 X116.932 Y122.933 E43.0118
G1 X116.4 Y122.966 E43.01431
G1 X116.361 Y122.969 E43.01449
G1 X115.808 Y122.873 E43.01713
G1 X115.281 Y122.647 E43.01983
G1 X114.824 Y122.308 E43.02251
G1 X114.457 Y121.872 E43.02519
G1 X114.203 Y121.365 E43.02785
G1 X114.067 Y120.797 E43.0306
G1 X114.066 Y120.768 E43.03073
G1 X114.052 Y120.534 E43.03184
G1 X114.05 Y120.515 E43.03193
G1 X114.05 Y92.026 E43.1659
G1 X118.95 Y92.026 E43.18894
G1 X118.95 Y120.505 E43.32287
M204 S5000
M205 X30 Y30
G0 F15000 X119.275 Y120.526
M204 S500
M205 X5 Y5
;TYPE:WALL-OUTER
G1 F1200 X119.201 Y121.152 E43.32633
G1 X118.984 Y121.759 E43.32987
G1 X118.631 Y122.3 E43.33341
G1 X118.162 Y122.746 E43.33696
G1 X117.609 Y123.069 E43.34047
G1 X116.989 Y123.255 E43.34402
G1 X116.342 Y123.296 E43.34758
G1 X115.713 Y123.186 E43.35109
G1 X115.118 Y122.931 E43.35464
G1 X114.6 Y122.547 E43.35817
G1 X114.182 Y122.05 E43.36174
G1 X113.896 Y121.479 E43.36524
G1 X113.745 Y120.847 E43.36881
G1 X113.725 Y120.515 E43.37063
G1 X113.725 Y91.701 E43.52872
G1 X119.275 Y91.701 E43.55917
G1 X119.275 Y120.526 E43.71731
M204 S5000
M205 X30 Y30
G0 F15000 X119.252 Y120.724
G0 X118.87 Y120.678
G0 X118.335 Y120.466
M204 S500
M205 X5 Y5
;TYPE:SKIN
G1 F1800 X118.279 Y120.941 E43.71994
G1 X118.137 Y121.335 E43.72223
G1 X117.905 Y121.691 E43.72456
G1 X117.589 Y121.992 E43.72696
G1 X117.23 Y122.203 E43.72924
G1 X116.826 Y122.323 E43.73156
G1 X116.398 Y122.351 E43.73391
G1 X115.982 Y122.278 E43.73623
G1 X115.591 Y122.11 E43.73856
G1 X115.247 Y121.855 E43.74091
G1 X114.974 Y121.531 E43.74324
G1 X114.785 Y121.154 E43.74555
G1 X114.677 Y120.707 E43.74807
G1 X114.665 Y120.496 E43.74923
G1 X114.665 Y92.641 E43.90206
G1 X118.335 Y92.641 E43.92219
G1 X118.335 Y120.466 E44.07485
M204 S5000
M205 X30 Y30
G0 F15000 X118.122 Y120.95
M204 S500
M205 X5 Y5
G1 F1800 X116.93 Y122.142 E44.0841
M204 S5000
M205 X30 Y30
G0 F15000 X116.375 Y122.202
M204 S500
M205 X5 Y5
G1 F1800 X118.191 Y120.386 E44.09819
M204 S5000
M205 X30 Y30
G0 F15000 X118.191 Y119.891
M204 S500
M205 X5 Y5
G1 F1800 X115.967 Y122.115 E44.11544
M204 S5000
M205 X30 Y30
G0 F15000 X115.628 Y121.959
M204 S500
M205 X5 Y5
G1 F1800 X118.191 Y119.396 E44.13533
M204 S5000
M205 X30 Y30
G0 F15000 X118.191 Y118.901
M204 S500
M205 X5 Y5
G1 F1800 X115.345 Y121.747 E44.15741
M204 S5000
M205 X30 Y30
G0 F15000 X115.118 Y121.479
M204 S500
M205 X5 Y5
G1 F1800 X118.191 Y118.406 E44.18126
M204 S5000
M205 X30 Y30
G0 F15000 X118.191 Y117.911
M204 S500
M205 X5 Y5
G1 F1800 X114.946 Y121.156 E44.20643
M204 S5000
M205 X30 Y30
G0 F15000 X114.839 Y120.768
M204 S500
M205 X5 Y5
G1 F1800 X118.191 Y117.416 E44.23244
M204 S5000
M205 X30 Y30
G0 F15000 X118.191 Y116.921
M204 S500
M205 X5 Y5
G1 F1800 X114.807 Y120.305 E44.2587
M204 S5000
M205 X30 Y30
G0 F15000 X114.807 Y119.81
M204 S500
M205 X5 Y5
G1 F1800 X118.191 Y116.426 E44.28495
M204 S5000
M205 X30 Y30
G0 F15000 X118.191 Y115.931
M204 S500
M205 X5 Y5
G1 F1800 X114.807 Y119.315 E44.31121
M204 S5000
M205 X30 Y30
G0 F15000 X114.807 Y118.82
M204 S500
M205 X5 Y5
G1 F1800 X118.191 Y115.436 E44.33747
M204 S5000
M205 X30 Y30
G0 F15000 X118.191 Y114.941
M204 S500
M205 X5 Y5
G1 F1800 X114.807 Y118.325 E44.36372
M204 S5000
M205 X30 Y30
G0 F15000 X114.807 Y117.83
M204 S500
M205 X5 Y5
G1 F1800 X118.191 Y114.446 E44.38998
M204 S5000
M205 X30 Y30
G0 F15000 X118.191 Y113.951
M204 S500
M205 X5 Y5
G1 F1800 X114.807 Y117.335 E44.41624
M204 S5000
M205 X30 Y30
G0 F15000 X114.807 Y116.84
M204 S500
M205 X5 Y5
G1 F1800 X118.191 Y113.456 E44.44249
M204 S5000
M205 X30 Y30
G0 F15000 X118.191 Y112.961
M204 S500
M205 X5 Y5
G1 F1800 X114.807 Y116.345 E44.46875
M204 S5000
M205 X30 Y30
G0 F15000 X114.807 Y115.85
M204 S500
M205 X5 Y5
G1 F1800 X118.191 Y112.466 E44.49501
M204 S5000
M205 X30 Y30
G0 F15000 X118.191 Y111.971
M204 S500
M205 X5 Y5
G1 F1800 X114.807 Y115.355 E44.52126
M204 S5000
M205 X30 Y30
G0 F15000 X114.807 Y114.86
M204 S500
M205 X5 Y5
G1 F1800 X118.191 Y111.476 E44.54752
M204 S5000
M205 X30 Y30
G0 F15000 X118.191 Y110.981
M204 S500
M205 X5 Y5
G1 F1800 X114.807 Y114.365 E44.57377
M204 S5000
M205 X30 Y30
G0 F15000 X114.807 Y113.87
M204 S500
M205 X5 Y5
G1 F1800 X118.191 Y110.486 E44.60003
M204 S5000
M205 X30 Y30
G0 F15000 X118.191 Y109.991
M204 S500
M205 X5 Y5
G1 F1800 X114.807 Y113.375 E44.62629
M204 S5000
M205 X30 Y30
G0 F15000 X114.807 Y112.88
M204 S500
M205 X5 Y5
G1 F1800 X118.191 Y109.496 E44.65254
M204 S5000
M205 X30 Y30
G0 F15000 X118.191 Y109.001
M204 S500
M205 X5 Y5
G1 F1800 X114.807 Y112.385 E44.6788
M204 S5000
M205 X30 Y30
G0 F15000 X114.807 Y111.89
M204 S500
M205 X5 Y5
G1 F1800 X118.191 Y108.506 E44.70506
M204 S5000
M205 X30 Y30
G0 F15000 X118.191 Y108.011
M204 S500
M205 X5 Y5
G1 F1800 X114.807 Y111.395 E44.73131
M204 S5000
M205 X30 Y30
G0 F15000 X114.807 Y110.9
M204 S500
M205 X5 Y5
G1 F1800 X118.191 Y107.517 E44.75756
M204 S5000
M205 X30 Y30
G0 F15000 X118.191 Y107.022
M204 S500
M205 X5 Y5
G1 F1800 X114.807 Y110.405 E44.78382
M204 S5000
M205 X30 Y30
G0 F15000 X114.807 Y109.91
M204 S500
M205 X5 Y5
G1 F1800 X118.191 Y106.527 E44.81007
M204 S5000
M205 X30 Y30
G0 F15000 X118.191 Y106.032
M204 S500
M205 X5 Y5
G1 F1800 X114.807 Y109.415 E44.83632
M204 S5000
M205 X30 Y30
G0 F15000 X114.807 Y108.92
M204 S500
M205 X5 Y5
G1 F1800 X118.191 Y105.537 E44.86257
M204 S5000
M205 X30 Y30
G0 F15000 X118.191 Y105.042
M204 S500
M205 X5 Y5
G1 F1800 X114.807 Y108.425 E44.88883
M204 S5000
M205 X30 Y30
G0 F15000 X114.807 Y107.93
M204 S500
M205 X5 Y5
G1 F1800 X118.191 Y104.547 E44.91508
M204 S5000
M205 X30 Y30
G0 F15000 X118.191 Y104.052
M204 S500
M205 X5 Y5
G1 F1800 X114.807 Y107.435 E44.94133
M204 S5000
M205 X30 Y30
G0 F15000 X114.807 Y106.94
M204 S500
M205 X5 Y5
G1 F1800 X118.191 Y103.557 E44.96758
M204 S5000
M205 X30 Y30
G0 F15000 X118.191 Y103.062
M204 S500
M205 X5 Y5
G1 F1800 X114.807 Y106.445 E44.99384
M204 S5000
M205 X30 Y30
G0 F15000 X114.807 Y105.95
M204 S500
M205 X5 Y5
G1 F1800 X118.191 Y102.567 E45.02009
M204 S5000
M205 X30 Y30
G0 F15000 X118.191 Y102.072
M204 S500
M205 X5 Y5
G1 F1800 X114.807 Y105.455 E45.04634
M204 S5000
M205 X30 Y30
G0 F15000 X114.807 Y104.96
M204 S500
M205 X5 Y5
G1 F1800 X118.191 Y101.577 E45.07259
M204 S5000
M205 X30 Y30
G0 F15000 X118.191 Y101.082
M204 S500
M205 X5 Y5
G1 F1800 X114.807 Y104.465 E45.09885
M204 S5000
M205 X30 Y30
G0 F15000 X114.807 Y103.97
M204 S500
M205 X5 Y5
G1 F1800 X118.191 Y100.587 E45.1251
M204 S5000
M205 X30 Y30
G0 F15000 X118.191 Y100.092
M204 S500
M205 X5 Y5
G1 F1800 X114.807 Y103.475 E45.15135
M204 S5000
M205 X30 Y30
G0 F15000 X114.807 Y102.98
M204 S500
M205 X5 Y5
G1 F1800 X118.191 Y99.597 E45.1776
M204 S5000
M205 X30 Y30
G0 F15000 X118.191 Y99.102
M204 S500
M205 X5 Y5
G1 F1800 X114.807 Y102.485 E45.20386
M204 S5000
M205 X30 Y30
G0 F15000 X114.807 Y101.99
M204 S500
M205 X5 Y5
G1 F1800 X118.191 Y98.607 E45.23011
M204 S5000
M205 X30 Y30
G0 F15000 X118.191 Y98.112
M204 S500
M205 X5 Y5
G1 F1800 X114.807 Y101.495 E45.25636
M204 S5000
M205 X30 Y30
G0 F15000 X114.807 Y101.001
M204 S500
M205 X5 Y5
G1 F1800 X118.191 Y97.617 E45.28262
M204 S5000
M205 X30 Y30
G0 F15000 X118.191 Y97.122
M204 S500
M205 X5 Y5
G1 F1800 X114.807 Y100.506 E45.30887
M204 S5000
M205 X30 Y30
G0 F15000 X114.807 Y100.011
M204 S500
M205 X5 Y5
G1 F1800 X118.191 Y96.627 E45.33513
M204 S5000
M205 X30 Y30
G0 F15000 X118.191 Y96.132
M204 S500
M205 X5 Y5
G1 F1800 X114.807 Y99.516 E45.36139
M204 S5000
M205 X30 Y30
G0 F15000 X114.807 Y99.021
M204 S500
M205 X5 Y5
G1 F1800 X118.191 Y95.637 E45.38764
M204 S5000
M205 X30 Y30
G0 F15000 X118.191 Y95.142
M204 S500
M205 X5 Y5
G1 F1800 X114.807 Y98.526 E45.4139
M204 S5000
M205 X30 Y30
G0 F15000 X114.807 Y98.031
M204 S500
M205 X5 Y5
G1 F1800 X118.191 Y94.647 E45.44016
M204 S5000
M205 X30 Y30
G0 F15000 X118.191 Y94.152
M204 S500
M205 X5 Y5
G1 F1800 X114.807 Y97.536 E45.46641
M204 S5000
M205 X30 Y30
G0 F15000 X114.807 Y97.041
M204 S500
M205 X5 Y5
G1 F1800 X118.191 Y93.657 E45.49267
M204 S5000
M205 X30 Y30
G0 F15000 X118.191 Y93.162
M204 S500
M205 X5 Y5
G1 F1800 X114.807 Y96.546 E45.51892
M204 S5000
M205 X30 Y30
G0 F15000 X114.807 Y96.051
M204 S500
M205 X5 Y5
G1 F1800 X118.075 Y92.783 E45.54428
M204 S5000
M205 X30 Y30
G0 F15000 X117.58 Y92.783
M204 S500
M205 X5 Y5
G1 F1800 X114.807 Y95.556 E45.5658
M204 S5000
M205 X30 Y30
G0 F15000 X114.807 Y95.061
M204 S500
M205 X5 Y5
G1 F1800 X117.085 Y92.783 E45.58347
M204 S5000
M205 X30 Y30
G0 F15000 X116.59 Y92.783
M204 S500
M205 X5 Y5
G1 F1800 X114.807 Y94.566 E45.59731
M204 S5000
M205 X30 Y30
G0 F15000 X114.807 Y94.071
M204 S500
M205 X5 Y5
G1 F1800 X116.095 Y92.783 E45.6073
M204 S5000
M205 X30 Y30
G0 F15000 X115.6 Y92.783
M204 S500
M205 X5 Y5
G1 F1800 X114.807 Y93.576 E45.61345
M204 S5000
M205 X30 Y30
G0 F15000 X114.807 Y93.081
M204 S500
M205 X5 Y5
G1 F1800 X115.105 Y92.783 E45.61576
M204 S5000
M205 X30 Y30
;MESH:NONMESH
G0 F600 X115.105 Y92.783 Z0.67
G0 F15000 X118.65 Y120.492
;TIME_ELAPSED:187.812926
;LAYER:4
M204 S1000
M205 X10 Y10
;TYPE:WALL-INNER
;MESH:Middle adjusting piece.stl
G1 F1800 X118.589 Y121.006 E45.6182
G1 X118.42 Y121.482 E45.62057
G1 X118.152 Y121.894 E45.62288
G1 X117.786 Y122.241 E45.62526
G1 X117.358 Y122.491 E45.62759
G1 X116.878 Y122.635 E45.62994
G1 X116.379 Y122.668 E45.6323
G1 X115.889 Y122.584 E45.63463
G1 X115.431 Y122.386 E45.63698
G1 X115.035 Y122.093 E45.6393
G1 X114.708 Y121.704 E45.64169
G1 X114.486 Y121.262 E45.64401
G1 X114.364 Y120.751 E45.64648
G1 X114.35 Y120.515 E45.64759
G1 X114.35 Y92.326 E45.78016
G1 X118.65 Y92.326 E45.80038
G1 X118.65 Y120.492 E45.93283
M204 S5000
M205 X30 Y30
G0 F15000 X118.95 Y120.51
M204 S1000
M205 X10 Y10
G1 F1800 X118.883 Y121.077 E45.93552
G1 X118.692 Y121.614 E45.9382
G1 X118.382 Y122.09 E45.94087
G1 X117.97 Y122.481 E45.94354
G1 X117.479 Y122.768 E45.94622
G1 X116.931 Y122.932 E45.94891
G1 X116.36 Y122.97 E45.9516
G1 X115.806 Y122.874 E45.95424
G1 X115.281 Y122.647 E45.95693
G1 X114.826 Y122.311 E45.95959
G1 X114.456 Y121.871 E45.96229
G1 X114.202 Y121.366 E45.96495
G1 X114.067 Y120.798 E45.9677
G1 X114.066 Y120.769 E45.96783
G1 X114.052 Y120.534 E45.96894
G1 X114.05 Y120.515 E45.96903
G1 X114.05 Y92.026 E46.103
G1 X118.95 Y92.026 E46.12605
G1 X118.95 Y120.51 E46.26
M204 S5000
M205 X30 Y30
G0 F15000 X119.275 Y120.531
M204 S500
M205 X5 Y5
;TYPE:WALL-OUTER
G1 F1200 X119.202 Y121.15 E46.26342
G1 X118.985 Y121.76 E46.26697
G1 X118.634 Y122.298 E46.27049
G1 X118.164 Y122.745 E46.27405
G1 X117.611 Y123.067 E46.27756
G1 X116.99 Y123.254 E46.28112
G1 X116.343 Y123.296 E46.28468
G1 X115.713 Y123.187 E46.28819
G1 X115.119 Y122.931 E46.29173
G1 X114.601 Y122.548 E46.29527
G1 X114.184 Y122.052 E46.29882
G1 X113.895 Y121.478 E46.30235
G1 X113.745 Y120.847 E46.30591
G1 X113.725 Y120.515 E46.30773
G1 X113.725 Y91.701 E46.46582
G1 X119.275 Y91.701 E46.49627
G1 X119.275 Y120.531 E46.65444
M204 S5000
M205 X30 Y30
G0 F15000 X119.252 Y120.729
G0 X118.87 Y120.683
G0 X118.335 Y120.471
M204 S500
M205 X5 Y5
;TYPE:SKIN
G1 F1800 X118.28 Y120.939 E46.65703
G1 X118.138 Y121.337 E46.65935
G1 X117.908 Y121.692 E46.66167
G1 X117.596 Y121.986 E46.66402
G1 X117.231 Y122.2 E46.66634
G1 X116.824 Y122.322 E46.66867
G1 X116.395 Y122.351 E46.67103
G1 X115.981 Y122.279 E46.67334
G1 X115.588 Y122.11 E46.67568
G1 X115.251 Y121.86 E46.67798
G1 X114.971 Y121.527 E46.68037
G1 X114.783 Y121.155 E46.68266
G1 X114.677 Y120.711 E46.68516
G1 X114.665 Y120.496 E46.68634
G1 X114.665 Y92.641 E46.83917
G1 X118.335 Y92.641 E46.8593
G1 X118.335 Y120.471 E47.01199
M204 S5000
M205 X30 Y30
G0 F15000 X116.237 Y122.177
M204 S500
M205 X5 Y5
G1 F1800 X114.839 Y120.779 E47.02284
M204 S5000
M205 X30 Y30
G0 F15000 X114.807 Y120.251
M204 S500
M205 X5 Y5
G1 F1800 X116.737 Y122.182 E47.03782
M204 S5000
M205 X30 Y30
G0 F15000 X117.13 Y122.079
M204 S500
M205 X5 Y5
G1 F1800 X114.807 Y119.757 E47.05584
M204 S5000
M205 X30 Y30
G0 F15000 X114.807 Y119.262
M204 S500
M205 X5 Y5
G1 F1800 X117.449 Y121.904 E47.07634
M204 S5000
M205 X30 Y30
G0 F15000 X117.715 Y121.675
M204 S500
M205 X5 Y5
G1 F1800 X114.807 Y118.767 E47.0989
M204 S5000
M205 X30 Y30
G0 F15000 X114.807 Y118.272
M204 S500
M205 X5 Y5
G1 F1800 X117.93 Y121.395 E47.12313
M204 S5000
M205 X30 Y30
G0 F15000 X118.086 Y121.055
M204 S500
M205 X5 Y5
G1 F1800 X114.807 Y117.777 E47.14857
M204 S5000
M205 X30 Y30
G0 F15000 X114.807 Y117.282
M204 S500
M205 X5 Y5
G1 F1800 X118.17 Y120.645 E47.17466
M204 S5000
M205 X30 Y30
G0 F15000 X118.191 Y120.171
M204 S500
M205 X5 Y5
G1 F1800 X114.807 Y116.787 E47.20092
M204 S5000
M205 X30 Y30
G0 F15000 X114.807 Y116.292
M204 S500
M205 X5 Y5
G1 F1800 X118.191 Y119.676 E47.22717
M204 S5000
M205 X30 Y30
G0 F15000 X118.191 Y119.181
M204 S500
M205 X5 Y5
G1 F1800 X114.807 Y115.797 E47.25343
M204 S5000
M205 X30 Y30
G0 F15000 X114.807 Y115.302
M204 S500
M205 X5 Y5
G1 F1800 X118.191 Y118.686 E47.27969
M204 S5000
M205 X30 Y30
G0 F15000 X118.191 Y118.191
M204 S500
M205 X5 Y5
G1 F1800 X114.807 Y114.807 E47.30594
M204 S5000
M205 X30 Y30
G0 F15000 X114.807 Y114.312
M204 S500
M205 X5 Y5
G1 F1800 X118.191 Y117.696 E47.3322
M204 S5000
M205 X30 Y30
G0 F15000 X118.191 Y117.201
M204 S500
M205 X5 Y5
G1 F1800 X114.807 Y113.817 E47.35845
M204 S5000
M205 X30 Y30
G0 F15000 X114.807 Y113.322
M204 S500
M205 X5 Y5
G1 F1800 X118.191 Y116.706 E47.38471
M204 S5000
M205 X30 Y30
G0 F15000 X118.191 Y116.211
M204 S500
M205 X5 Y5
G1 F1800 X114.807 Y112.827 E47.41097
M204 S5000
M205 X30 Y30
G0 F15000 X114.807 Y112.332
M204 S500
M205 X5 Y5
G1 F1800 X118.191 Y115.716 E47.43722
M204 S5000
M205 X30 Y30
G0 F15000 X118.191 Y115.221
M204 S500
M205 X5 Y5
G1 F1800 X114.807 Y111.837 E47.46348
M204 S5000
M205 X30 Y30
G0 F15000 X114.807 Y111.342
M204 S500
M205 X5 Y5
G1 F1800 X118.191 Y114.726 E47.48974
M204 S5000
M205 X30 Y30
G0 F15000 X118.191 Y114.231
M204 S500
M205 X5 Y5
G1 F1800 X114.807 Y110.847 E47.51599
M204 S5000
M205 X30 Y30
G0 F15000 X114.807 Y110.352
M204 S500
M205 X5 Y5
G1 F1800 X118.191 Y113.736 E47.54225
M204 S5000
M205 X30 Y30
G0 F15000 X118.191 Y113.241
M204 S500
M205 X5 Y5
G1 F1800 X114.807 Y109.857 E47.56851
M204 S5000
M205 X30 Y30
G0 F15000 X114.807 Y109.362
M204 S500
M205 X5 Y5
G1 F1800 X118.191 Y112.746 E47.59476
M204 S5000
M205 X30 Y30
G0 F15000 X118.191 Y112.251
M204 S500
M205 X5 Y5
G1 F1800 X114.807 Y108.867 E47.62102
M204 S5000
M205 X30 Y30
G0 F15000 X114.807 Y108.372
M204 S500
M205 X5 Y5
G1 F1800 X118.191 Y111.756 E47.64727
M204 S5000
M205 X30 Y30
G0 F15000 X118.191 Y111.261
M204 S500
M205 X5 Y5
G1 F1800 X114.807 Y107.877 E47.67353
M204 S5000
M205 X30 Y30
G0 F15000 X114.807 Y107.382
M204 S500
M205 X5 Y5
G1 F1800 X118.191 Y110.766 E47.69979
M204 S5000
M205 X30 Y30
G0 F15000 X118.191 Y110.271
M204 S500
M205 X5 Y5
G1 F1800 X114.807 Y106.887 E47.72604
M204 S5000
M205 X30 Y30
G0 F15000 X114.807 Y106.392
M204 S500
M205 X5 Y5
G1 F1800 X118.191 Y109.776 E47.7523
M204 S5000
M205 X30 Y30
G0 F15000 X118.191 Y109.281
M204 S500
M205 X5 Y5
G1 F1800 X114.807 Y105.897 E47.77856
M204 S5000
M205 X30 Y30
G0 F15000 X114.807 Y105.402
M204 S500
M205 X5 Y5
G1 F1800 X118.191 Y108.786 E47.80481
M204 S5000
M205 X30 Y30
G0 F15000 X118.191 Y108.291
M204 S500
M205 X5 Y5
G1 F1800 X114.807 Y104.907 E47.83107
M204 S5000
M205 X30 Y30
G0 F15000 X114.807 Y104.412
M204 S500
M205 X5 Y5
G1 F1800 X118.191 Y107.797 E47.85733
M204 S5000
M205 X30 Y30
G0 F15000 X118.191 Y107.302
M204 S500
M205 X5 Y5
G1 F1800 X114.807 Y103.917 E47.88359
M204 S5000
M205 X30 Y30
G0 F15000 X114.807 Y103.422
M204 S500
M205 X5 Y5
G1 F1800 X118.191 Y106.807 E47.90985
M204 S5000
M205 X30 Y30
G0 F15000 X118.191 Y106.312
M204 S500
M205 X5 Y5
G1 F1800 X114.807 Y102.927 E47.93611
M204 S5000
M205 X30 Y30
G0 F15000 X114.807 Y102.432
M204 S500
M205 X5 Y5
G1 F1800 X118.191 Y105.817 E47.96237
M204 S5000
M205 X30 Y30
G0 F15000 X118.191 Y105.322
M204 S500
M205 X5 Y5
G1 F1800 X114.807 Y101.937 E47.98863
M204 S5000
M205 X30 Y30
G0 F15000 X114.807 Y101.442
M204 S500
M205 X5 Y5
G1 F1800 X118.191 Y104.827 E48.01489
M204 S5000
M205 X30 Y30
G0 F15000 X118.191 Y104.332
M204 S500
M205 X5 Y5
G1 F1800 X114.807 Y100.947 E48.04115
M204 S5000
M205 X30 Y30
G0 F15000 X114.807 Y100.453
M204 S500
M205 X5 Y5
G1 F1800 X118.191 Y103.837 E48.06741
M204 S5000
M205 X30 Y30
G0 F15000 X118.191 Y103.342
M204 S500
M205 X5 Y5
G1 F1800 X114.807 Y99.958 E48.09366
M204 S5000
M205 X30 Y30
G0 F15000 X114.807 Y99.463
M204 S500
M205 X5 Y5
G1 F1800 X118.191 Y102.847 E48.11992
M204 S5000
M205 X30 Y30
G0 F15000 X118.191 Y102.352
M204 S500
M205 X5 Y5
G1 F1800 X114.807 Y98.968 E48.14618
M204 S5000
M205 X30 Y30
G0 F15000 X114.807 Y98.473
M204 S500
M205 X5 Y5
G1 F1800 X118.191 Y101.857 E48.17243
M204 S5000
M205 X30 Y30
G0 F15000 X118.191 Y101.362
M204 S500
M205 X5 Y5
G1 F1800 X114.807 Y97.978 E48.19869
M204 S5000
M205 X30 Y30
G0 F15000 X114.807 Y97.483
M204 S500
M205 X5 Y5
G1 F1800 X118.191 Y100.867 E48.22494
M204 S5000
M205 X30 Y30
G0 F15000 X118.191 Y100.372
M204 S500
M205 X5 Y5
G1 F1800 X114.807 Y96.988 E48.2512
M204 S5000
M205 X30 Y30
G0 F15000 X114.807 Y96.493
M204 S500
M205 X5 Y5
G1 F1800 X118.191 Y99.877 E48.27746
M204 S5000
M205 X30 Y30
G0 F15000 X118.191 Y99.382
M204 S500
M205 X5 Y5
G1 F1800 X114.807 Y95.998 E48.30371
M204 S5000
M205 X30 Y30
G0 F15000 X114.807 Y95.503
M204 S500
M205 X5 Y5
G1 F1800 X118.191 Y98.887 E48.32997
M204 S5000
M205 X30 Y30
G0 F15000 X118.191 Y98.392
M204 S500
M205 X5 Y5
G1 F1800 X114.807 Y95.008 E48.35623
M204 S5000
M205 X30 Y30
G0 F15000 X114.807 Y94.513
M204 S500
M205 X5 Y5
G1 F1800 X118.191 Y97.897 E48.38248
M204 S5000
M205 X30 Y30
G0 F15000 X118.191 Y97.402
M204 S500
M205 X5 Y5
G1 F1800 X114.807 Y94.018 E48.40874
M204 S5000
M205 X30 Y30
G0 F15000 X114.807 Y93.523
M204 S500
M205 X5 Y5
G1 F1800 X118.191 Y96.907 E48.43499
M204 S5000
M205 X30 Y30
G0 F15000 X118.191 Y96.412
M204 S500
M205 X5 Y5
G1 F1800 X114.807 Y93.028 E48.46125
M204 S5000
M205 X30 Y30
G0 F15000 X115.057 Y92.783
M204 S500
M205 X5 Y5
G1 F1800 X118.191 Y95.917 E48.48557
M204 S5000
M205 X30 Y30
G0 F15000 X118.191 Y95.422
M204 S500
M205 X5 Y5
G1 F1800 X115.552 Y92.783 E48.50604
M204 S5000
M205 X30 Y30
G0 F15000 X116.047 Y92.783
M204 S500
M205 X5 Y5
G1 F1800 X118.191 Y94.927 E48.52268
M204 S5000
M205 X30 Y30
G0 F15000 X118.191 Y94.432
M204 S500
M205 X5 Y5
G1 F1800 X116.542 Y92.783 E48.53547
M204 S5000
M205 X30 Y30
G0 F15000 X117.037 Y92.783
M204 S500
M205 X5 Y5
G1 F1800 X118.191 Y93.937 E48.54443
M204 S5000
M205 X30 Y30
G0 F15000 X118.191 Y93.442
M204 S500
M205 X5 Y5
G1 F1800 X117.532 Y92.783 E48.54954
M204 S5000
M205 X30 Y30
G0 F15000 X118.027 Y92.783
M204 S500
M205 X5 Y5
G1 F1800 X118.191 Y92.947 E48.55081
M204 S5000
M205 X30 Y30
;MESH:NONMESH
G0 F600 X118.191 Y92.947 Z0.77
G0 F15000 X118.65 Y92.326
;TIME_ELAPSED:210.816795
;LAYER:5
M204 S1000
M205 X10 Y10
;TYPE:WALL-INNER
;MESH:Middle adjusting piece.stl
G1 F1800 X118.65 Y92.475 E48.55151
G1 X118.649 Y120.494 E48.68328
G1 X118.589 Y121.008 E48.68571
G1 X118.422 Y121.479 E48.68806
G1 X118.15 Y121.895 E48.6904
G1 X117.787 Y122.241 E48.69276
G1 X117.358 Y122.491 E48.69509
G1 X116.881 Y122.635 E48.69743
G1 X116.381 Y122.668 E48.69979
G1 X115.894 Y122.584 E48.70211
G1 X115.433 Y122.386 E48.70447
G1 X115.029 Y122.087 E48.70684
G1 X114.709 Y121.707 E48.70917
G1 X114.486 Y121.262 E48.71151
G1 X114.364 Y120.751 E48.71399
G1 X114.35 Y120.515 E48.7151
G1 X114.35 Y92.326 E48.84766
G1 X118.501 Y92.326 E48.86718
G1 X118.65 Y92.326 E48.86763
M204 S5000
M205 X30 Y30
G0 F15000 X118.95 Y92.026
M204 S1000
M205 X10 Y10
G1 F1800 X118.95 Y92.175 E48.86833
G1 X118.949 Y120.512 E49.00159
G1 X118.883 Y121.077 E49.00427
G1 X118.693 Y121.612 E49.00694
G1 X118.382 Y122.088 E49.00961
G1 X117.969 Y122.482 E49.0123
G1 X117.478 Y122.768 E49.01497
G1 X116.936 Y122.932 E49.01763
G1 X116.362 Y122.97 E49.02034
G1 X115.809 Y122.874 E49.02298
G1 X115.282 Y122.648 E49.02567
G1 X114.825 Y122.309 E49.02835
G1 X114.801 Y122.28 E49.02853
G1 X114.481 Y121.9 E49.03086
G1 X114.456 Y121.871 E49.03104
G1 X114.202 Y121.366 E49.0337
G1 X114.067 Y120.798 E49.03645
G1 X114.066 Y120.769 E49.03658
G1 X114.052 Y120.534 E49.03769
G1 X114.05 Y120.515 E49.03778
G1 X114.05 Y92.026 E49.17175
G1 X118.801 Y92.026 E49.19409
G1 X118.95 Y92.026 E49.19455
M204 S5000
M205 X30 Y30
G0 F15000 X119.275 Y91.876
M204 S500
M205 X5 Y5
;TYPE:WALL-OUTER
G1 F1200 X119.274 Y120.533 E49.35177
G1 X119.202 Y121.149 E49.35518
G1 X118.986 Y121.758 E49.35872
G1 X118.635 Y122.296 E49.36224
G1 X118.165 Y122.744 E49.36581
G1 X117.608 Y123.068 E49.36934
G1 X116.995 Y123.254 E49.37286
G1 X116.344 Y123.296 E49.37644
G1 X115.714 Y123.187 E49.37994
G1 X115.119 Y122.932 E49.3835
G1 X114.601 Y122.548 E49.38703
G1 X114.184 Y122.052 E49.39059
G1 X113.895 Y121.478 E49.39411
G1 X113.745 Y120.847 E49.39767
G1 X113.725 Y120.515 E49.3995
G1 X113.725 Y91.701 E49.55758
G1 X119.1 Y91.701 E49.58707
G1 X119.275 Y91.701 E49.58803
G1 X119.275 Y91.876 E49.58865
M204 S5000
M205 X30 Y30
G0 F15000 X119.275 Y92.076
G0 X118.89 Y92.075
G0 X118.335 Y92.641
M204 S500
M205 X5 Y5
;TYPE:SKIN
G1 F1800 X118.334 Y120.476 E49.74137
G1 X118.28 Y120.936 E49.74391
G1 X118.138 Y121.338 E49.74625
G1 X117.907 Y121.691 E49.74856
G1 X117.595 Y121.988 E49.75093
G1 X117.232 Y122.2 E49.75323
G1 X116.825 Y122.322 E49.75556
G1 X116.397 Y122.351 E49.75792
G1 X115.984 Y122.279 E49.76022
G1 X115.591 Y122.111 E49.76256
G1 X115.245 Y121.854 E49.76493
G1 X114.972 Y121.53 E49.76725
G1 X114.783 Y121.155 E49.76956
G1 X114.677 Y120.711 E49.77206
G1 X114.665 Y120.496 E49.77324
G1 X114.665 Y92.641 E49.92607
G1 X118.335 Y92.641 E49.9462
M204 S5000
M205 X30 Y30
G0 F15000 X114.807 Y93.081
M204 S500
M205 X5 Y5
G1 F1800 X115.105 Y92.783 E49.94851
M204 S5000
M205 X30 Y30
G0 F15000 X115.6 Y92.783
M204 S500
M205 X5 Y5
G1 F1800 X114.807 Y93.576 E49.95467
M204 S5000
M205 X30 Y30
G0 F15000 X114.807 Y94.071
M204 S500
M205 X5 Y5
G1 F1800 X116.095 Y92.783 E49.96466
M204 S5000
M205 X30 Y30
G0 F15000 X116.59 Y92.783
M204 S500
M205 X5 Y5
G1 F1800 X114.807 Y94.566 E49.97849
M204 S5000
M205 X30 Y30
G0 F15000 X114.807 Y95.061
M204 S500
M205 X5 Y5
G1 F1800 X117.085 Y92.783 E49.99617
M204 S5000
M205 X30 Y30
G0 F15000 X117.58 Y92.783
M204 S500
M205 X5 Y5
G1 F1800 X114.807 Y95.556 E50.01768
M204 S5000
M205 X30 Y30
G0 F15000 X114.807 Y96.051
M204 S500
M205 X5 Y5
G1 F1800 X118.075 Y92.783 E50.04304
M204 S5000
M205 X30 Y30
G0 F15000 X118.19 Y93.163
M204 S500
M205 X5 Y5
G1 F1800 X114.807 Y96.546 E50.06929
M204 S5000
M205 X30 Y30
G0 F15000 X114.807 Y97.041
M204 S500
M205 X5 Y5
G1 F1800 X118.19 Y93.658 E50.09554
M204 S5000
M205 X30 Y30
G0 F15000 X118.19 Y94.153
M204 S500
M205 X5 Y5
G1 F1800 X114.807 Y97.536 E50.12179
M204 S5000
M205 X30 Y30
G0 F15000 X114.807 Y98.031
M204 S500
M205 X5 Y5
G1 F1800 X118.19 Y94.648 E50.14803
M204 S5000
M205 X30 Y30
G0 F15000 X118.19 Y95.143
M204 S500
M205 X5 Y5
G1 F1800 X114.807 Y98.526 E50.17428
M204 S5000
M205 X30 Y30
G0 F15000 X114.807 Y99.021
M204 S500
M205 X5 Y5
G1 F1800 X118.19 Y95.638 E50.20053
M204 S5000
M205 X30 Y30
G0 F15000 X118.19 Y96.133
M204 S500
M205 X5 Y5
G1 F1800 X114.807 Y99.516 E50.22678
M204 S5000
M205 X30 Y30
G0 F15000 X114.807 Y100.011
M204 S500
M205 X5 Y5
G1 F1800 X118.19 Y96.628 E50.25303
M204 S5000
M205 X30 Y30
G0 F15000 X118.19 Y97.123
M204 S500
M205 X5 Y5
G1 F1800 X114.807 Y100.506 E50.27928
M204 S5000
M205 X30 Y30
G0 F15000 X114.807 Y101.001
M204 S500
M205 X5 Y5
G1 F1800 X118.19 Y97.618 E50.30553
M204 S5000
M205 X30 Y30
G0 F15000 X118.19 Y98.113
M204 S500
M205 X5 Y5
G1 F1800 X114.807 Y101.495 E50.33177
M204 S5000
M205 X30 Y30
G0 F15000 X114.807 Y101.99
M204 S500
M205 X5 Y5
G1 F1800 X118.19 Y98.608 E50.35801
M204 S5000
M205 X30 Y30
G0 F15000 X118.19 Y99.103
M204 S500
M205 X5 Y5
G1 F1800 X114.807 Y102.485 E50.38426
M204 S5000
M205 X30 Y30
G0 F15000 X114.807 Y102.98
M204 S500
M205 X5 Y5
G1 F1800 X118.19 Y99.598 E50.4105
M204 S5000
M205 X30 Y30
G0 F15000 X118.19 Y100.093
M204 S500
M205 X5 Y5
G1 F1800 X114.807 Y103.475 E50.43675
M204 S5000
M205 X30 Y30
G0 F15000 X114.807 Y103.97
M204 S500
M205 X5 Y5
G1 F1800 X118.19 Y100.588 E50.46299
M204 S5000
M205 X30 Y30
G0 F15000 X118.19 Y101.083
M204 S500
M205 X5 Y5
G1 F1800 X114.807 Y104.465 E50.48924
M204 S5000
M205 X30 Y30
G0 F15000 X114.807 Y104.96
M204 S500
M205 X5 Y5
G1 F1800 X118.19 Y101.578 E50.51548
M204 S5000
M205 X30 Y30
G0 F15000 X118.19 Y102.072
M204 S500
M205 X5 Y5
G1 F1800 X114.807 Y105.455 E50.54173
M204 S5000
M205 X30 Y30
G0 F15000 X114.807 Y105.95
M204 S500
M205 X5 Y5
G1 F1800 X118.19 Y102.567 E50.56798
M204 S5000
M205 X30 Y30
G0 F15000 X118.19 Y103.062
M204 S500
M205 X5 Y5
G1 F1800 X114.807 Y106.445 E50.59423
M204 S5000
M205 X30 Y30
G0 F15000 X114.807 Y106.94
M204 S500
M205 X5 Y5
G1 F1800 X118.19 Y103.557 E50.62048
M204 S5000
M205 X30 Y30
G0 F15000 X118.19 Y104.052
M204 S500
M205 X5 Y5
G1 F1800 X114.807 Y107.435 E50.64673
M204 S5000
M205 X30 Y30
G0 F15000 X114.807 Y107.93
M204 S500
M205 X5 Y5
G1 F1800 X118.19 Y104.547 E50.67297
M204 S5000
M205 X30 Y30
G0 F15000 X118.19 Y105.042
M204 S500
M205 X5 Y5
G1 F1800 X114.807 Y108.425 E50.69922
M204 S5000
M205 X30 Y30
G0 F15000 X114.807 Y108.92
M204 S500
M205 X5 Y5
G1 F1800 X118.19 Y105.537 E50.72547
M204 S5000
M205 X30 Y30
G0 F15000 X118.19 Y106.032
M204 S500
M205 X5 Y5
G1 F1800 X114.807 Y109.415 E50.75172
M204 S5000
M205 X30 Y30
G0 F15000 X114.807 Y109.91
M204 S500
M205 X5 Y5
G1 F1800 X118.19 Y106.527 E50.77797
M204 S5000
M205 X30 Y30
G0 F15000 X118.19 Y107.022
M204 S500
M205 X5 Y5
G1 F1800 X114.807 Y110.405 E50.80422
M204 S5000
M205 X30 Y30
G0 F15000 X114.807 Y110.9
M204 S500
M205 X5 Y5
G1 F1800 X118.19 Y107.517 E50.83047
M204 S5000
M205 X30 Y30
G0 F15000 X118.19 Y108.012
M204 S500
M205 X5 Y5
G1 F1800 X114.807 Y111.395 E50.85671
M204 S5000
M205 X30 Y30
G0 F15000 X114.807 Y111.89
M204 S500
M205 X5 Y5
G1 F1800 X118.19 Y108.507 E50.88296
M204 S5000
M205 X30 Y30
G0 F15000 X118.19 Y109.002
M204 S500
M205 X5 Y5
G1 F1800 X114.807 Y112.385 E50.90921
M204 S5000
M205 X30 Y30
G0 F15000 X114.807 Y112.88
M204 S500
M205 X5 Y5
G1 F1800 X118.19 Y109.497 E50.93546
M204 S5000
M205 X30 Y30
G0 F15000 X118.19 Y109.992
M204 S500
M205 X5 Y5
G1 F1800 X114.807 Y113.375 E50.96171
M204 S5000
M205 X30 Y30
G0 F15000 X114.807 Y113.87
M204 S500
M205 X5 Y5
G1 F1800 X118.19 Y110.487 E50.98796
M204 S5000
M205 X30 Y30
G0 F15000 X118.19 Y110.982
M204 S500
M205 X5 Y5
G1 F1800 X114.807 Y114.365 E51.01421
M204 S5000
M205 X30 Y30
G0 F15000 X114.807 Y114.86
M204 S500
M205 X5 Y5
G1 F1800 X118.19 Y111.477 E51.04045
M204 S5000
M205 X30 Y30
G0 F15000 X118.19 Y111.972
M204 S500
M205 X5 Y5
G1 F1800 X114.807 Y115.355 E51.0667
M204 S5000
M205 X30 Y30
G0 F15000 X114.807 Y115.85
M204 S500
M205 X5 Y5
G1 F1800 X118.19 Y112.467 E51.09295
M204 S5000
M205 X30 Y30
G0 F15000 X118.19 Y112.962
M204 S500
M205 X5 Y5
G1 F1800 X114.807 Y116.345 E51.1192
M204 S5000
M205 X30 Y30
G0 F15000 X114.807 Y116.84
M204 S500
M205 X5 Y5
G1 F1800 X118.19 Y113.457 E51.14545
M204 S5000
M205 X30 Y30
G0 F15000 X118.19 Y113.952
M204 S500
M205 X5 Y5
G1 F1800 X114.807 Y117.335 E51.1717
M204 S5000
M205 X30 Y30
G0 F15000 X114.807 Y117.83
M204 S500
M205 X5 Y5
G1 F1800 X118.19 Y114.447 E51.19795
M204 S5000
M205 X30 Y30
G0 F15000 X118.19 Y114.942
M204 S500
M205 X5 Y5
G1 F1800 X114.807 Y118.325 E51.22419
M204 S5000
M205 X30 Y30
G0 F15000 X114.807 Y118.82
M204 S500
M205 X5 Y5
G1 F1800 X118.19 Y115.437 E51.25044
M204 S5000
M205 X30 Y30
G0 F15000 X118.19 Y115.932
M204 S500
M205 X5 Y5
G1 F1800 X114.807 Y119.315 E51.27669
M204 S5000
M205 X30 Y30
G0 F15000 X114.807 Y119.81
M204 S500
M205 X5 Y5
G1 F1800 X118.19 Y116.427 E51.30294
M204 S5000
M205 X30 Y30
G0 F15000 X118.19 Y116.922
M204 S500
M205 X5 Y5
G1 F1800 X114.807 Y120.305 E51.32919
M204 S5000
M205 X30 Y30
G0 F15000 X114.838 Y120.769
M204 S500
M205 X5 Y5
G1 F1800 X118.19 Y117.417 E51.3552
M204 S5000
M205 X30 Y30
G0 F15000 X118.19 Y117.912
M204 S500
M205 X5 Y5
G1 F1800 X114.945 Y121.157 E51.38037
M204 S5000
M205 X30 Y30
G0 F15000 X115.118 Y121.479
M204 S500
M205 X5 Y5
G1 F1800 X118.19 Y118.407 E51.40421
M204 S5000
M205 X30 Y30
G0 F15000 X118.19 Y118.902
M204 S500
M205 X5 Y5
G1 F1800 X115.344 Y121.748 E51.42629
M204 S5000
M205 X30 Y30
G0 F15000 X115.627 Y121.96
M204 S500
M205 X5 Y5
G1 F1800 X118.19 Y119.397 E51.44618
M204 S5000
M205 X30 Y30
G0 F15000 X118.19 Y119.892
M204 S500
M205 X5 Y5
G1 F1800 X115.966 Y122.115 E51.46343
M204 S5000
M205 X30 Y30
G0 F15000 X116.375 Y122.202
M204 S500
M205 X5 Y5
G1 F1800 X118.19 Y120.387 E51.47751
M204 S5000
M205 X30 Y30
G0 F15000 X118.121 Y120.951
M204 S500
M205 X5 Y5
G1 F1800 X116.932 Y122.139 E51.48673
M204 S5000
M205 X30 Y30
;MESH:NONMESH
G0 F600 X116.932 Y122.139 Z0.87
G0 F15000 X118.65 Y92.326
;TIME_ELAPSED:233.936693
;LAYER:6
M204 S1000
M205 X10 Y10
;TYPE:WALL-INNER
;MESH:Middle adjusting piece.stl
G1 F1800 X118.65 Y92.475 E51.48743
G1 X118.649 Y120.497 E51.61921
G1 X118.59 Y121.005 E51.62162
G1 X118.423 Y121.476 E51.62397
G1 X118.15 Y121.895 E51.62632
G1 X117.79 Y122.239 E51.62866
G1 X117.357 Y122.492 E51.63102
G1 X116.882 Y122.635 E51.63335
G1 X116.382 Y122.668 E51.63571
G1 X115.895 Y122.584 E51.63803
G1 X115.428 Y122.384 E51.64042
G1 X115.036 Y122.094 E51.64271
G1 X114.708 Y121.703 E51.64511
G1 X114.486 Y121.262 E51.64744
G1 X114.364 Y120.751 E51.64991
G1 X114.35 Y120.515 E51.65102
G1 X114.35 Y92.326 E51.78358
G1 X118.501 Y92.326 E51.8031
G1 X118.65 Y92.326 E51.80356
M204 S5000
M205 X30 Y30
G0 F15000 X118.95 Y92.026
M204 S1000
M205 X10 Y10
G1 F1800 X118.95 Y92.175 E51.80426
G1 X118.949 Y120.515 E51.93753
G1 X118.884 Y121.074 E51.94018
G1 X118.694 Y121.609 E51.94285
G1 X118.382 Y122.088 E51.94553
G1 X117.972 Y122.48 E51.9482
G1 X117.477 Y122.769 E51.9509
G1 X116.937 Y122.932 E51.95355
G1 X116.363 Y122.97 E51.95625
G1 X115.81 Y122.874 E51.95889
G1 X115.28 Y122.647 E51.96161
G1 X114.827 Y122.312 E51.96425
G1 X114.456 Y121.87 E51.96697
G1 X114.202 Y121.366 E51.96962
G1 X114.067 Y120.798 E51.97237
G1 X114.066 Y120.769 E51.9725
G1 X114.052 Y120.534 E51.97361
G1 X114.05 Y120.515 E51.9737
G1 X114.05 Y92.026 E52.10767
G1 X118.801 Y92.026 E52.13002
G1 X118.95 Y92.026 E52.13047
M204 S5000
M205 X30 Y30
G0 F15000 X119.275 Y91.876
M204 S500
M205 X5 Y5
;TYPE:WALL-OUTER
G1 F1200 X119.274 Y120.536 E52.28771
G1 X119.203 Y121.146 E52.29108
G1 X118.986 Y121.756 E52.29463
G1 X118.636 Y122.295 E52.29816
G1 X118.166 Y122.743 E52.30172
G1 X117.61 Y123.068 E52.30525
G1 X116.996 Y123.254 E52.30877
G1 X116.345 Y123.296 E52.31235
G1 X115.715 Y123.187 E52.31586
G1 X115.12 Y122.932 E52.31941
G1 X114.602 Y122.549 E52.32295
G1 X114.184 Y122.052 E52.32651
G1 X113.895 Y121.478 E52.33004
G1 X113.745 Y120.847 E52.33359
G1 X113.725 Y120.515 E52.33542
G1 X113.725 Y91.701 E52.4935
G1 X119.1 Y91.701 E52.52299
G1 X119.275 Y91.701 E52.52395
G1 X119.275 Y91.876 E52.52458
M204 S5000
M205 X30 Y30
G0 F15000 X119.275 Y92.076
G0 X118.89 Y92.075
G0 X118.335 Y92.641
M204 S500
M205 X5 Y5
;TYPE:SKIN
G1 F1800 X118.334 Y120.479 E52.67731
G1 X118.281 Y120.933 E52.67981
G1 X118.139 Y121.335 E52.68215
G1 X117.907 Y121.691 E52.68448
G1 X117.597 Y121.986 E52.68683
G1 X117.23 Y122.201 E52.68917
G1 X116.828 Y122.322 E52.69147
G1 X116.398 Y122.351 E52.69383
G1 X115.985 Y122.279 E52.69613
G1 X115.586 Y122.108 E52.69852
G1 X115.25 Y121.86 E52.70081
G1 X114.972 Y121.529 E52.70318
G1 X114.783 Y121.154 E52.70548
G1 X114.677 Y120.711 E52.70798
G1 X114.665 Y120.496 E52.70916
G1 X114.665 Y92.641 E52.86199
G1 X118.335 Y92.641 E52.88212
M204 S5000
M205 X30 Y30
G0 F15000 X118.191 Y92.947
M204 S500
M205 X5 Y5
G1 F1800 X118.027 Y92.783 E52.88339
M204 S5000
M205 X30 Y30
G0 F15000 X117.532 Y92.783
M204 S500
M205 X5 Y5
G1 F1800 X118.191 Y93.442 E52.88851
M204 S5000
M205 X30 Y30
G0 F15000 X118.191 Y93.937
M204 S500
M205 X5 Y5
G1 F1800 X117.037 Y92.783 E52.89746
M204 S5000
M205 X30 Y30
G0 F15000 X116.542 Y92.783
M204 S500
M205 X5 Y5
G1 F1800 X118.191 Y94.432 E52.91026
M204 S5000
M205 X30 Y30
G0 F15000 X118.191 Y94.927
M204 S500
M205 X5 Y5
G1 F1800 X116.047 Y92.783 E52.92689
M204 S5000
M205 X30 Y30
G0 F15000 X115.552 Y92.783
M204 S500
M205 X5 Y5
G1 F1800 X118.191 Y95.422 E52.94737
M204 S5000
M205 X30 Y30
G0 F15000 X118.191 Y95.917
M204 S500
M205 X5 Y5
G1 F1800 X115.057 Y92.783 E52.97168
M204 S5000
M205 X30 Y30
G0 F15000 X114.807 Y93.028
M204 S500
M205 X5 Y5
G1 F1800 X118.191 Y96.412 E52.99794
M204 S5000
M205 X30 Y30
G0 F15000 X118.191 Y96.907
M204 S500
M205 X5 Y5
G1 F1800 X114.807 Y93.523 E53.0242
M204 S5000
M205 X30 Y30
G0 F15000 X114.807 Y94.018
M204 S500
M205 X5 Y5
G1 F1800 X118.191 Y97.402 E53.05045
M204 S5000
M205 X30 Y30
G0 F15000 X118.191 Y97.897
M204 S500
M205 X5 Y5
G1 F1800 X114.807 Y94.513 E53.07671
M204 S5000
M205 X30 Y30
G0 F15000 X114.807 Y95.008
M204 S500
M205 X5 Y5
G1 F1800 X118.191 Y98.392 E53.10297
M204 S5000
M205 X30 Y30
G0 F15000 X118.191 Y98.887
M204 S500
M205 X5 Y5
G1 F1800 X114.807 Y95.503 E53.12922
M204 S5000
M205 X30 Y30
G0 F15000 X114.807 Y95.998
M204 S500
M205 X5 Y5
G1 F1800 X118.191 Y99.382 E53.15548
M204 S5000
M205 X30 Y30
G0 F15000 X118.191 Y99.877
M204 S500
M205 X5 Y5
G1 F1800 X114.807 Y96.493 E53.18173
M204 S5000
M205 X30 Y30
G0 F15000 X114.807 Y96.988
M204 S500
M205 X5 Y5
G1 F1800 X118.191 Y100.372 E53.20799
M204 S5000
M205 X30 Y30
G0 F15000 X118.191 Y100.867
M204 S500
M205 X5 Y5
G1 F1800 X114.807 Y97.483 E53.23425
M204 S5000
M205 X30 Y30
G0 F15000 X114.807 Y97.978
M204 S500
M205 X5 Y5
G1 F1800 X118.191 Y101.362 E53.2605
M204 S5000
M205 X30 Y30
G0 F15000 X118.191 Y101.857
M204 S500
M205 X5 Y5
G1 F1800 X114.807 Y98.473 E53.28676
M204 S5000
M205 X30 Y30
G0 F15000 X114.807 Y98.968
M204 S500
M205 X5 Y5
G1 F1800 X118.191 Y102.352 E53.31302
M204 S5000
M205 X30 Y30
G0 F15000 X118.191 Y102.847
M204 S500
M205 X5 Y5
G1 F1800 X114.807 Y99.463 E53.33927
M204 S5000
M205 X30 Y30
G0 F15000 X114.807 Y99.958
M204 S500
M205 X5 Y5
G1 F1800 X118.191 Y103.342 E53.36553
M204 S5000
M205 X30 Y30
G0 F15000 X118.191 Y103.837
M204 S500
M205 X5 Y5
G1 F1800 X114.807 Y100.453 E53.39178
M204 S5000
M205 X30 Y30
G0 F15000 X114.807 Y100.947
M204 S500
M205 X5 Y5
G1 F1800 X118.191 Y104.332 E53.41804
M204 S5000
M205 X30 Y30
G0 F15000 X118.191 Y104.827
M204 S500
M205 X5 Y5
G1 F1800 X114.807 Y101.442 E53.4443
M204 S5000
M205 X30 Y30
G0 F15000 X114.807 Y101.937
M204 S500
M205 X5 Y5
G1 F1800 X118.191 Y105.322 E53.47057
M204 S5000
M205 X30 Y30
G0 F15000 X118.191 Y105.817
M204 S500
M205 X5 Y5
G1 F1800 X114.807 Y102.432 E53.49683
M204 S5000
M205 X30 Y30
G0 F15000 X114.807 Y102.927
M204 S500
M205 X5 Y5
G1 F1800 X118.191 Y106.312 E53.52309
M204 S5000
M205 X30 Y30
G0 F15000 X118.191 Y106.807
M204 S500
M205 X5 Y5
G1 F1800 X114.807 Y103.422 E53.54935
M204 S5000
M205 X30 Y30
G0 F15000 X114.807 Y103.917
M204 S500
M205 X5 Y5
G1 F1800 X118.191 Y107.302 E53.57561
M204 S5000
M205 X30 Y30
G0 F15000 X118.191 Y107.797
M204 S500
M205 X5 Y5
G1 F1800 X114.807 Y104.412 E53.60187
M204 S5000
M205 X30 Y30
G0 F15000 X114.807 Y104.907
M204 S500
M205 X5 Y5
G1 F1800 X118.191 Y108.291 E53.62812
M204 S5000
M205 X30 Y30
G0 F15000 X118.191 Y108.786
M204 S500
M205 X5 Y5
G1 F1800 X114.807 Y105.402 E53.65438
M204 S5000
M205 X30 Y30
G0 F15000 X114.807 Y105.897
M204 S500
M205 X5 Y5
G1 F1800 X118.191 Y109.281 E53.68064
M204 S5000
M205 X30 Y30
G0 F15000 X118.191 Y109.776
M204 S500
M205 X5 Y5
G1 F1800 X114.807 Y106.392 E53.70689
M204 S5000
M205 X30 Y30
G0 F15000 X114.807 Y106.887
M204 S500
M205 X5 Y5
G1 F1800 X118.191 Y110.271 E53.73315
M204 S5000
M205 X30 Y30
G0 F15000 X118.191 Y110.766
M204 S500
M205 X5 Y5
G1 F1800 X114.807 Y107.382 E53.7594
M204 S5000
M205 X30 Y30
G0 F15000 X114.807 Y107.877
M204 S500
M205 X5 Y5
G1 F1800 X118.191 Y111.261 E53.78566
M204 S5000
M205 X30 Y30
G0 F15000 X118.191 Y111.756
M204 S500
M205 X5 Y5
G1 F1800 X114.807 Y108.372 E53.81192
M204 S5000
M205 X30 Y30
G0 F15000 X114.807 Y108.867
M204 S500
M205 X5 Y5
G1 F1800 X118.191 Y112.251 E53.83817
M204 S5000
M205 X30 Y30
G0 F15000 X118.191 Y112.746
M204 S500
M205 X5 Y5
G1 F1800 X114.807 Y109.362 E53.86443
M204 S5000
M205 X30 Y30
G0 F15000 X114.807 Y109.857
M204 S500
M205 X5 Y5
G1 F1800 X118.191 Y113.241 E53.89069
M204 S5000
M205 X30 Y30
G0 F15000 X118.191 Y113.736
M204 S500
M205 X5 Y5
G1 F1800 X114.807 Y110.352 E53.91694
M204 S5000
M205 X30 Y30
G0 F15000 X114.807 Y110.847
