;START_OF_HEADER
;HEADER_VERSION:0.1
;FLAVOR:Griffin
;GENERATOR.NAME:Cura_SteamEngine
;GENERATOR.VERSION:4.7.1
;GENERATOR.BUILD_DATE:2020-09-02
;TARGET_MACHINE.NAME:Ultimaker 3
;EXTRUDER_TRAIN.0.INITIAL_TEMPERATURE:205
;EXTRUDER_TRAIN.0.MATERIAL.VOLUME_USED:1958
;EXTRUDER_TRAIN.0.MATERIAL.GUID:506c9f0d-e3aa-4bd4-b2d2-23e2425b1aa9
;EXTRUDER_TRAIN.0.NOZZLE.DIAMETER:0.4
;EXTRUDER_TRAIN.0.NOZZLE.NAME:AA 0.4
;BUILD_PLATE.TYPE:glass
;BUILD_PLATE.INITIAL_TEMPERATURE:60
;PRINT.TIME:2036
;PRINT.GROUPS:1
;PRINT.SIZE.MIN.X:9
;PRINT.SIZE.MIN.Y:6
;PRINT.SIZE.MIN.Z:0.27
;PRINT.SIZE.MAX.X:135.374
;PRINT.SIZE.MAX.Y:126.378
;PRINT.SIZE.MAX.Z:14.77
;END_OF_HEADER
;Generated with Cura_SteamEngine 4.7.1
T0
M82 ;absolute extrusion mode

G92 E0
M109 S205
G0 F15000 X9 Y6 Z2
G280
G1 F1500 E-6.5
;LAYER_COUNT:146
;LAYER:0
M107
M204 S625
M205 X6 Y6
G1 F600 Z2.27
G0 F4285.7 X102.89 Y94.415 Z2.27
M204 S500
M205 X5 Y5
;TYPE:SKIRT
G1 F600 Z0.27
G1 F1500 E0
G1 F1200 X103.195 Y94.105 E0.00773
G1 X103.732 Y93.592 E0.02093
G1 X104.056 Y93.301 E0.02867
G1 X104.625 Y92.822 E0.04189
G1 X104.97 Y92.55 E0.0497
G1 X105.567 Y92.109 E0.0629
G1 X105.91 Y91.872 E0.07031
G1 X106.535 Y91.466 E0.08356
G1 X106.901 Y91.243 E0.09118
G1 X107.547 Y90.878 E0.10437
G1 X107.943 Y90.671 E0.11231
G1 X108.612 Y90.348 E0.12551
G1 X108.984 Y90.182 E0.13276
G1 X109.673 Y89.898 E0.146
G1 X110.1 Y89.738 E0.15411
G1 X110.803 Y89.501 E0.1673
G1 X111.216 Y89.376 E0.17497
G1 X111.933 Y89.183 E0.18816
G1 X112.33 Y89.089 E0.19542
G1 X113.06 Y88.938 E0.20867
G1 X113.504 Y88.861 E0.21668
G1 X114.24 Y88.758 E0.22989
G1 X114.659 Y88.712 E0.23738
G1 X115.4 Y88.654 E0.25059
G1 X115.829 Y88.634 E0.25823
G1 X116.57 Y88.622 E0.2714
G1 X117.008 Y88.629 E0.27919
G1 X117.751 Y88.664 E0.29241
G1 X118.18 Y88.697 E0.30006
G1 X118.919 Y88.778 E0.31327
G1 X119.327 Y88.835 E0.3206
G1 X120.061 Y88.96 E0.33383
G1 X120.515 Y89.053 E0.34207
G1 X121.236 Y89.226 E0.35525
G1 X121.642 Y89.337 E0.36273
G1 X122.353 Y89.554 E0.37595
G1 X122.749 Y89.688 E0.38338
G1 X123.447 Y89.948 E0.39662
G1 X123.856 Y90.115 E0.40447
G1 X124.534 Y90.418 E0.41767
G1 X124.927 Y90.609 E0.42544
G1 X125.586 Y90.955 E0.43867
G1 X125.947 Y91.158 E0.44603
G1 X126.583 Y91.542 E0.45924
G1 X126.95 Y91.78 E0.46702
G1 X127.56 Y92.203 E0.48021
G1 X127.909 Y92.462 E0.48794
G1 X128.492 Y92.923 E0.50115
G1 X128.817 Y93.196 E0.50869
G1 X129.371 Y93.692 E0.52191
G1 X129.685 Y93.992 E0.52963
G1 X130.206 Y94.521 E0.54283
G1 X130.498 Y94.836 E0.55046
G1 X130.986 Y95.397 E0.56368
G1 X131.267 Y95.742 E0.57159
G1 X131.717 Y96.332 E0.58478
G1 X131.956 Y96.665 E0.59207
G1 X132.372 Y97.283 E0.60531
G1 X132.609 Y97.661 E0.61324
G1 X132.983 Y98.302 E0.62643
G1 X133.188 Y98.68 E0.63408
G1 X133.523 Y99.346 E0.64733
G1 X133.703 Y99.732 E0.6549
G1 X133.995 Y100.414 E0.66809
G1 X134.151 Y100.814 E0.67572
G1 X134.401 Y101.515 E0.68895
G1 X134.537 Y101.937 E0.69683
G1 X134.741 Y102.65 E0.71001
G1 X134.842 Y103.047 E0.7173
G1 X135.004 Y103.773 E0.73052
G1 X135.087 Y104.211 E0.73844
G1 X135.202 Y104.946 E0.75167
G1 X135.255 Y105.374 E0.75933
G1 X135.324 Y106.114 E0.77254
G1 X135.351 Y106.542 E0.78017
G1 X135.374 Y107.284 E0.79336
G1 X135.374 Y107.713 E0.80099
G1 X135.351 Y108.456 E0.8142
G1 X135.324 Y108.885 E0.82184
G1 X135.255 Y109.625 E0.83506
G1 X135.202 Y110.053 E0.84272
G1 X135.087 Y110.788 E0.85595
G1 X135.004 Y111.224 E0.86384
G1 X134.842 Y111.951 E0.87708
G1 X134.74 Y112.353 E0.88445
G1 X134.536 Y113.065 E0.89761
G1 X134.402 Y113.481 E0.90538
G1 X134.152 Y114.183 E0.91863
G1 X133.995 Y114.586 E0.92632
G1 X133.703 Y115.268 E0.93951
G1 X133.525 Y115.65 E0.947
G1 X133.191 Y116.315 E0.96023
G1 X132.982 Y116.7 E0.96801
G1 X132.607 Y117.342 E0.98123
G1 X132.373 Y117.715 E0.98906
G1 X131.958 Y118.332 E1.00227
G1 X131.718 Y118.667 E1.0096
G1 X131.268 Y119.257 E1.02279
G1 X130.987 Y119.602 E1.0307
G1 X130.499 Y120.163 E1.04392
G1 X130.207 Y120.478 E1.05155
G1 X129.686 Y121.007 E1.06475
G1 X129.372 Y121.307 E1.07247
G1 X128.818 Y121.803 E1.08569
G1 X128.495 Y122.075 E1.09319
G1 X127.911 Y122.537 E1.10643
G1 X127.56 Y122.797 E1.1142
G1 X126.95 Y123.22 E1.12739
G1 X126.583 Y123.458 E1.13517
G1 X125.947 Y123.842 E1.14837
G1 X125.586 Y124.045 E1.15573
G1 X124.927 Y124.391 E1.16897
G1 X124.534 Y124.582 E1.17673
G1 X123.856 Y124.885 E1.18993
G1 X123.447 Y125.052 E1.19779
G1 X122.749 Y125.312 E1.21103
G1 X122.353 Y125.446 E1.21846
G1 X121.642 Y125.663 E1.23167
G1 X121.227 Y125.776 E1.23932
G1 X120.506 Y125.948 E1.25249
G1 X120.07 Y126.037 E1.26041
G1 X119.336 Y126.163 E1.27364
G1 X118.919 Y126.222 E1.28113
G1 X118.18 Y126.303 E1.29434
G1 X117.751 Y126.336 E1.30199
G1 X117.008 Y126.371 E1.31522
G1 X116.57 Y126.378 E1.323
G1 X115.829 Y126.366 E1.33618
G1 X115.4 Y126.346 E1.34381
G1 X114.659 Y126.288 E1.35702
G1 X114.24 Y126.242 E1.36452
G1 X113.504 Y126.139 E1.37773
G1 X113.069 Y126.064 E1.38557
G1 X112.339 Y125.914 E1.39882
G1 X111.924 Y125.815 E1.4064
G1 X111.207 Y125.621 E1.41961
G1 X110.795 Y125.496 E1.42726
G1 X110.092 Y125.258 E1.44045
G1 X109.681 Y125.104 E1.44826
G1 X108.992 Y124.821 E1.4615
G1 X108.612 Y124.652 E1.46889
G1 X107.943 Y124.329 E1.4821
G1 X107.547 Y124.122 E1.49004
G1 X106.901 Y123.757 E1.50323
G1 X106.535 Y123.534 E1.51085
G1 X105.91 Y123.128 E1.52409
G1 X105.567 Y122.891 E1.53151
G1 X104.97 Y122.45 E1.5447
G1 X104.625 Y122.178 E1.55251
G1 X104.056 Y121.699 E1.56573
G1 X103.727 Y121.403 E1.5736
G1 X103.191 Y120.89 E1.58679
G1 X102.896 Y120.59 E1.59427
G1 X102.39 Y120.043 E1.60751
G1 X102.112 Y119.724 E1.61503
G1 X101.641 Y119.148 E1.62826
G1 X101.374 Y118.799 E1.63607
G1 X100.941 Y118.195 E1.64928
G1 X100.7 Y117.836 E1.65697
G1 X100.306 Y117.207 E1.67016
G1 X100.092 Y116.841 E1.6777
G1 X99.736 Y116.187 E1.69093
G1 X99.536 Y115.788 E1.69887
G1 X99.225 Y115.117 E1.71201
G1 X99.06 Y114.732 E1.71946
G1 X98.788 Y114.038 E1.73271
G1 X98.644 Y113.636 E1.7403
G1 X98.416 Y112.929 E1.7535
G1 X98.295 Y112.507 E1.76131
G1 X98.112 Y111.786 E1.77453
G1 X98.019 Y111.367 E1.78216
G1 X97.881 Y110.636 E1.79538
G1 X97.814 Y110.208 E1.80309
G1 X97.722 Y109.471 E1.81629
G1 X97.682 Y109.043 E1.82393
G1 X97.636 Y108.303 E1.83711
G1 X97.623 Y107.873 E1.84476
G1 X97.623 Y107.128 E1.858
G1 X97.636 Y106.699 E1.86563
G1 X97.682 Y105.958 E1.87883
G1 X97.722 Y105.529 E1.88648
G1 X97.814 Y104.792 E1.89969
G1 X97.88 Y104.373 E1.90723
G1 X98.017 Y103.642 E1.92045
G1 X98.113 Y103.205 E1.9284
G1 X98.297 Y102.484 E1.94163
G1 X98.416 Y102.071 E1.94927
G1 X98.644 Y101.364 E1.96247
G1 X98.788 Y100.962 E1.97006
G1 X99.06 Y100.268 E1.98331
G1 X99.228 Y99.875 E1.99091
G1 X99.54 Y99.204 E2.00407
G1 X99.733 Y98.82 E2.01171
G1 X100.088 Y98.166 E2.02493
G1 X100.306 Y97.793 E2.03261
G1 X100.7 Y97.164 E2.04581
G1 X100.941 Y96.805 E2.05349
G1 X101.374 Y96.201 E2.0667
G1 X101.641 Y95.852 E2.07451
G1 X102.112 Y95.276 E2.08774
G1 X102.385 Y94.962 E2.09514
G1 X102.89 Y94.415 E2.10837
M204 S625
M205 X6 Y6
G0 F4285.7 X103.199 Y94.7
M204 S500
M205 X5 Y5
G1 F1200 X103.485 Y94.409 E2.11562
G1 X104.022 Y93.896 E2.12882
G1 X104.326 Y93.623 E2.13609
G1 X104.895 Y93.144 E2.14931
G1 X105.22 Y92.888 E2.15666
G1 X105.817 Y92.447 E2.16986
G1 X106.139 Y92.224 E2.17682
G1 X106.764 Y91.818 E2.19007
G1 X107.108 Y91.609 E2.19722
G1 X107.754 Y91.244 E2.21041
G1 X108.126 Y91.05 E2.21787
G1 X108.795 Y90.727 E2.23108
G1 X109.144 Y90.57 E2.23788
G1 X109.833 Y90.286 E2.25113
G1 X110.234 Y90.136 E2.25874
G1 X110.937 Y89.899 E2.27192
G1 X111.325 Y89.782 E2.27913
G1 X112.042 Y89.589 E2.29233
G1 X112.415 Y89.5 E2.29914
G1 X113.145 Y89.349 E2.31239
G1 X113.562 Y89.277 E2.31992
G1 X114.298 Y89.174 E2.33313
G1 X114.692 Y89.131 E2.34017
G1 X115.433 Y89.073 E2.35339
G1 X115.836 Y89.054 E2.36056
G1 X116.577 Y89.042 E2.37373
G1 X116.988 Y89.048 E2.38104
G1 X117.731 Y89.083 E2.39426
G1 X118.134 Y89.115 E2.40145
G1 X118.873 Y89.196 E2.41466
G1 X119.257 Y89.249 E2.42155
G1 X119.991 Y89.374 E2.43479
G1 X120.417 Y89.462 E2.44252
G1 X121.138 Y89.635 E2.4557
G1 X121.519 Y89.739 E2.46272
G1 X122.23 Y89.956 E2.47593
G1 X122.602 Y90.081 E2.48291
G1 X123.3 Y90.341 E2.49615
G1 X123.684 Y90.499 E2.50353
G1 X124.362 Y90.802 E2.51673
G1 X124.732 Y90.981 E2.52404
G1 X125.391 Y91.327 E2.53727
G1 X125.73 Y91.518 E2.54419
G1 X126.366 Y91.902 E2.55739
G1 X126.711 Y92.125 E2.5647
G1 X127.321 Y92.548 E2.57789
G1 X127.649 Y92.792 E2.58516
G1 X128.232 Y93.253 E2.59837
G1 X128.536 Y93.509 E2.60543
G1 X129.09 Y94.005 E2.61865
G1 X129.386 Y94.287 E2.62592
G1 X129.907 Y94.816 E2.63912
G1 X130.181 Y95.111 E2.64628
G1 X130.669 Y95.672 E2.65949
G1 X130.933 Y95.997 E2.66694
G1 X131.383 Y96.587 E2.68013
G1 X131.607 Y96.9 E2.68697
G1 X132.023 Y97.518 E2.70021
G1 X132.246 Y97.872 E2.70765
G1 X132.62 Y98.513 E2.72084
G1 X132.813 Y98.869 E2.72804
G1 X133.148 Y99.535 E2.74129
G1 X133.317 Y99.898 E2.74841
G1 X133.609 Y100.58 E2.7616
G1 X133.756 Y100.955 E2.76876
G1 X134.006 Y101.656 E2.78198
G1 X134.133 Y102.052 E2.78938
G1 X134.337 Y102.765 E2.80256
G1 X134.432 Y103.138 E2.8094
G1 X134.594 Y103.864 E2.82263
G1 X134.672 Y104.276 E2.83008
G1 X134.787 Y105.011 E2.8433
G1 X134.837 Y105.413 E2.8505
G1 X134.906 Y106.153 E2.86372
G1 X134.931 Y106.555 E2.87088
G1 X134.954 Y107.297 E2.88407
G1 X134.954 Y107.7 E2.89123
G1 X134.931 Y108.443 E2.90445
G1 X134.906 Y108.846 E2.91163
G1 X134.837 Y109.586 E2.92484
G1 X134.787 Y109.988 E2.93204
G1 X134.672 Y110.723 E2.94526
G1 X134.594 Y111.133 E2.95268
G1 X134.432 Y111.86 E2.96592
G1 X134.336 Y112.237 E2.97284
G1 X134.132 Y112.949 E2.986
G1 X134.007 Y113.34 E2.9933
G1 X133.757 Y114.042 E3.00655
G1 X133.609 Y114.42 E3.01376
G1 X133.317 Y115.102 E3.02695
G1 X133.149 Y115.462 E3.03401
G1 X132.815 Y116.127 E3.04724
G1 X132.619 Y116.488 E3.05454
G1 X132.244 Y117.13 E3.06776
G1 X132.025 Y117.48 E3.0751
G1 X131.61 Y118.097 E3.08832
G1 X131.384 Y118.412 E3.09521
G1 X130.934 Y119.002 E3.1084
G1 X130.67 Y119.327 E3.11584
G1 X130.182 Y119.888 E3.12906
G1 X129.908 Y120.183 E3.13621
G1 X129.387 Y120.712 E3.14941
G1 X129.091 Y120.994 E3.15668
G1 X128.537 Y121.49 E3.1699
G1 X128.234 Y121.746 E3.17695
G1 X127.65 Y122.208 E3.19019
G1 X127.321 Y122.452 E3.19747
G1 X126.711 Y122.875 E3.21066
G1 X126.366 Y123.098 E3.21797
G1 X125.73 Y123.482 E3.23117
G1 X125.391 Y123.673 E3.23809
G1 X124.732 Y124.019 E3.25132
G1 X124.362 Y124.198 E3.25863
G1 X123.684 Y124.501 E3.27183
G1 X123.3 Y124.659 E3.27921
G1 X122.602 Y124.919 E3.29245
G1 X122.23 Y125.044 E3.29942
G1 X121.519 Y125.261 E3.31264
G1 X121.13 Y125.367 E3.31981
G1 X120.409 Y125.539 E3.33298
G1 X119.999 Y125.623 E3.34042
G1 X119.265 Y125.749 E3.35366
G1 X118.873 Y125.804 E3.3607
G1 X118.134 Y125.885 E3.37391
G1 X117.731 Y125.917 E3.3811
G1 X116.988 Y125.952 E3.39432
G1 X116.577 Y125.958 E3.40163
G1 X115.836 Y125.946 E3.4148
G1 X115.433 Y125.927 E3.42197
G1 X114.692 Y125.869 E3.43518
G1 X114.298 Y125.826 E3.44223
G1 X113.562 Y125.723 E3.45544
G1 X113.154 Y125.653 E3.4628
G1 X112.424 Y125.503 E3.47605
G1 X112.034 Y125.41 E3.48317
G1 X111.317 Y125.216 E3.49638
G1 X110.929 Y125.098 E3.50359
G1 X110.226 Y124.86 E3.51678
G1 X109.841 Y124.716 E3.52409
G1 X109.152 Y124.433 E3.53733
G1 X108.795 Y124.273 E3.54428
G1 X108.126 Y123.95 E3.55749
G1 X107.754 Y123.756 E3.56494
G1 X107.108 Y123.391 E3.57813
G1 X106.764 Y123.182 E3.58529
G1 X106.139 Y122.776 E3.59854
G1 X105.817 Y122.553 E3.6055
G1 X105.22 Y122.112 E3.61869
G1 X104.895 Y121.856 E3.62605
G1 X104.326 Y121.377 E3.63927
G1 X104.018 Y121.1 E3.64663
G1 X103.482 Y120.587 E3.65982
G1 X103.204 Y120.305 E3.66686
G1 X102.698 Y119.758 E3.68011
G1 X102.437 Y119.458 E3.68717
G1 X101.966 Y118.882 E3.7004
G1 X101.715 Y118.554 E3.70774
G1 X101.282 Y117.95 E3.72095
G1 X101.056 Y117.613 E3.72817
G1 X100.662 Y116.984 E3.74136
G1 X100.461 Y116.64 E3.74844
G1 X100.105 Y115.986 E3.76168
G1 X99.917 Y115.612 E3.76912
G1 X99.606 Y114.941 E3.78226
G1 X99.451 Y114.579 E3.78926
G1 X99.179 Y113.885 E3.80252
G1 X99.044 Y113.507 E3.80965
G1 X98.816 Y112.8 E3.82285
G1 X98.702 Y112.404 E3.83018
G1 X98.519 Y111.683 E3.8434
G1 X98.432 Y111.289 E3.85058
G1 X98.294 Y110.558 E3.8638
G1 X98.231 Y110.156 E3.87103
G1 X98.139 Y109.419 E3.88423
G1 X98.102 Y109.017 E3.89141
G1 X98.056 Y108.277 E3.90459
G1 X98.043 Y107.873 E3.91178
G1 X98.043 Y107.128 E3.92502
G1 X98.056 Y106.725 E3.93219
G1 X98.102 Y105.984 E3.94538
G1 X98.139 Y105.581 E3.95258
G1 X98.231 Y104.844 E3.96578
G1 X98.292 Y104.451 E3.97285
G1 X98.429 Y103.72 E3.98607
G1 X98.52 Y103.309 E3.99355
G1 X98.704 Y102.588 E4.00678
G1 X98.816 Y102.2 E4.01396
G1 X99.044 Y101.493 E4.02716
G1 X99.179 Y101.115 E4.0343
G1 X99.451 Y100.421 E4.04755
G1 X99.609 Y100.052 E4.05468
G1 X99.921 Y99.381 E4.06784
G1 X100.103 Y99.02 E4.07503
G1 X100.458 Y98.366 E4.08825
G1 X100.662 Y98.016 E4.09545
G1 X101.056 Y97.387 E4.10865
G1 X101.282 Y97.05 E4.11586
G1 X101.715 Y96.446 E4.12907
G1 X101.966 Y96.118 E4.13641
G1 X102.437 Y95.542 E4.14964
G1 X102.694 Y95.247 E4.15659
G1 X103.199 Y94.7 E4.16983
M204 S625
M205 X6 Y6
G0 F4285.7 X103.507 Y94.985
M204 S500
M205 X5 Y5
G1 F1200 X103.775 Y94.712 E4.17663
G1 X104.312 Y94.199 E4.18983
G1 X104.597 Y93.944 E4.19663
G1 X105.166 Y93.465 E4.20985
G1 X105.47 Y93.226 E4.21672
G1 X106.067 Y92.785 E4.22992
G1 X106.367 Y92.576 E4.23642
G1 X106.992 Y92.17 E4.24966
G1 X107.314 Y91.975 E4.25636
G1 X107.96 Y91.61 E4.26955
G1 X108.308 Y91.428 E4.27653
G1 X108.977 Y91.105 E4.28973
G1 X109.304 Y90.959 E4.2961
G1 X109.993 Y90.675 E4.30935
G1 X110.368 Y90.534 E4.31647
G1 X111.071 Y90.297 E4.32965
G1 X111.434 Y90.187 E4.3364
G1 X112.151 Y89.994 E4.3496
G1 X112.5 Y89.911 E4.35597
G1 X113.23 Y89.76 E4.36922
G1 X113.62 Y89.693 E4.37626
G1 X114.356 Y89.59 E4.38947
G1 X114.725 Y89.55 E4.39607
G1 X115.466 Y89.492 E4.40928
G1 X115.842 Y89.474 E4.41597
G1 X116.583 Y89.462 E4.42914
G1 X116.969 Y89.468 E4.43601
G1 X117.712 Y89.503 E4.44923
G1 X118.089 Y89.532 E4.45595
G1 X118.828 Y89.613 E4.46916
G1 X119.186 Y89.663 E4.47559
G1 X119.92 Y89.788 E4.48883
G1 X120.319 Y89.87 E4.49607
G1 X121.04 Y90.043 E4.50925
G1 X121.397 Y90.14 E4.51582
G1 X122.108 Y90.357 E4.52904
G1 X122.456 Y90.475 E4.53557
G1 X123.154 Y90.735 E4.54881
G1 X123.513 Y90.882 E4.55571
G1 X124.191 Y91.185 E4.56891
G1 X124.537 Y91.353 E4.57574
G1 X125.196 Y91.699 E4.58897
G1 X125.513 Y91.878 E4.59545
G1 X126.149 Y92.262 E4.60865
G1 X126.471 Y92.471 E4.61548
G1 X127.081 Y92.894 E4.62867
G1 X127.388 Y93.121 E4.63546
G1 X127.971 Y93.582 E4.64867
G1 X128.256 Y93.822 E4.65529
G1 X128.81 Y94.318 E4.66851
G1 X129.087 Y94.582 E4.67531
G1 X129.608 Y95.111 E4.68851
G1 X129.864 Y95.387 E4.6952
G1 X130.352 Y95.948 E4.70842
G1 X130.599 Y96.252 E4.71538
G1 X131.049 Y96.842 E4.72857
G1 X131.259 Y97.134 E4.73497
G1 X131.675 Y97.752 E4.74821
G1 X131.883 Y98.084 E4.75517
G1 X132.257 Y98.725 E4.76837
G1 X132.438 Y99.057 E4.77509
G1 X132.773 Y99.723 E4.78834
G1 X132.93 Y100.063 E4.795
G1 X133.222 Y100.745 E4.80818
G1 X133.36 Y101.096 E4.81489
G1 X133.61 Y101.797 E4.82812
G1 X133.729 Y102.168 E4.83504
G1 X133.933 Y102.881 E4.84823
G1 X134.022 Y103.23 E4.85463
G1 X134.184 Y103.956 E4.86785
G1 X134.257 Y104.341 E4.87482
G1 X134.372 Y105.076 E4.88804
G1 X134.419 Y105.452 E4.89478
G1 X134.488 Y106.192 E4.90799
G1 X134.511 Y106.568 E4.91469
G1 X134.534 Y107.31 E4.92788
G1 X134.534 Y107.687 E4.93458
G1 X134.511 Y108.43 E4.9478
G1 X134.488 Y108.807 E4.95451
G1 X134.419 Y109.547 E4.96772
G1 X134.372 Y109.923 E4.97446
G1 X134.257 Y110.658 E4.98768
G1 X134.184 Y111.042 E4.99463
G1 X134.022 Y111.769 E5.00787
G1 X133.932 Y112.121 E5.01433
G1 X133.728 Y112.833 E5.0275
G1 X133.611 Y113.199 E5.03433
G1 X133.361 Y113.901 E5.04757
G1 X133.222 Y114.255 E5.05433
G1 X132.93 Y114.937 E5.06752
G1 X132.774 Y115.273 E5.07411
G1 X132.44 Y115.938 E5.08733
G1 X132.257 Y116.277 E5.09418
G1 X131.882 Y116.919 E5.1074
G1 X131.676 Y117.246 E5.11427
G1 X131.261 Y117.863 E5.12749
G1 X131.05 Y118.157 E5.13392
G1 X130.6 Y118.747 E5.14711
G1 X130.353 Y119.051 E5.15407
G1 X129.865 Y119.612 E5.16729
G1 X129.609 Y119.888 E5.17398
G1 X129.088 Y120.417 E5.18718
G1 X128.811 Y120.681 E5.19398
G1 X128.257 Y121.177 E5.2072
G1 X127.973 Y121.416 E5.2138
G1 X127.389 Y121.878 E5.22703
G1 X127.081 Y122.106 E5.23385
G1 X126.471 Y122.529 E5.24704
G1 X126.149 Y122.738 E5.25387
G1 X125.513 Y123.122 E5.26707
G1 X125.196 Y123.301 E5.27354
G1 X124.537 Y123.647 E5.28677
G1 X124.191 Y123.815 E5.29361
G1 X123.513 Y124.118 E5.30681
G1 X123.154 Y124.265 E5.31371
G1 X122.456 Y124.525 E5.32695
G1 X122.108 Y124.643 E5.33348
G1 X121.397 Y124.86 E5.34669
G1 X121.032 Y124.959 E5.35342
G1 X120.311 Y125.131 E5.36659
G1 X119.928 Y125.209 E5.37354
G1 X119.194 Y125.335 E5.38678
G1 X118.828 Y125.387 E5.39335
G1 X118.089 Y125.468 E5.40657
G1 X117.712 Y125.497 E5.41329
G1 X116.969 Y125.532 E5.42651
G1 X116.583 Y125.538 E5.43337
G1 X115.842 Y125.526 E5.44655
G1 X115.466 Y125.508 E5.45324
G1 X114.725 Y125.45 E5.46645
G1 X114.356 Y125.41 E5.47305
G1 X113.62 Y125.307 E5.48626
G1 X113.238 Y125.241 E5.49315
G1 X112.508 Y125.091 E5.5064
G1 X112.143 Y125.005 E5.51306
G1 X111.426 Y124.811 E5.52627
G1 X111.064 Y124.7 E5.533
G1 X110.361 Y124.462 E5.54619
G1 X110 Y124.327 E5.55304
G1 X109.311 Y124.044 E5.56628
G1 X108.977 Y123.895 E5.57278
G1 X108.308 Y123.572 E5.58599
G1 X107.96 Y123.39 E5.59297
G1 X107.314 Y123.025 E5.60616
G1 X106.992 Y122.83 E5.61285
G1 X106.367 Y122.424 E5.6261
G1 X106.067 Y122.215 E5.6326
G1 X105.47 Y121.774 E5.64579
G1 X105.166 Y121.535 E5.65267
G1 X104.597 Y121.056 E5.66589
G1 X104.308 Y120.797 E5.67279
G1 X103.772 Y120.284 E5.68597
G1 X103.512 Y120.019 E5.69257
G1 X103.006 Y119.472 E5.70582
G1 X102.763 Y119.192 E5.71241
G1 X102.292 Y118.616 E5.72564
G1 X102.056 Y118.309 E5.73252
G1 X101.623 Y117.705 E5.74573
G1 X101.412 Y117.39 E5.75247
G1 X101.018 Y116.761 E5.76566
G1 X100.83 Y116.44 E5.77228
G1 X100.474 Y115.786 E5.78551
G1 X100.298 Y115.435 E5.79249
G1 X99.987 Y114.764 E5.80564
G1 X99.842 Y114.425 E5.81219
G1 X99.57 Y113.731 E5.82544
G1 X99.444 Y113.378 E5.8321
G1 X99.216 Y112.671 E5.84531
G1 X99.109 Y112.3 E5.85217
G1 X98.926 Y111.579 E5.8654
G1 X98.845 Y111.211 E5.87209
G1 X98.707 Y110.48 E5.88532
G1 X98.648 Y110.104 E5.89208
G1 X98.556 Y109.367 E5.90529
G1 X98.521 Y108.991 E5.912
G1 X98.475 Y108.251 E5.92518
G1 X98.463 Y107.873 E5.9319
G1 X98.463 Y107.128 E5.94514
G1 X98.475 Y106.751 E5.95185
G1 X98.521 Y106.01 E5.96505
G1 X98.556 Y105.633 E5.97178
G1 X98.648 Y104.896 E5.98498
G1 X98.705 Y104.528 E5.9916
G1 X98.842 Y103.797 E6.00482
G1 X98.927 Y103.413 E6.01181
G1 X99.111 Y102.692 E6.02504
G1 X99.216 Y102.329 E6.03176
G1 X99.444 Y101.622 E6.04496
G1 X99.57 Y101.269 E6.05162
G1 X99.842 Y100.575 E6.06487
G1 X99.99 Y100.229 E6.07156
G1 X100.302 Y99.558 E6.08472
G1 X100.472 Y99.221 E6.09143
G1 X100.827 Y98.567 E6.10465
G1 X101.018 Y98.239 E6.1114
G1 X101.412 Y97.61 E6.12459
G1 X101.623 Y97.295 E6.13133
G1 X102.056 Y96.691 E6.14454
G1 X102.292 Y96.384 E6.15143
G1 X102.763 Y95.808 E6.16465
G1 X103.002 Y95.532 E6.17114
G1 X103.507 Y94.985 E6.18438
M204 S625
M205 X6 Y6
G0 F4285.7 X103.816 Y95.27
M204 S500
M205 X5 Y5
G1 F1200 X104.065 Y95.016 E6.1907
G1 X104.602 Y94.503 E6.2039
G1 X104.867 Y94.265 E6.21023
G1 X105.436 Y93.786 E6.22346
G1 X105.719 Y93.563 E6.22986
G1 X106.316 Y93.122 E6.24305
G1 X106.596 Y92.928 E6.24911
G1 X107.221 Y92.522 E6.26236
G1 X107.521 Y92.34 E6.26859
G1 X108.167 Y91.975 E6.28178
G1 X108.491 Y91.806 E6.28828
G1 X109.16 Y91.483 E6.30149
G1 X109.464 Y91.347 E6.30741
G1 X110.153 Y91.063 E6.32065
G1 X110.503 Y90.932 E6.3273
G1 X111.206 Y90.695 E6.34048
G1 X111.543 Y90.593 E6.34674
G1 X112.26 Y90.4 E6.35994
G1 X112.585 Y90.323 E6.36588
G1 X113.315 Y90.172 E6.37913
G1 X113.678 Y90.109 E6.38568
G1 X114.414 Y90.006 E6.39889
G1 X114.758 Y89.968 E6.40504
G1 X115.499 Y89.91 E6.41825
G1 X115.849 Y89.894 E6.42448
G1 X116.59 Y89.882 E6.43766
G1 X116.949 Y89.887 E6.44404
G1 X117.692 Y89.922 E6.45726
G1 X118.043 Y89.95 E6.46352
G1 X118.782 Y90.031 E6.47673
G1 X119.116 Y90.077 E6.48273
G1 X119.85 Y90.202 E6.49596
G1 X120.221 Y90.278 E6.50269
G1 X120.942 Y90.451 E6.51588
G1 X121.274 Y90.542 E6.52199
G1 X121.985 Y90.759 E6.53521
G1 X122.309 Y90.869 E6.54129
G1 X123.007 Y91.129 E6.55453
G1 X123.341 Y91.265 E6.56094
G1 X124.019 Y91.568 E6.57414
G1 X124.342 Y91.725 E6.58053
G1 X125.001 Y92.071 E6.59376
G1 X125.296 Y92.237 E6.59977
G1 X125.932 Y92.621 E6.61298
G1 X126.232 Y92.816 E6.61934
G1 X126.842 Y93.239 E6.63254
G1 X127.128 Y93.45 E6.63885
G1 X127.711 Y93.911 E6.65207
G1 X127.976 Y94.135 E6.65823
G1 X128.53 Y94.631 E6.67145
G1 X128.788 Y94.876 E6.67778
G1 X129.309 Y95.405 E6.69098
G1 X129.547 Y95.663 E6.69722
G1 X130.035 Y96.224 E6.71043
G1 X130.265 Y96.506 E6.7169
G1 X130.715 Y97.096 E6.73009
G1 X130.911 Y97.369 E6.73607
G1 X131.327 Y97.987 E6.74931
G1 X131.52 Y98.296 E6.75578
G1 X131.894 Y98.937 E6.76898
G1 X132.062 Y99.246 E6.77523
G1 X132.397 Y99.912 E6.78848
G1 X132.544 Y100.228 E6.79468
G1 X132.836 Y100.91 E6.80786
G1 X132.965 Y101.237 E6.81411
G1 X133.215 Y101.938 E6.82734
G1 X133.325 Y102.283 E6.83378
G1 X133.529 Y102.996 E6.84696
G1 X133.612 Y103.321 E6.85292
G1 X133.774 Y104.047 E6.86615
G1 X133.842 Y104.406 E6.87264
G1 X133.957 Y105.141 E6.88587
G1 X134.001 Y105.491 E6.89214
G1 X134.07 Y106.231 E6.90535
G1 X134.091 Y106.581 E6.91158
G1 X134.114 Y107.323 E6.92478
G1 X134.114 Y107.674 E6.93102
G1 X134.091 Y108.417 E6.94423
G1 X134.07 Y108.768 E6.95048
G1 X134.001 Y109.508 E6.96369
G1 X133.957 Y109.858 E6.96996
G1 X133.842 Y110.593 E6.98319
G1 X133.774 Y110.95 E6.98965
G1 X133.612 Y111.677 E7.00289
G1 X133.529 Y112.006 E7.00892
G1 X133.325 Y112.718 E7.02208
G1 X133.215 Y113.058 E7.02844
G1 X132.965 Y113.76 E7.04168
G1 X132.836 Y114.09 E7.04798
G1 X132.544 Y114.772 E7.06117
G1 X132.399 Y115.085 E7.0673
G1 X132.065 Y115.75 E7.08053
G1 X131.894 Y116.065 E7.0869
G1 X131.519 Y116.707 E7.10012
G1 X131.328 Y117.011 E7.1065
G1 X130.913 Y117.628 E7.11972
G1 X130.716 Y117.903 E7.12573
G1 X130.266 Y118.493 E7.13892
G1 X130.036 Y118.775 E7.14539
G1 X129.548 Y119.336 E7.15861
G1 X129.31 Y119.594 E7.16485
G1 X128.789 Y120.123 E7.17804
G1 X128.531 Y120.368 E7.18437
G1 X127.977 Y120.864 E7.19759
G1 X127.713 Y121.087 E7.20373
G1 X127.129 Y121.549 E7.21697
G1 X126.842 Y121.761 E7.22331
G1 X126.232 Y122.184 E7.2365
G1 X125.932 Y122.379 E7.24287
G1 X125.296 Y122.763 E7.25607
G1 X125.001 Y122.929 E7.26209
G1 X124.342 Y123.275 E7.27532
G1 X124.019 Y123.432 E7.2817
G1 X123.341 Y123.735 E7.2949
G1 X123.007 Y123.871 E7.30131
G1 X122.309 Y124.131 E7.31456
G1 X121.985 Y124.241 E7.32064
G1 X121.274 Y124.458 E7.33385
G1 X120.935 Y124.55 E7.3401
G1 X120.214 Y124.722 E7.35327
G1 X119.857 Y124.795 E7.35975
G1 X119.123 Y124.921 E7.37299
G1 X118.782 Y124.969 E7.37911
G1 X118.043 Y125.05 E7.39232
G1 X117.692 Y125.078 E7.39858
G1 X116.949 Y125.113 E7.41181
G1 X116.59 Y125.118 E7.41819
G1 X115.849 Y125.106 E7.43136
G1 X115.499 Y125.09 E7.43759
G1 X114.758 Y125.032 E7.4508
G1 X114.414 Y124.994 E7.45695
G1 X113.678 Y124.891 E7.47016
G1 X113.323 Y124.83 E7.47657
G1 X112.593 Y124.68 E7.48982
G1 X112.253 Y124.599 E7.49603
G1 X111.536 Y124.405 E7.50923
G1 X111.199 Y124.303 E7.51549
G1 X110.496 Y124.065 E7.52868
G1 X110.16 Y123.939 E7.53506
G1 X109.471 Y123.656 E7.5483
G1 X109.16 Y123.517 E7.55436
G1 X108.491 Y123.194 E7.56756
G1 X108.167 Y123.025 E7.57406
G1 X107.521 Y122.66 E7.58725
G1 X107.221 Y122.478 E7.59349
G1 X106.596 Y122.072 E7.60674
G1 X106.316 Y121.878 E7.61279
G1 X105.719 Y121.437 E7.62598
G1 X105.436 Y121.214 E7.63239
G1 X104.867 Y120.735 E7.64561
G1 X104.599 Y120.493 E7.65203
G1 X104.063 Y119.98 E7.66522
G1 X103.821 Y119.734 E7.67135
G1 X103.315 Y119.187 E7.6846
G1 X103.088 Y118.926 E7.69075
G1 X102.617 Y118.35 E7.70397
G1 X102.398 Y118.065 E7.71036
G1 X101.965 Y117.461 E7.72357
G1 X101.768 Y117.167 E7.72986
G1 X101.374 Y116.538 E7.74306
G1 X101.199 Y116.239 E7.74922
G1 X100.843 Y115.585 E7.76245
G1 X100.679 Y115.258 E7.76895
G1 X100.368 Y114.587 E7.7821
G1 X100.233 Y114.272 E7.78819
G1 X99.961 Y113.578 E7.80144
G1 X99.844 Y113.249 E7.80765
G1 X99.616 Y112.542 E7.82086
G1 X99.516 Y112.197 E7.82724
G1 X99.333 Y111.476 E7.84046
G1 X99.257 Y111.133 E7.84671
G1 X99.119 Y110.402 E7.85993
G1 X99.065 Y110.052 E7.86623
G1 X98.973 Y109.315 E7.87943
G1 X98.94 Y108.965 E7.88568
G1 X98.894 Y108.225 E7.89886
G1 X98.883 Y107.873 E7.90512
G1 X98.883 Y107.128 E7.91836
G1 X98.894 Y106.777 E7.9246
G1 X98.94 Y106.036 E7.9378
G1 X98.973 Y105.685 E7.94407
G1 X99.065 Y104.948 E7.95727
G1 X99.118 Y104.606 E7.96342
G1 X99.255 Y103.875 E7.97664
G1 X99.334 Y103.517 E7.98316
G1 X99.518 Y102.796 E7.99639
G1 X99.616 Y102.458 E8.00264
G1 X99.844 Y101.751 E8.01585
G1 X99.961 Y101.422 E8.02206
G1 X100.233 Y100.728 E8.03531
G1 X100.371 Y100.406 E8.04153
G1 X100.683 Y99.735 E8.05469
G1 X100.841 Y99.421 E8.06094
G1 X101.196 Y98.767 E8.07416
G1 X101.374 Y98.462 E8.08044
G1 X101.768 Y97.833 E8.09363
G1 X101.965 Y97.539 E8.09993
G1 X102.398 Y96.935 E8.11314
G1 X102.617 Y96.65 E8.11952
G1 X103.088 Y96.074 E8.13275
G1 X103.311 Y95.817 E8.1388
G1 X103.816 Y95.27 E8.15203
M204 S625
M205 X6 Y6
G0 F4285.7 X104.125 Y95.555
M204 S500
M205 X5 Y5
G1 F1200 X104.355 Y95.32 E8.15788
G1 X104.892 Y94.807 E8.17108
G1 X105.138 Y94.587 E8.17695
G1 X105.707 Y94.108 E8.19017
G1 X105.969 Y93.901 E8.1961
G1 X106.566 Y93.46 E8.2093
G1 X106.825 Y93.28 E8.2149
G1 X107.45 Y92.874 E8.22815
G1 X107.727 Y92.706 E8.23391
G1 X108.373 Y92.341 E8.2471
G1 X108.673 Y92.184 E8.25312
G1 X109.342 Y91.861 E8.26632
G1 X109.624 Y91.735 E8.27182
G1 X110.313 Y91.451 E8.28506
G1 X110.637 Y91.33 E8.29121
G1 X111.34 Y91.093 E8.3044
G1 X111.652 Y90.998 E8.3102
G1 X112.369 Y90.805 E8.32339
G1 X112.671 Y90.734 E8.32891
G1 X113.401 Y90.583 E8.34216
G1 X113.736 Y90.525 E8.3482
G1 X114.472 Y90.422 E8.36141
G1 X114.79 Y90.387 E8.3671
G1 X115.531 Y90.329 E8.38031
G1 X115.856 Y90.314 E8.3861
G1 X116.597 Y90.302 E8.39927
G1 X116.929 Y90.307 E8.40517
G1 X117.672 Y90.342 E8.4184
G1 X117.997 Y90.367 E8.42419
G1 X118.736 Y90.448 E8.4374
G1 X119.045 Y90.492 E8.44295
G1 X119.779 Y90.617 E8.45619
G1 X120.123 Y90.687 E8.46243
G1 X120.844 Y90.86 E8.47561
G1 X121.152 Y90.944 E8.48128
G1 X121.863 Y91.161 E8.4945
G1 X122.163 Y91.262 E8.50012
G1 X122.861 Y91.522 E8.51337
G1 X123.17 Y91.649 E8.5193
G1 X123.848 Y91.952 E8.5325
G1 X124.147 Y92.097 E8.53841
G1 X124.806 Y92.443 E8.55164
G1 X125.079 Y92.597 E8.55721
G1 X125.715 Y92.981 E8.57042
G1 X125.993 Y93.161 E8.57631
G1 X126.603 Y93.584 E8.5895
G1 X126.867 Y93.78 E8.59535
G1 X127.45 Y94.241 E8.60856
G1 X127.696 Y94.448 E8.61428
G1 X128.25 Y94.944 E8.62749
G1 X128.488 Y95.171 E8.63334
G1 X129.009 Y95.7 E8.64654
G1 X129.23 Y95.938 E8.65231
G1 X129.718 Y96.499 E8.66553
G1 X129.931 Y96.761 E8.67153
G1 X130.381 Y97.351 E8.68472
G1 X130.562 Y97.603 E8.69024
G1 X130.978 Y98.221 E8.70348
G1 X131.158 Y98.507 E8.70949
G1 X131.532 Y99.148 E8.72268
G1 X131.687 Y99.435 E8.72848
G1 X132.022 Y100.101 E8.74173
G1 X132.158 Y100.394 E8.74747
G1 X132.45 Y101.076 E8.76066
G1 X132.569 Y101.378 E8.76643
G1 X132.819 Y102.079 E8.77966
G1 X132.921 Y102.399 E8.78563
G1 X133.125 Y103.112 E8.79881
G1 X133.202 Y103.413 E8.80433
G1 X133.364 Y104.139 E8.81756
G1 X133.427 Y104.47 E8.82355
G1 X133.542 Y105.205 E8.83677
G1 X133.582 Y105.53 E8.84259
G1 X133.651 Y106.27 E8.8558
G1 X133.671 Y106.594 E8.86157
G1 X133.694 Y107.336 E8.87477
G1 X133.694 Y107.661 E8.88055
G1 X133.671 Y108.404 E8.89376
G1 X133.651 Y108.729 E8.89955
G1 X133.582 Y109.469 E8.91276
G1 X133.542 Y109.794 E8.91858
G1 X133.427 Y110.529 E8.9318
G1 X133.364 Y110.859 E8.93778
G1 X133.202 Y111.586 E8.95102
G1 X133.125 Y111.89 E8.95659
G1 X132.921 Y112.602 E8.96976
G1 X132.82 Y112.917 E8.97564
G1 X132.57 Y113.619 E8.98888
G1 X132.45 Y113.924 E8.99471
G1 X132.158 Y114.606 E9.0079
G1 X132.024 Y114.896 E9.01358
G1 X131.69 Y115.561 E9.0268
G1 X131.531 Y115.853 E9.03271
G1 X131.156 Y116.495 E9.04593
G1 X130.979 Y116.777 E9.05185
G1 X130.564 Y117.394 E9.06507
G1 X130.382 Y117.648 E9.07062
G1 X129.932 Y118.238 E9.08381
G1 X129.719 Y118.5 E9.08981
G1 X129.231 Y119.061 E9.10303
G1 X129.01 Y119.299 E9.10881
G1 X128.489 Y119.828 E9.122
G1 X128.251 Y120.055 E9.12785
G1 X127.697 Y120.551 E9.14107
G1 X127.452 Y120.757 E9.14676
G1 X126.868 Y121.219 E9.15999
G1 X126.603 Y121.416 E9.16586
G1 X125.993 Y121.839 E9.17906
G1 X125.715 Y122.019 E9.18495
G1 X125.079 Y122.403 E9.19815
G1 X124.806 Y122.557 E9.20373
G1 X124.147 Y122.903 E9.21696
G1 X123.848 Y123.048 E9.22286
G1 X123.17 Y123.351 E9.23606
G1 X122.861 Y123.478 E9.242
G1 X122.163 Y123.738 E9.25524
G1 X121.863 Y123.839 E9.26087
G1 X121.152 Y124.056 E9.27408
G1 X120.837 Y124.142 E9.27989
G1 X120.116 Y124.314 E9.29306
G1 X119.786 Y124.381 E9.29905
G1 X119.052 Y124.507 E9.31229
G1 X118.736 Y124.552 E9.31796
G1 X117.997 Y124.633 E9.33118
G1 X117.672 Y124.658 E9.33697
G1 X116.929 Y124.693 E9.35019
G1 X116.597 Y124.698 E9.3561
G1 X115.856 Y124.686 E9.36927
G1 X115.531 Y124.671 E9.37505
G1 X114.79 Y124.613 E9.38827
G1 X114.472 Y124.578 E9.39395
G1 X113.736 Y124.475 E9.40716
G1 X113.407 Y124.419 E9.4131
G1 X112.677 Y124.269 E9.42634
G1 X112.363 Y124.194 E9.43208
G1 X111.646 Y124 E9.44529
G1 X111.333 Y123.905 E9.4511
G1 X110.63 Y123.667 E9.46429
G1 X110.319 Y123.55 E9.4702
G1 X109.63 Y123.267 E9.48344
G1 X109.342 Y123.139 E9.48904
G1 X108.673 Y122.816 E9.50225
G1 X108.373 Y122.659 E9.50827
G1 X107.727 Y122.294 E9.52146
G1 X107.45 Y122.126 E9.52722
G1 X106.825 Y121.72 E9.54046
G1 X106.566 Y121.54 E9.54607
G1 X105.969 Y121.099 E9.55926
G1 X105.707 Y120.892 E9.5652
G1 X105.138 Y120.413 E9.57842
G1 X104.889 Y120.19 E9.58436
G1 X104.353 Y119.677 E9.59755
G1 X104.129 Y119.449 E9.60323
G1 X103.623 Y118.902 E9.61648
G1 X103.413 Y118.66 E9.62217
G1 X102.942 Y118.084 E9.6354
G1 X102.739 Y117.82 E9.64132
G1 X102.306 Y117.216 E9.65453
G1 X102.124 Y116.944 E9.66035
G1 X101.73 Y116.315 E9.67354
G1 X101.568 Y116.038 E9.67925
G1 X101.212 Y115.384 E9.69248
G1 X101.06 Y115.082 E9.69849
G1 X100.749 Y114.411 E9.71164
G1 X100.624 Y114.119 E9.71729
G1 X100.352 Y113.425 E9.73054
G1 X100.243 Y113.12 E9.73629
G1 X100.015 Y112.413 E9.7495
G1 X99.923 Y112.094 E9.7554
G1 X99.74 Y111.373 E9.76862
G1 X99.67 Y111.055 E9.77441
G1 X99.532 Y110.324 E9.78763
G1 X99.481 Y110 E9.79347
G1 X99.389 Y109.263 E9.80667
G1 X99.359 Y108.939 E9.81245
G1 X99.313 Y108.199 E9.82563
G1 X99.303 Y107.873 E9.83143
G1 X99.303 Y107.128 E9.84467
G1 X99.313 Y106.803 E9.85045
G1 X99.359 Y106.062 E9.86365
G1 X99.389 Y105.737 E9.86945
G1 X99.481 Y105 E9.88265
G1 X99.531 Y104.683 E9.88836
G1 X99.668 Y103.952 E9.90158
G1 X99.741 Y103.621 E9.9076
G1 X99.925 Y102.9 E9.92083
G1 X100.015 Y102.587 E9.92662
G1 X100.243 Y101.88 E9.93983
G1 X100.352 Y101.575 E9.94558
G1 X100.624 Y100.881 E9.95883
G1 X100.751 Y100.583 E9.96459
G1 X101.063 Y99.912 E9.97775
G1 X101.21 Y99.621 E9.98354
G1 X101.565 Y98.967 E9.99677
G1 X101.73 Y98.685 E10.00258
G1 X102.124 Y98.056 E10.01577
G1 X102.306 Y97.784 E10.02159
G1 X102.739 Y97.18 E10.0348
G1 X102.942 Y96.916 E10.04072
G1 X103.413 Y96.34 E10.05394
G1 X103.62 Y96.102 E10.05955
G1 X104.125 Y95.555 E10.07279
M204 S625
M205 X6 Y6
G0 F4285.7 X104.433 Y95.84
M204 S500
M205 X5 Y5
G1 F1200 X104.646 Y95.624 E10.07818
G1 X105.183 Y95.111 E10.09138
G1 X105.408 Y94.908 E10.09677
G1 X105.977 Y94.429 E10.10999
G1 X106.218 Y94.239 E10.11544
G1 X106.815 Y93.798 E10.12864
G1 X107.054 Y93.633 E10.1338
G1 X107.679 Y93.227 E10.14705
G1 X107.934 Y93.072 E10.15235
G1 X108.58 Y92.707 E10.16554
G1 X108.856 Y92.562 E10.17108
G1 X109.525 Y92.239 E10.18429
G1 X109.784 Y92.123 E10.18933
G1 X110.473 Y91.839 E10.20258
G1 X110.771 Y91.728 E10.20823
G1 X111.474 Y91.491 E10.22142
G1 X111.762 Y91.404 E10.22677
G1 X112.479 Y91.211 E10.23997
G1 X112.756 Y91.145 E10.24503
G1 X113.486 Y90.994 E10.25828
G1 X113.795 Y90.941 E10.26385
G1 X114.531 Y90.838 E10.27706
G1 X114.823 Y90.806 E10.28229
G1 X115.564 Y90.748 E10.2955
G1 X115.863 Y90.734 E10.30082
G1 X116.604 Y90.722 E10.31399
G1 X116.909 Y90.726 E10.31942
G1 X117.652 Y90.761 E10.33264
G1 X117.951 Y90.785 E10.33797
G1 X118.69 Y90.866 E10.35118
G1 X118.975 Y90.906 E10.3563
G1 X119.709 Y91.031 E10.36954
G1 X120.025 Y91.095 E10.37527
G1 X120.746 Y91.268 E10.38845
G1 X121.029 Y91.345 E10.39366
G1 X121.74 Y91.562 E10.40688
G1 X122.016 Y91.656 E10.41206
G1 X122.714 Y91.916 E10.4253
G1 X122.999 Y92.032 E10.43077
G1 X123.677 Y92.335 E10.44397
G1 X123.951 Y92.469 E10.44939
G1 X124.61 Y92.815 E10.46262
G1 X124.861 Y92.956 E10.46774
G1 X125.497 Y93.34 E10.48095
G1 X125.753 Y93.506 E10.48637
G1 X126.363 Y93.929 E10.49956
G1 X126.607 Y94.109 E10.50495
G1 X127.19 Y94.57 E10.51817
G1 X127.416 Y94.761 E10.52343
G1 X127.97 Y95.257 E10.53664
G1 X128.189 Y95.466 E10.54203
G1 X128.71 Y95.995 E10.55522
G1 X128.913 Y96.214 E10.56053
G1 X129.401 Y96.775 E10.57375
G1 X129.597 Y97.016 E10.57927
G1 X130.047 Y97.606 E10.59246
G1 X130.214 Y97.838 E10.59754
G1 X130.63 Y98.456 E10.61079
G1 X130.795 Y98.719 E10.6163
G1 X131.169 Y99.36 E10.6295
G1 X131.312 Y99.624 E10.63483
G1 X131.647 Y100.29 E10.64809
G1 X131.772 Y100.559 E10.65336
G1 X132.064 Y101.241 E10.66655
G1 X132.173 Y101.52 E10.67187
G1 X132.423 Y102.221 E10.6851
G1 X132.518 Y102.514 E10.69058
G1 X132.722 Y103.227 E10.70376
G1 X132.792 Y103.504 E10.70884
G1 X132.954 Y104.23 E10.72206
G1 X133.012 Y104.535 E10.72758
G1 X133.127 Y105.27 E10.7408
G1 X133.164 Y105.569 E10.74616
G1 X133.233 Y106.309 E10.75937
G1 X133.252 Y106.607 E10.76468
G1 X133.275 Y107.349 E10.77787
G1 X133.275 Y107.648 E10.78319
G1 X133.252 Y108.391 E10.7964
G1 X133.233 Y108.69 E10.80173
G1 X133.164 Y109.43 E10.81494
G1 X133.127 Y109.729 E10.8203
G1 X133.012 Y110.464 E10.83352
G1 X132.954 Y110.768 E10.83902
G1 X132.792 Y111.495 E10.85226
G1 X132.721 Y111.774 E10.85738
G1 X132.517 Y112.486 E10.87054
G1 X132.424 Y112.776 E10.87596
G1 X132.174 Y113.478 E10.8892
G1 X132.064 Y113.759 E10.89457
G1 X131.772 Y114.441 E10.90776
G1 X131.648 Y114.708 E10.91299
G1 X131.314 Y115.373 E10.92622
G1 X131.169 Y115.641 E10.93163
G1 X130.794 Y116.283 E10.94485
G1 X130.631 Y116.543 E10.95031
G1 X130.216 Y117.16 E10.96352
G1 X130.048 Y117.393 E10.96863
G1 X129.598 Y117.983 E10.98182
G1 X129.402 Y118.224 E10.98734
G1 X128.914 Y118.785 E11.00056
G1 X128.711 Y119.004 E11.00587
G1 X128.19 Y119.533 E11.01907
G1 X127.971 Y119.742 E11.02445
G1 X127.417 Y120.238 E11.03767
G1 X127.192 Y120.428 E11.0429
G1 X126.608 Y120.89 E11.05614
G1 X126.363 Y121.071 E11.06155
G1 X125.753 Y121.494 E11.07475
G1 X125.497 Y121.66 E11.08017
G1 X124.861 Y122.044 E11.09338
G1 X124.61 Y122.185 E11.09849
G1 X123.951 Y122.531 E11.11173
G1 X123.677 Y122.665 E11.11715
G1 X122.999 Y122.968 E11.13035
G1 X122.714 Y123.084 E11.13582
G1 X122.016 Y123.344 E11.14906
G1 X121.74 Y123.438 E11.15424
G1 X121.029 Y123.655 E11.16746
G1 X120.74 Y123.733 E11.17278
G1 X120.019 Y123.905 E11.18595
G1 X119.715 Y123.967 E11.19147
G1 X118.981 Y124.093 E11.20471
G1 X118.69 Y124.134 E11.20993
G1 X117.951 Y124.215 E11.22315
G1 X117.652 Y124.239 E11.22848
G1 X116.909 Y124.274 E11.2417
G1 X116.604 Y124.278 E11.24712
G1 X115.863 Y124.266 E11.2603
G1 X115.564 Y124.252 E11.26562
G1 X114.823 Y124.194 E11.27883
G1 X114.531 Y124.162 E11.28405
G1 X113.795 Y124.059 E11.29726
G1 X113.492 Y124.007 E11.30273
G1 X112.762 Y123.857 E11.31597
G1 X112.472 Y123.788 E11.32127
G1 X111.755 Y123.594 E11.33448
G1 X111.468 Y123.507 E11.33981
G1 X110.765 Y123.269 E11.353
G1 X110.479 Y123.162 E11.35843
G1 X109.79 Y122.879 E11.37167
G1 X109.525 Y122.761 E11.37683
G1 X108.856 Y122.438 E11.39003
G1 X108.58 Y122.293 E11.39557
G1 X107.934 Y121.928 E11.40876
G1 X107.679 Y121.773 E11.41407
G1 X107.054 Y121.367 E11.42732
G1 X106.815 Y121.202 E11.43248
G1 X106.218 Y120.761 E11.44567
G1 X105.977 Y120.571 E11.45113
G1 X105.408 Y120.092 E11.46435
G1 X105.179 Y119.886 E11.46982
G1 X104.643 Y119.373 E11.48301
G1 X104.437 Y119.164 E11.48823
G1 X103.931 Y118.617 E11.50147
G1 X103.738 Y118.394 E11.50672
G1 X103.267 Y117.818 E11.51994
G1 X103.081 Y117.575 E11.52538
G1 X102.648 Y116.971 E11.53859
G1 X102.48 Y116.721 E11.54395
G1 X102.086 Y116.092 E11.55714
G1 X101.937 Y115.837 E11.56239
G1 X101.581 Y115.183 E11.57563
G1 X101.441 Y114.905 E11.58116
G1 X101.13 Y114.234 E11.59431
G1 X101.015 Y113.965 E11.59951
G1 X100.743 Y113.271 E11.61276
G1 X100.643 Y112.991 E11.61804
G1 X100.415 Y112.284 E11.63125
G1 X100.33 Y111.99 E11.63669
G1 X100.147 Y111.269 E11.64991
G1 X100.083 Y110.977 E11.65522
G1 X99.945 Y110.246 E11.66845
G1 X99.898 Y109.948 E11.67381
G1 X99.806 Y109.211 E11.68701
G1 X99.778 Y108.913 E11.69233
G1 X99.732 Y108.173 E11.70551
G1 X99.723 Y107.873 E11.71085
G1 X99.723 Y107.128 E11.72409
G1 X99.732 Y106.829 E11.72941
G1 X99.778 Y106.088 E11.74261
G1 X99.806 Y105.789 E11.74794
G1 X99.898 Y105.052 E11.76115
G1 X99.944 Y104.76 E11.7664
G1 X100.081 Y104.029 E11.77962
G1 X100.148 Y103.725 E11.78516
G1 X100.332 Y103.004 E11.79838
G1 X100.415 Y102.716 E11.80371
G1 X100.643 Y102.009 E11.81692
G1 X100.743 Y101.729 E11.8222
G1 X101.015 Y101.035 E11.83545
G1 X101.132 Y100.761 E11.84075
G1 X101.444 Y100.09 E11.8539
G1 X101.579 Y99.822 E11.85924
G1 X101.934 Y99.168 E11.87246
G1 X102.086 Y98.908 E11.87782
G1 X102.48 Y98.279 E11.89101
G1 X102.648 Y98.029 E11.89637
G1 X103.081 Y97.425 E11.90958
G1 X103.267 Y97.182 E11.91502
G1 X103.738 Y96.606 E11.92824
G1 X103.928 Y96.387 E11.9334
G1 X104.433 Y95.84 E11.94663
M204 S625
M205 X6 Y6
G0 F4285.7 X104.742 Y96.125
M204 S500
M205 X5 Y5
G1 F1200 X104.936 Y95.927 E11.95156
G1 X105.473 Y95.414 E11.96476
G1 X105.679 Y95.229 E11.96968
G1 X106.248 Y94.75 E11.9829
G1 X106.468 Y94.577 E11.98788
G1 X107.065 Y94.136 E12.00107
G1 X107.283 Y93.985 E12.00578
G1 X107.908 Y93.579 E12.01903
G1 X108.141 Y93.437 E12.02388
G1 X108.787 Y93.072 E12.03707
G1 X109.039 Y92.941 E12.04212
G1 X109.708 Y92.618 E12.05533
G1 X109.944 Y92.512 E12.05993
G1 X110.633 Y92.228 E12.07317
G1 X110.905 Y92.126 E12.07834
G1 X111.608 Y91.889 E12.09152
G1 X111.871 Y91.81 E12.09641
G1 X112.588 Y91.617 E12.1096
G1 X112.841 Y91.556 E12.11423
G1 X113.571 Y91.405 E12.12748
G1 X113.853 Y91.357 E12.13257
G1 X114.589 Y91.254 E12.14578
G1 X114.856 Y91.224 E12.15055
G1 X115.597 Y91.166 E12.16377
G1 X115.87 Y91.154 E12.16862
G1 X116.611 Y91.142 E12.1818
G1 X116.89 Y91.146 E12.18676
G1 X117.633 Y91.181 E12.19998
G1 X117.905 Y91.202 E12.20483
G1 X118.644 Y91.283 E12.21804
G1 X118.904 Y91.32 E12.22271
G1 X119.638 Y91.445 E12.23595
G1 X119.927 Y91.504 E12.24119
G1 X120.648 Y91.677 E12.25437
G1 X120.906 Y91.747 E12.25912
G1 X121.617 Y91.964 E12.27234
G1 X121.869 Y92.049 E12.27706
G1 X122.567 Y92.309 E12.29031
G1 X122.827 Y92.416 E12.2953
G1 X123.505 Y92.719 E12.3085
G1 X123.756 Y92.84 E12.31346
G1 X124.415 Y93.186 E12.32669
G1 X124.644 Y93.316 E12.33137
G1 X125.28 Y93.7 E12.34458
G1 X125.514 Y93.851 E12.34953
G1 X126.124 Y94.274 E12.36272
G1 X126.346 Y94.439 E12.36764
G1 X126.929 Y94.9 E12.38085
G1 X127.136 Y95.073 E12.38565
G1 X127.69 Y95.569 E12.39886
G1 X127.89 Y95.761 E12.40379
G1 X128.411 Y96.29 E12.41699
G1 X128.596 Y96.49 E12.42183
G1 X129.084 Y97.051 E12.43505
G1 X129.263 Y97.271 E12.44009
G1 X129.713 Y97.861 E12.45328
G1 X129.865 Y98.072 E12.4579
G1 X130.281 Y98.69 E12.47115
G1 X130.432 Y98.931 E12.4762
G1 X130.806 Y99.572 E12.48939
G1 X130.937 Y99.812 E12.49426
G1 X131.272 Y100.478 E12.50751
G1 X131.386 Y100.724 E12.51233
G1 X131.678 Y101.406 E12.52551
G1 X131.778 Y101.661 E12.53038
G1 X132.028 Y102.362 E12.54361
G1 X132.114 Y102.63 E12.54862
G1 X132.318 Y103.343 E12.5618
G1 X132.382 Y103.596 E12.56644
G1 X132.544 Y104.322 E12.57966
G1 X132.597 Y104.6 E12.58469
G1 X132.712 Y105.335 E12.59792
G1 X132.746 Y105.608 E12.60281
G1 X132.815 Y106.348 E12.61602
G1 X132.832 Y106.62 E12.62086
G1 X132.855 Y107.362 E12.63406
G1 X132.855 Y107.635 E12.63891
G1 X132.832 Y108.378 E12.65212
G1 X132.815 Y108.651 E12.65699
G1 X132.746 Y109.391 E12.6702
G1 X132.712 Y109.664 E12.67509
G1 X132.597 Y110.399 E12.68831
G1 X132.544 Y110.676 E12.69333
G1 X132.382 Y111.403 E12.70657
G1 X132.317 Y111.659 E12.71126
G1 X132.113 Y112.371 E12.72443
G1 X132.028 Y112.635 E12.72936
G1 X131.778 Y113.337 E12.7426
G1 X131.678 Y113.594 E12.74751
G1 X131.386 Y114.276 E12.76069
G1 X131.273 Y114.519 E12.76546
G1 X130.939 Y115.184 E12.77869
G1 X130.806 Y115.429 E12.78364
G1 X130.431 Y116.071 E12.79686
G1 X130.282 Y116.308 E12.80183
G1 X129.867 Y116.925 E12.81505
G1 X129.714 Y117.138 E12.81971
G1 X129.264 Y117.728 E12.8329
G1 X129.085 Y117.948 E12.83795
G1 X128.597 Y118.509 E12.85116
G1 X128.412 Y118.709 E12.85601
G1 X127.891 Y119.238 E12.8692
G1 X127.691 Y119.43 E12.87413
G1 X127.137 Y119.926 E12.88735
G1 X126.931 Y120.099 E12.89213
G1 X126.347 Y120.561 E12.90537
G1 X126.124 Y120.726 E12.9103
G1 X125.514 Y121.149 E12.9235
G1 X125.28 Y121.3 E12.92845
G1 X124.644 Y121.684 E12.94165
G1 X124.415 Y121.814 E12.94633
G1 X123.756 Y122.16 E12.95956
G1 X123.505 Y122.281 E12.96452
G1 X122.827 Y122.584 E12.97772
G1 X122.567 Y122.691 E12.98272
G1 X121.869 Y122.951 E12.99596
G1 X121.617 Y123.036 E13.00068
G1 X120.906 Y123.253 E13.0139
G1 X120.642 Y123.325 E13.01876
G1 X119.921 Y123.497 E13.03194
G1 X119.644 Y123.553 E13.03696
G1 X118.91 Y123.679 E13.0502
G1 X118.644 Y123.717 E13.05498
G1 X117.905 Y123.798 E13.06819
G1 X117.633 Y123.819 E13.07304
G1 X116.89 Y123.854 E13.08626
G1 X116.611 Y123.858 E13.09122
G1 X115.87 Y123.846 E13.1044
G1 X115.597 Y123.834 E13.10925
G1 X114.856 Y123.776 E13.12247
G1 X114.589 Y123.746 E13.12724
G1 X113.853 Y123.643 E13.14045
G1 X113.576 Y123.596 E13.14545
G1 X112.846 Y123.446 E13.1587
G1 X112.582 Y123.383 E13.16352
G1 X111.865 Y123.189 E13.17672
G1 X111.603 Y123.109 E13.18159
G1 X110.9 Y122.871 E13.19479
G1 X110.638 Y122.773 E13.19976
G1 X109.949 Y122.49 E13.213
G1 X109.708 Y122.382 E13.21769
G1 X109.039 Y122.059 E13.2309
G1 X108.787 Y121.928 E13.23595
G1 X108.141 Y121.563 E13.24914
G1 X107.908 Y121.421 E13.25399
G1 X107.283 Y121.015 E13.26724
G1 X107.065 Y120.864 E13.27195
G1 X106.468 Y120.423 E13.28514
G1 X106.248 Y120.25 E13.29012
G1 X105.679 Y119.771 E13.30334
G1 X105.47 Y119.583 E13.30834
G1 X104.934 Y119.07 E13.32153
G1 X104.746 Y118.879 E13.32629
G1 X104.24 Y118.332 E13.33954
G1 X104.063 Y118.129 E13.34432
G1 X103.592 Y117.553 E13.35755
G1 X103.422 Y117.33 E13.36253
G1 X102.989 Y116.726 E13.37575
G1 X102.836 Y116.498 E13.38063
G1 X102.442 Y115.869 E13.39382
G1 X102.306 Y115.636 E13.39862
G1 X101.95 Y114.982 E13.41185
G1 X101.822 Y114.728 E13.41691
G1 X101.511 Y114.057 E13.43005
G1 X101.406 Y113.812 E13.43479
G1 X101.134 Y113.118 E13.44804
G1 X101.043 Y112.863 E13.45286
G1 X100.815 Y112.156 E13.46606
G1 X100.738 Y111.887 E13.47103
G1 X100.555 Y111.166 E13.48426
G1 X100.496 Y110.899 E13.48912
G1 X100.358 Y110.168 E13.50234
G1 X100.315 Y109.896 E13.50724
G1 X100.223 Y109.159 E13.52044
G1 X100.197 Y108.887 E13.5253
G1 X100.151 Y108.147 E13.53848
G1 X100.143 Y107.873 E13.54335
G1 X100.143 Y107.128 E13.55659
G1 X100.151 Y106.855 E13.56145
G1 X100.197 Y106.114 E13.57464
G1 X100.223 Y105.841 E13.57952
G1 X100.315 Y105.104 E13.59272
G1 X100.356 Y104.838 E13.59751
G1 X100.493 Y104.107 E13.61073
G1 X100.555 Y103.829 E13.61579
G1 X100.739 Y103.108 E13.62902
G1 X100.815 Y102.844 E13.6339
G1 X101.043 Y102.137 E13.6471
G1 X101.134 Y101.882 E13.65192
G1 X101.406 Y101.188 E13.66517
G1 X101.513 Y100.938 E13.67
G1 X101.825 Y100.267 E13.68316
G1 X101.948 Y100.022 E13.68803
G1 X102.303 Y99.368 E13.70126
G1 X102.442 Y99.131 E13.70614
G1 X102.836 Y98.502 E13.71933
G1 X102.989 Y98.274 E13.72422
G1 X103.422 Y97.67 E13.73743
G1 X103.592 Y97.447 E13.74241
G1 X104.063 Y96.871 E13.75564
G1 X104.237 Y96.672 E13.76034
G1 X104.742 Y96.125 E13.77357
M204 S625
M205 X6 Y6
G0 F4285.7 X105.05 Y96.409
M204 S500
M205 X5 Y5
G1 F1200 X105.226 Y96.231 E13.77802
G1 X105.763 Y95.718 E13.79122
G1 X105.949 Y95.551 E13.79566
G1 X106.518 Y95.072 E13.80889
G1 X106.717 Y94.915 E13.81339
G1 X107.314 Y94.474 E13.82658
G1 X107.511 Y94.337 E13.83085
G1 X108.136 Y93.931 E13.8441
G1 X108.347 Y93.803 E13.84849
G1 X108.993 Y93.438 E13.86167
G1 X109.221 Y93.319 E13.86625
G1 X109.89 Y92.996 E13.87945
G1 X110.104 Y92.9 E13.88362
G1 X110.793 Y92.616 E13.89687
G1 X111.039 Y92.524 E13.90154
G1 X111.742 Y92.287 E13.91473
G1 X111.98 Y92.215 E13.91915
G1 X112.697 Y92.022 E13.93234
G1 X112.926 Y91.968 E13.93653
G1 X113.656 Y91.817 E13.94978
G1 X113.911 Y91.773 E13.95438
G1 X114.647 Y91.67 E13.96759
G1 X114.889 Y91.643 E13.97192
G1 X115.63 Y91.585 E13.98513
G1 X115.876 Y91.574 E13.98951
G1 X116.617 Y91.562 E14.00268
G1 X116.87 Y91.565 E14.00718
G1 X117.613 Y91.6 E14.0204
G1 X117.86 Y91.62 E14.0248
G1 X118.599 Y91.701 E14.03802
G1 X118.834 Y91.734 E14.04224
G1 X119.568 Y91.859 E14.05547
G1 X119.829 Y91.912 E14.06021
G1 X120.55 Y92.085 E14.07339
G1 X120.784 Y92.149 E14.0777
G1 X121.495 Y92.366 E14.09091
G1 X121.723 Y92.443 E14.09519
G1 X122.421 Y92.703 E14.10843
G1 X122.656 Y92.799 E14.11295
G1 X123.334 Y93.102 E14.12615
G1 X123.561 Y93.212 E14.13063
G1 X124.22 Y93.558 E14.14386
G1 X124.427 Y93.675 E14.14809
G1 X125.063 Y94.059 E14.16129
G1 X125.275 Y94.196 E14.16578
G1 X125.885 Y94.619 E14.17898
G1 X126.086 Y94.768 E14.18342
G1 X126.669 Y95.229 E14.19664
G1 X126.855 Y95.386 E14.20096
G1 X127.409 Y95.882 E14.21418
G1 X127.591 Y96.055 E14.21864
G1 X128.112 Y96.584 E14.23184
G1 X128.279 Y96.765 E14.23622
G1 X128.767 Y97.326 E14.24944
G1 X128.93 Y97.525 E14.25401
G1 X129.38 Y98.115 E14.2672
G1 X129.517 Y98.307 E14.27139
G1 X129.933 Y98.925 E14.28464
G1 X130.069 Y99.142 E14.28919
G1 X130.443 Y99.783 E14.30238
G1 X130.561 Y100.001 E14.30679
G1 X130.896 Y100.667 E14.32004
G1 X131 Y100.89 E14.32441
G1 X131.292 Y101.572 E14.3376
G1 X131.382 Y101.802 E14.34199
G1 X131.632 Y102.503 E14.35522
G1 X131.71 Y102.745 E14.35974
G1 X131.914 Y103.458 E14.37292
G1 X131.972 Y103.687 E14.37712
G1 X132.134 Y104.413 E14.39035
G1 X132.182 Y104.665 E14.39491
G1 X132.297 Y105.4 E14.40813
G1 X132.328 Y105.647 E14.41255
G1 X132.397 Y106.387 E14.42577
G1 X132.412 Y106.633 E14.43015
G1 X132.435 Y107.375 E14.44334
G1 X132.435 Y107.622 E14.44773
G1 X132.412 Y108.365 E14.46095
G1 X132.397 Y108.612 E14.46535
G1 X132.328 Y109.352 E14.47856
G1 X132.297 Y109.599 E14.48298
G1 X132.182 Y110.334 E14.49621
G1 X132.134 Y110.585 E14.50075
G1 X131.972 Y111.312 E14.51399
G1 X131.914 Y111.543 E14.51822
G1 X131.71 Y112.255 E14.53139
G1 X131.633 Y112.495 E14.53587
G1 X131.383 Y113.197 E14.54912
G1 X131.292 Y113.428 E14.55353
G1 X131 Y114.11 E14.56672
G1 X130.898 Y114.331 E14.57104
G1 X130.564 Y114.996 E14.58427
G1 X130.443 Y115.217 E14.58875
G1 X130.068 Y115.859 E14.60197
G1 X129.934 Y116.074 E14.60647
G1 X129.519 Y116.691 E14.61969
G1 X129.381 Y116.884 E14.62391
G1 X128.931 Y117.474 E14.6371
G1 X128.768 Y117.673 E14.64167
G1 X128.28 Y118.234 E14.65489
G1 X128.113 Y118.415 E14.65926
G1 X127.592 Y118.944 E14.67246
G1 X127.41 Y119.117 E14.67693
G1 X126.856 Y119.613 E14.69014
G1 X126.671 Y119.769 E14.69445
G1 X126.087 Y120.231 E14.70768
G1 X125.885 Y120.381 E14.71216
G1 X125.275 Y120.804 E14.72535
G1 X125.063 Y120.941 E14.72984
G1 X124.427 Y121.325 E14.74304
G1 X124.22 Y121.442 E14.74727
G1 X123.561 Y121.788 E14.7605
G1 X123.334 Y121.898 E14.76499
G1 X122.656 Y122.201 E14.77819
G1 X122.421 Y122.297 E14.7827
G1 X121.723 Y122.557 E14.79594
G1 X121.495 Y122.634 E14.80022
G1 X120.784 Y122.851 E14.81343
G1 X120.545 Y122.916 E14.81783
G1 X119.824 Y123.088 E14.83101
G1 X119.573 Y123.139 E14.83556
G1 X118.839 Y123.265 E14.8488
G1 X118.599 Y123.299 E14.85311
G1 X117.86 Y123.38 E14.86633
G1 X117.613 Y123.4 E14.87073
G1 X116.87 Y123.435 E14.88395
G1 X116.617 Y123.438 E14.88845
G1 X115.876 Y123.426 E14.90162
G1 X115.63 Y123.415 E14.906
G1 X114.889 Y123.357 E14.91921
G1 X114.647 Y123.33 E14.92354
G1 X113.911 Y123.227 E14.93675
G1 X113.661 Y123.184 E14.94126
G1 X112.931 Y123.034 E14.95451
G1 X112.692 Y122.978 E14.95887
G1 X111.975 Y122.784 E14.97208
G1 X111.738 Y122.711 E14.97648
G1 X111.035 Y122.473 E14.98968
G1 X110.798 Y122.385 E14.99417
G1 X110.109 Y122.102 E15.00741
G1 X109.89 Y122.004 E15.01168
G1 X109.221 Y121.681 E15.02488
G1 X108.993 Y121.562 E15.02945
G1 X108.347 Y121.197 E15.04264
G1 X108.136 Y121.069 E15.04703
G1 X107.511 Y120.663 E15.06028
G1 X107.314 Y120.526 E15.06454
G1 X106.717 Y120.085 E15.07774
G1 X106.518 Y119.928 E15.08224
G1 X105.949 Y119.449 E15.09547
G1 X105.76 Y119.28 E15.09997
G1 X105.224 Y118.767 E15.11316
G1 X105.054 Y118.593 E15.11749
G1 X104.548 Y118.046 E15.13073
G1 X104.388 Y117.863 E15.13505
G1 X103.917 Y117.287 E15.14828
G1 X103.763 Y117.086 E15.15278
G1 X103.33 Y116.482 E15.16599
G1 X103.192 Y116.275 E15.17041
G1 X102.798 Y115.646 E15.18361
G1 X102.675 Y115.436 E15.18793
G1 X102.319 Y114.782 E15.20117
G1 X102.203 Y114.552 E15.20575
G1 X101.892 Y113.881 E15.21889
G1 X101.797 Y113.659 E15.22319
G1 X101.525 Y112.965 E15.23644
G1 X101.443 Y112.734 E15.24079
G1 X101.215 Y112.027 E15.254
G1 X101.145 Y111.784 E15.25849
G1 X100.962 Y111.063 E15.27172
G1 X100.908 Y110.821 E15.27612
G1 X100.77 Y110.09 E15.28935
G1 X100.732 Y109.844 E15.29377
G1 X100.64 Y109.107 E15.30698
G1 X100.617 Y108.861 E15.31137
G1 X100.571 Y108.121 E15.32455
G1 X100.563 Y107.873 E15.32896
G1 X100.563 Y107.128 E15.3422
G1 X100.571 Y106.881 E15.34659
G1 X100.617 Y106.14 E15.35979
G1 X100.64 Y105.893 E15.3642
G1 X100.732 Y105.156 E15.3774
G1 X100.769 Y104.915 E15.38174
G1 X100.906 Y104.184 E15.39496
G1 X100.962 Y103.932 E15.39955
G1 X101.146 Y103.211 E15.41277
G1 X101.215 Y102.973 E15.41718
G1 X101.443 Y102.266 E15.43038
G1 X101.525 Y102.035 E15.43474
G1 X101.797 Y101.341 E15.44799
G1 X101.894 Y101.115 E15.45236
G1 X102.206 Y100.444 E15.46552
G1 X102.317 Y100.223 E15.46991
G1 X102.672 Y99.569 E15.48314
G1 X102.798 Y99.354 E15.48757
G1 X103.192 Y98.725 E15.50076
G1 X103.33 Y98.518 E15.50519
G1 X103.763 Y97.914 E15.5184
G1 X103.917 Y97.713 E15.5229
G1 X104.388 Y97.137 E15.53613
G1 X104.545 Y96.956 E15.54038
G1 X105.05 Y96.409 E15.55362
M204 S625
M205 X6 Y6
G0 F4285.7 X105.359 Y96.694
M204 S500
M205 X5 Y5
G1 F1200 X105.516 Y96.535 E15.55759
G1 X106.053 Y96.022 E15.57079
G1 X106.22 Y95.872 E15.57478
G1 X106.789 Y95.393 E15.588
G1 X106.967 Y95.252 E15.59204
G1 X107.564 Y94.811 E15.60523
G1 X107.74 Y94.689 E15.60904
G1 X108.365 Y94.283 E15.62229
G1 X108.554 Y94.169 E15.62621
G1 X109.2 Y93.804 E15.6394
G1 X109.404 Y93.697 E15.6435
G1 X110.073 Y93.374 E15.6567
G1 X110.265 Y93.288 E15.66044
G1 X110.954 Y93.004 E15.67369
G1 X111.174 Y92.922 E15.67786
G1 X111.877 Y92.685 E15.69105
G1 X112.089 Y92.621 E15.69499
G1 X112.806 Y92.428 E15.70819
G1 X113.011 Y92.379 E15.71193
G1 X113.741 Y92.228 E15.72518
G1 X113.969 Y92.188 E15.7293
G1 X114.705 Y92.085 E15.74251
G1 X114.921 Y92.062 E15.74637
G1 X115.662 Y92.004 E15.75958
G1 X115.883 Y91.993 E15.76352
G1 X116.624 Y91.981 E15.77669
G1 X116.85 Y91.985 E15.78071
G1 X117.593 Y92.02 E15.79393
G1 X117.814 Y92.037 E15.79787
G1 X118.553 Y92.118 E15.81108
G1 X118.763 Y92.148 E15.81486
G1 X119.497 Y92.273 E15.82809
G1 X119.731 Y92.321 E15.83234
G1 X120.452 Y92.494 E15.84552
G1 X120.661 Y92.55 E15.84936
G1 X121.372 Y92.767 E15.86258
G1 X121.576 Y92.837 E15.86641
G1 X122.274 Y93.097 E15.87965
G1 X122.485 Y93.183 E15.8837
G1 X123.163 Y93.486 E15.8969
G1 X123.366 Y93.584 E15.90091
G1 X124.025 Y93.93 E15.91414
G1 X124.21 Y94.035 E15.91792
G1 X124.846 Y94.419 E15.93113
G1 X125.035 Y94.541 E15.93513
G1 X125.645 Y94.964 E15.94832
G1 X125.825 Y95.098 E15.95231
G1 X126.408 Y95.559 E15.96552
G1 X126.575 Y95.699 E15.9694
G1 X127.129 Y96.195 E15.98262
G1 X127.292 Y96.35 E15.98661
G1 X127.813 Y96.879 E15.99981
G1 X127.963 Y97.041 E16.00374
G1 X128.451 Y97.602 E16.01695
G1 X128.596 Y97.78 E16.02104
G1 X129.046 Y98.37 E16.03423
G1 X129.169 Y98.541 E16.03797
G1 X129.585 Y99.159 E16.05121
G1 X129.707 Y99.354 E16.0553
G1 X130.081 Y99.995 E16.06849
G1 X130.186 Y100.19 E16.07243
G1 X130.521 Y100.856 E16.08568
G1 X130.614 Y101.055 E16.08959
G1 X130.906 Y101.737 E16.10278
G1 X130.987 Y101.943 E16.10671
G1 X131.237 Y102.644 E16.11994
G1 X131.306 Y102.861 E16.12399
G1 X131.51 Y103.574 E16.13717
G1 X131.562 Y103.779 E16.14093
G1 X131.724 Y104.505 E16.15415
G1 X131.767 Y104.73 E16.15822
G1 X131.882 Y105.465 E16.17145
G1 X131.91 Y105.686 E16.17541
G1 X131.979 Y106.426 E16.18862
G1 X131.992 Y106.646 E16.19254
G1 X132.015 Y107.388 E16.20573
G1 X132.015 Y107.609 E16.20966
G1 X131.992 Y108.352 E16.22288
G1 X131.979 Y108.573 E16.22681
G1 X131.91 Y109.313 E16.24002
G1 X131.882 Y109.534 E16.24398
G1 X131.767 Y110.269 E16.25721
G1 X131.725 Y110.493 E16.26126
G1 X131.563 Y111.22 E16.2745
G1 X131.51 Y111.427 E16.2783
G1 X131.306 Y112.139 E16.29146
G1 X131.237 Y112.354 E16.29548
G1 X130.987 Y113.056 E16.30872
G1 X130.906 Y113.263 E16.31267
G1 X130.614 Y113.945 E16.32586
G1 X130.522 Y114.142 E16.32973
G1 X130.188 Y114.807 E16.34295
G1 X130.081 Y115.006 E16.34697
G1 X129.706 Y115.648 E16.36019
G1 X129.585 Y115.839 E16.36421
G1 X129.17 Y116.456 E16.37742
G1 X129.047 Y116.629 E16.3812
G1 X128.597 Y117.219 E16.39439
G1 X128.452 Y117.397 E16.39847
G1 X127.964 Y117.958 E16.41169
G1 X127.814 Y118.12 E16.41561
G1 X127.293 Y118.649 E16.42881
G1 X127.13 Y118.804 E16.43281
G1 X126.576 Y119.3 E16.44603
G1 X126.41 Y119.44 E16.44989
G1 X125.826 Y119.902 E16.46312
G1 X125.645 Y120.036 E16.46713
G1 X125.035 Y120.459 E16.48032
G1 X124.846 Y120.581 E16.48432
G1 X124.21 Y120.965 E16.49753
G1 X124.025 Y121.07 E16.50131
G1 X123.366 Y121.416 E16.51454
G1 X123.163 Y121.514 E16.51855
G1 X122.485 Y121.817 E16.53175
G1 X122.274 Y121.903 E16.5358
G1 X121.576 Y122.163 E16.54904
G1 X121.372 Y122.233 E16.55287
G1 X120.661 Y122.45 E16.56609
G1 X120.447 Y122.508 E16.57003
G1 X119.726 Y122.68 E16.5832
G1 X119.502 Y122.726 E16.58727
G1 X118.768 Y122.852 E16.60051
G1 X118.553 Y122.882 E16.60436
G1 X117.814 Y122.963 E16.61758
G1 X117.593 Y122.98 E16.62152
G1 X116.85 Y123.015 E16.63474
G1 X116.624 Y123.019 E16.63876
G1 X115.883 Y123.007 E16.65193
G1 X115.662 Y122.996 E16.65587
G1 X114.921 Y122.938 E16.66908
G1 X114.705 Y122.915 E16.67294
G1 X113.969 Y122.812 E16.68615
G1 X113.745 Y122.773 E16.69019
G1 X113.015 Y122.623 E16.70344
G1 X112.802 Y122.572 E16.70733
G1 X112.085 Y122.378 E16.72054
G1 X111.872 Y122.313 E16.7245
G1 X111.169 Y122.075 E16.73769
G1 X110.958 Y121.996 E16.74169
G1 X110.269 Y121.713 E16.75494
G1 X110.073 Y121.626 E16.75875
G1 X109.404 Y121.303 E16.77195
G1 X109.2 Y121.196 E16.77605
G1 X108.554 Y120.831 E16.78924
G1 X108.365 Y120.717 E16.79316
G1 X107.74 Y120.311 E16.80641
G1 X107.564 Y120.189 E16.81022
G1 X106.967 Y119.748 E16.82341
G1 X106.789 Y119.607 E16.82745
G1 X106.22 Y119.128 E16.84067
G1 X106.051 Y118.976 E16.84471
G1 X105.515 Y118.463 E16.8579
G1 X105.362 Y118.308 E16.86177
G1 X104.856 Y117.761 E16.87501
G1 X104.713 Y117.597 E16.87888
G1 X104.242 Y117.021 E16.89211
G1 X104.105 Y116.841 E16.89613
G1 X103.672 Y116.237 E16.90934
G1 X103.548 Y116.052 E16.9133
G1 X103.154 Y115.423 E16.92649
G1 X103.043 Y115.235 E16.93037
G1 X102.687 Y114.581 E16.94361
G1 X102.584 Y114.375 E16.9477
G1 X102.273 Y113.704 E16.96085
G1 X102.188 Y113.506 E16.96468
G1 X101.916 Y112.812 E16.97793
G1 X101.842 Y112.605 E16.98184
G1 X101.614 Y111.898 E16.99504
G1 X101.552 Y111.68 E16.99907
G1 X101.369 Y110.959 E17.01229
G1 X101.321 Y110.743 E17.01623
G1 X101.183 Y110.012 E17.02945
G1 X101.148 Y109.792 E17.03341
G1 X101.056 Y109.055 E17.04661
G1 X101.036 Y108.834 E17.05056
G1 X100.99 Y108.094 E17.06374
G1 X100.983 Y107.873 E17.06767
G1 X100.983 Y107.128 E17.08091
G1 X100.99 Y106.907 E17.08484
G1 X101.036 Y106.166 E17.09804
G1 X101.056 Y105.945 E17.10198
G1 X101.148 Y105.208 E17.11519
G1 X101.182 Y104.992 E17.11907
G1 X101.319 Y104.261 E17.13229
G1 X101.369 Y104.036 E17.13639
G1 X101.553 Y103.315 E17.14962
G1 X101.614 Y103.102 E17.15356
G1 X101.842 Y102.395 E17.16676
G1 X101.916 Y102.188 E17.17067
G1 X102.188 Y101.494 E17.18392
G1 X102.275 Y101.292 E17.18783
G1 X102.587 Y100.621 E17.20098
G1 X102.686 Y100.423 E17.20492
G1 X103.041 Y99.769 E17.21815
G1 X103.154 Y99.577 E17.22211
G1 X103.548 Y98.948 E17.2353
G1 X103.672 Y98.763 E17.23926
G1 X104.105 Y98.159 E17.25247
G1 X104.242 Y97.979 E17.25649
G1 X104.713 Y97.403 E17.26972
G1 X104.854 Y97.241 E17.27353
G1 X105.359 Y96.694 E17.28677
M204 S625
M205 X6 Y6
G0 F4285.7 X105.668 Y96.979
M204 S500
M205 X5 Y5
G1 F1200 X105.806 Y96.838 E17.29028
G1 X106.343 Y96.325 E17.30348
G1 X106.49 Y96.193 E17.30699
G1 X107.059 Y95.714 E17.32021
G1 X107.216 Y95.59 E17.32377
G1 X107.813 Y95.149 E17.33696
G1 X107.969 Y95.041 E17.34033
G1 X108.594 Y94.635 E17.35358
G1 X108.76 Y94.534 E17.35703
G1 X109.406 Y94.169 E17.37022
G1 X109.586 Y94.075 E17.37383
G1 X110.255 Y93.752 E17.38704
G1 X110.425 Y93.677 E17.39034
G1 X111.114 Y93.393 E17.40359
G1 X111.308 Y93.32 E17.40727
G1 X112.011 Y93.083 E17.42046
G1 X112.198 Y93.026 E17.42394
G1 X112.915 Y92.833 E17.43714
G1 X113.096 Y92.79 E17.44044
G1 X113.826 Y92.639 E17.45369
G1 X114.027 Y92.604 E17.45732
G1 X114.763 Y92.501 E17.47053
G1 X114.954 Y92.481 E17.47395
G1 X115.695 Y92.423 E17.48716
G1 X115.89 Y92.413 E17.49063
G1 X116.631 Y92.401 E17.5038
G1 X116.83 Y92.404 E17.50734
G1 X117.573 Y92.439 E17.52056
G1 X117.768 Y92.455 E17.52404
G1 X118.507 Y92.536 E17.53726
G1 X118.693 Y92.562 E17.54059
G1 X119.427 Y92.687 E17.55383
G1 X119.633 Y92.729 E17.55757
G1 X120.354 Y92.902 E17.57075
G1 X120.539 Y92.952 E17.57415
G1 X121.25 Y93.169 E17.58737
G1 X121.43 Y93.23 E17.59075
G1 X122.128 Y93.49 E17.60399
G1 X122.313 Y93.566 E17.60754
G1 X122.991 Y93.869 E17.62074
G1 X123.17 Y93.956 E17.62428
G1 X123.829 Y94.302 E17.63751
G1 X123.993 Y94.394 E17.64085
G1 X124.629 Y94.778 E17.65406
G1 X124.796 Y94.886 E17.6576
G1 X125.406 Y95.309 E17.67079
G1 X125.565 Y95.427 E17.67431
G1 X126.148 Y95.888 E17.68752
G1 X126.295 Y96.012 E17.69094
G1 X126.849 Y96.508 E17.70416
G1 X126.992 Y96.645 E17.70768
G1 X127.513 Y97.174 E17.72088
G1 X127.646 Y97.317 E17.72435
G1 X128.134 Y97.878 E17.73757
G1 X128.262 Y98.035 E17.74117
G1 X128.712 Y98.625 E17.75436
G1 X128.82 Y98.776 E17.75766
G1 X129.236 Y99.394 E17.7709
G1 X129.344 Y99.566 E17.77451
G1 X129.718 Y100.207 E17.7877
G1 X129.811 Y100.379 E17.79118
G1 X130.146 Y101.045 E17.80443
G1 X130.228 Y101.22 E17.80787
G1 X130.52 Y101.902 E17.82105
G1 X130.591 Y102.084 E17.82453
G1 X130.841 Y102.785 E17.83776
G1 X130.902 Y102.977 E17.84134
G1 X131.106 Y103.69 E17.85452
G1 X131.152 Y103.87 E17.85782
G1 X131.314 Y104.596 E17.87105
G1 X131.352 Y104.795 E17.87465
G1 X131.467 Y105.53 E17.88787
G1 X131.491 Y105.725 E17.89136
G1 X131.56 Y106.465 E17.90457
G1 X131.572 Y106.659 E17.90803
G1 X131.595 Y107.401 E17.92123
G1 X131.595 Y107.596 E17.92469
G1 X131.572 Y108.339 E17.93791
G1 X131.56 Y108.534 E17.94138
G1 X131.491 Y109.274 E17.95459
G1 X131.467 Y109.469 E17.95808
G1 X131.352 Y110.204 E17.97131
G1 X131.315 Y110.402 E17.97489
G1 X131.153 Y111.129 E17.98813
G1 X131.106 Y111.312 E17.99149
G1 X130.902 Y112.024 E18.00465
G1 X130.841 Y112.213 E18.00818
G1 X130.591 Y112.915 E18.02143
G1 X130.52 Y113.098 E18.02492
G1 X130.228 Y113.78 E18.03811
G1 X130.147 Y113.954 E18.04152
G1 X129.813 Y114.619 E18.05475
G1 X129.718 Y114.794 E18.05829
G1 X129.343 Y115.436 E18.0715
G1 X129.237 Y115.605 E18.07505
G1 X128.822 Y116.222 E18.08827
G1 X128.713 Y116.374 E18.09159
G1 X128.263 Y116.964 E18.10478
G1 X128.135 Y117.121 E18.10838
G1 X127.647 Y117.682 E18.1216
G1 X127.514 Y117.825 E18.12507
G1 X126.993 Y118.354 E18.13827
G1 X126.85 Y118.491 E18.14179
G1 X126.296 Y118.987 E18.15501
G1 X126.149 Y119.11 E18.15841
G1 X125.565 Y119.572 E18.17165
G1 X125.406 Y119.691 E18.17518
G1 X124.796 Y120.114 E18.18838
G1 X124.629 Y120.222 E18.19191
G1 X123.993 Y120.606 E18.20512
G1 X123.829 Y120.698 E18.20846
G1 X123.17 Y121.044 E18.22169
G1 X122.991 Y121.131 E18.22523
G1 X122.313 Y121.434 E18.23843
G1 X122.128 Y121.51 E18.24199
G1 X121.43 Y121.77 E18.25523
G1 X121.25 Y121.831 E18.2586
G1 X120.539 Y122.048 E18.27182
G1 X120.35 Y122.099 E18.2753
G1 X119.629 Y122.271 E18.28847
G1 X119.431 Y122.312 E18.29207
G1 X118.697 Y122.438 E18.30531
G1 X118.507 Y122.464 E18.30872
G1 X117.768 Y122.545 E18.32193
G1 X117.573 Y122.561 E18.32541
G1 X116.83 Y122.596 E18.33863
G1 X116.631 Y122.599 E18.34217
G1 X115.89 Y122.587 E18.35534
G1 X115.695 Y122.577 E18.35881
G1 X114.954 Y122.519 E18.37203
G1 X114.763 Y122.499 E18.37544
G1 X114.027 Y122.396 E18.38865
G1 X113.83 Y122.362 E18.3922
G1 X113.1 Y122.212 E18.40545
G1 X112.911 Y122.167 E18.40891
G1 X112.194 Y121.973 E18.42211
G1 X112.007 Y121.916 E18.42558
G1 X111.304 Y121.678 E18.43878
G1 X111.117 Y121.608 E18.44233
G1 X110.428 Y121.325 E18.45557
G1 X110.255 Y121.248 E18.45893
G1 X109.586 Y120.925 E18.47214
G1 X109.406 Y120.831 E18.47575
G1 X108.76 Y120.466 E18.48894
G1 X108.594 Y120.365 E18.49239
G1 X107.969 Y119.959 E18.50564
G1 X107.813 Y119.851 E18.50901
G1 X107.216 Y119.41 E18.52221
G1 X107.059 Y119.286 E18.52576
G1 X106.49 Y118.807 E18.53899
G1 X106.341 Y118.673 E18.54255
G1 X105.805 Y118.16 E18.55574
G1 X105.671 Y118.023 E18.55914
G1 X105.165 Y117.476 E18.57239
G1 X105.038 Y117.331 E18.57581
G1 X104.567 Y116.755 E18.58904
G1 X104.446 Y116.596 E18.59259
G1 X104.013 Y115.992 E18.6058
G1 X103.903 Y115.829 E18.6093
G1 X103.509 Y115.2 E18.62249
G1 X103.412 Y115.034 E18.62591
G1 X103.056 Y114.38 E18.63915
G1 X102.965 Y114.199 E18.64275
G1 X102.654 Y113.528 E18.65589
G1 X102.579 Y113.352 E18.65929
G1 X102.307 Y112.658 E18.67254
G1 X102.242 Y112.476 E18.67598
G1 X102.014 Y111.769 E18.68919
G1 X101.959 Y111.577 E18.69274
G1 X101.776 Y110.856 E18.70596
G1 X101.734 Y110.665 E18.70943
G1 X101.596 Y109.934 E18.72266
G1 X101.565 Y109.74 E18.72615
G1 X101.473 Y109.003 E18.73935
G1 X101.455 Y108.808 E18.74283
G1 X101.409 Y108.068 E18.75601
G1 X101.403 Y107.873 E18.75948
G1 X101.403 Y107.128 E18.77272
G1 X101.409 Y106.933 E18.77619
G1 X101.455 Y106.192 E18.78939
G1 X101.473 Y105.997 E18.79287
G1 X101.565 Y105.26 E18.80607
G1 X101.595 Y105.07 E18.80949
G1 X101.732 Y104.339 E18.82271
G1 X101.776 Y104.14 E18.82634
G1 X101.96 Y103.419 E18.83956
G1 X102.014 Y103.231 E18.84304
G1 X102.242 Y102.524 E18.85625
G1 X102.307 Y102.342 E18.85968
G1 X102.579 Y101.648 E18.87293
G1 X102.656 Y101.469 E18.8764
G1 X102.968 Y100.798 E18.88955
G1 X103.056 Y100.623 E18.89303
G1 X103.411 Y99.969 E18.90626
G1 X103.509 Y99.8 E18.90973
G1 X103.903 Y99.171 E18.92293
G1 X104.013 Y99.008 E18.92642
G1 X104.446 Y98.404 E18.93963
G1 X104.567 Y98.245 E18.94318
G1 X105.038 Y97.669 E18.95641
G1 X105.163 Y97.526 E18.95979
G1 X105.668 Y96.979 E18.97302
M204 S625
M205 X6 Y6
G0 F4285.7 X105.976 Y97.264
M204 S500
M205 X5 Y5
G1 F1200 X106.096 Y97.142 E18.97606
G1 X106.633 Y96.629 E18.98926
G1 X106.761 Y96.515 E18.99231
G1 X107.33 Y96.036 E19.00553
G1 X107.466 Y95.928 E19.00862
G1 X108.063 Y95.487 E19.02181
G1 X108.198 Y95.394 E19.02473
G1 X108.823 Y94.988 E19.03797
G1 X108.967 Y94.9 E19.04097
G1 X109.613 Y94.535 E19.05416
G1 X109.769 Y94.454 E19.05729
G1 X110.438 Y94.131 E19.07049
G1 X110.585 Y94.065 E19.07336
G1 X111.274 Y93.781 E19.08661
G1 X111.442 Y93.718 E19.08979
G1 X112.145 Y93.481 E19.10298
G1 X112.307 Y93.432 E19.10599
G1 X113.024 Y93.239 E19.11919
G1 X113.181 Y93.202 E19.12206
G1 X113.911 Y93.051 E19.13531
G1 X114.086 Y93.02 E19.13847
G1 X114.822 Y92.917 E19.15168
G1 X114.987 Y92.899 E19.15463
G1 X115.728 Y92.841 E19.16784
G1 X115.897 Y92.833 E19.17085
G1 X116.638 Y92.821 E19.18402
G1 X116.81 Y92.824 E19.18708
G1 X117.553 Y92.859 E19.2003
G1 X117.722 Y92.872 E19.20332
G1 X118.461 Y92.953 E19.21653
G1 X118.622 Y92.976 E19.21942
G1 X119.356 Y93.101 E19.23266
G1 X119.535 Y93.137 E19.2359
G1 X120.256 Y93.31 E19.24908
G1 X120.416 Y93.354 E19.25203
G1 X121.127 Y93.571 E19.26525
G1 X121.283 Y93.624 E19.26818
G1 X121.981 Y93.884 E19.28142
G1 X122.142 Y93.95 E19.28451
G1 X122.82 Y94.253 E19.29771
G1 X122.975 Y94.328 E19.30077
G1 X123.634 Y94.674 E19.314
G1 X123.776 Y94.754 E19.3169
G1 X124.412 Y95.138 E19.3301
G1 X124.557 Y95.232 E19.33318
G1 X125.167 Y95.655 E19.34637
G1 X125.304 Y95.757 E19.34941
G1 X125.887 Y96.218 E19.36262
G1 X126.015 Y96.325 E19.36559
G1 X126.569 Y96.821 E19.3788
G1 X126.693 Y96.939 E19.38185
G1 X127.214 Y97.468 E19.39504
G1 X127.329 Y97.592 E19.39805
G1 X127.817 Y98.153 E19.41127
G1 X127.928 Y98.289 E19.41439
G1 X128.378 Y98.879 E19.42758
G1 X128.472 Y99.011 E19.43046
G1 X128.888 Y99.629 E19.4437
G1 X128.981 Y99.777 E19.44681
G1 X129.355 Y100.418 E19.46
G1 X129.436 Y100.567 E19.46302
G1 X129.771 Y101.233 E19.47627
G1 X129.842 Y101.385 E19.47925
G1 X130.134 Y102.067 E19.49244
G1 X130.195 Y102.225 E19.49545
G1 X130.445 Y102.926 E19.50868
G1 X130.499 Y103.092 E19.51178
G1 X130.703 Y103.805 E19.52496
G1 X130.742 Y103.961 E19.52782
G1 X130.904 Y104.687 E19.54105
G1 X130.937 Y104.86 E19.54418
G1 X131.052 Y105.595 E19.5574
G1 X131.073 Y105.764 E19.56043
G1 X131.142 Y106.504 E19.57364
G1 X131.153 Y106.672 E19.57663
G1 X131.176 Y107.414 E19.58983
G1 X131.176 Y107.583 E19.59283
G1 X131.153 Y108.326 E19.60605
G1 X131.142 Y108.495 E19.60906
G1 X131.073 Y109.235 E19.62227
G1 X131.052 Y109.404 E19.62529
G1 X130.937 Y110.139 E19.63852
G1 X130.905 Y110.311 E19.64163
G1 X130.743 Y111.038 E19.65487
G1 X130.702 Y111.196 E19.65777
G1 X130.498 Y111.908 E19.67094
G1 X130.446 Y112.072 E19.67399
G1 X130.196 Y112.774 E19.68724
G1 X130.134 Y112.933 E19.69028
G1 X129.842 Y113.615 E19.70346
G1 X129.772 Y113.765 E19.70641
G1 X129.438 Y114.43 E19.71963
G1 X129.355 Y114.582 E19.72271
G1 X128.98 Y115.224 E19.73593
G1 X128.888 Y115.371 E19.73901
G1 X128.473 Y115.988 E19.75223
G1 X128.379 Y116.12 E19.75511
G1 X127.929 Y116.71 E19.7683
G1 X127.818 Y116.846 E19.77142
G1 X127.33 Y117.407 E19.78464
G1 X127.215 Y117.531 E19.78764
G1 X126.694 Y118.06 E19.80084
G1 X126.57 Y118.178 E19.80388
G1 X126.016 Y118.674 E19.8171
G1 X125.889 Y118.781 E19.82005
G1 X125.305 Y119.243 E19.83329
G1 X125.167 Y119.345 E19.83634
G1 X124.557 Y119.768 E19.84954
G1 X124.412 Y119.862 E19.85261
G1 X123.776 Y120.246 E19.86582
G1 X123.634 Y120.326 E19.86871
G1 X122.975 Y120.672 E19.88194
G1 X122.82 Y120.747 E19.885
G1 X122.142 Y121.05 E19.89821
G1 X121.981 Y121.116 E19.9013
G1 X121.283 Y121.376 E19.91454
G1 X121.127 Y121.429 E19.91747
G1 X120.416 Y121.646 E19.93068
G1 X120.252 Y121.69 E19.9337
G1 X119.531 Y121.862 E19.94688
G1 X119.36 Y121.898 E19.94998
G1 X118.626 Y122.024 E19.96322
G1 X118.461 Y122.047 E19.96618
G1 X117.722 Y122.128 E19.9794
G1 X117.553 Y122.141 E19.98241
G1 X116.81 Y122.176 E19.99563
G1 X116.638 Y122.179 E19.99869
G1 X115.897 Y122.167 E20.01186
G1 X115.728 Y122.159 E20.01487
G1 X114.987 Y122.101 E20.02808
G1 X114.822 Y122.083 E20.03103
G1 X114.086 Y121.98 E20.04425
G1 X113.915 Y121.95 E20.04733
G1 X113.185 Y121.8 E20.06058
G1 X113.021 Y121.761 E20.06358
G1 X112.304 Y121.567 E20.07678
G1 X112.142 Y121.518 E20.07979
G1 X111.439 Y121.28 E20.09298
G1 X111.277 Y121.219 E20.09606
G1 X110.588 Y120.936 E20.1093
G1 X110.438 Y120.869 E20.11222
G1 X109.769 Y120.546 E20.12542
G1 X109.613 Y120.465 E20.12855
G1 X108.967 Y120.1 E20.14174
G1 X108.823 Y120.012 E20.14474
G1 X108.198 Y119.606 E20.15799
G1 X108.063 Y119.513 E20.1609
G1 X107.466 Y119.072 E20.17409
G1 X107.33 Y118.964 E20.17718
G1 X106.761 Y118.485 E20.1904
G1 X106.631 Y118.369 E20.1935
G1 X106.095 Y117.856 E20.20669
G1 X105.979 Y117.738 E20.20963
G1 X105.473 Y117.191 E20.22288
G1 X105.364 Y117.065 E20.22584
G1 X104.893 Y116.489 E20.23906
G1 X104.787 Y116.352 E20.24214
G1 X104.354 Y115.748 E20.25535
G1 X104.259 Y115.606 E20.25839
G1 X103.865 Y114.977 E20.27158
G1 X103.781 Y114.833 E20.27455
G1 X103.425 Y114.179 E20.28778
G1 X103.346 Y114.022 E20.29091
G1 X103.035 Y113.351 E20.30405
G1 X102.97 Y113.199 E20.30699
G1 X102.698 Y112.505 E20.32024
G1 X102.642 Y112.347 E20.32322
G1 X102.414 Y111.64 E20.33643
G1 X102.366 Y111.474 E20.3395
G1 X102.183 Y110.753 E20.35272
G1 X102.146 Y110.587 E20.35575
G1 X102.008 Y109.856 E20.36897
G1 X101.982 Y109.688 E20.37199
G1 X101.89 Y108.951 E20.38519
G1 X101.874 Y108.782 E20.38821
G1 X101.828 Y108.042 E20.40139
G1 X101.823 Y107.873 E20.4044
G1 X101.823 Y107.128 E20.41764
G1 X101.828 Y106.959 E20.42065
G1 X101.874 Y106.218 E20.43384
G1 X101.89 Y106.049 E20.43686
G1 X101.982 Y105.312 E20.45006
G1 X102.008 Y105.147 E20.45303
G1 X102.145 Y104.416 E20.46625
G1 X102.183 Y104.244 E20.46938
G1 X102.367 Y103.523 E20.48261
G1 X102.414 Y103.36 E20.48563
G1 X102.642 Y102.653 E20.49883
G1 X102.698 Y102.495 E20.50181
G1 X102.97 Y101.801 E20.51506
G1 X103.037 Y101.646 E20.51806
G1 X103.349 Y100.975 E20.53122
G1 X103.425 Y100.824 E20.53422
G1 X103.78 Y100.17 E20.54745
G1 X103.865 Y100.023 E20.55047
G1 X104.259 Y99.394 E20.56366
G1 X104.354 Y99.252 E20.5667
G1 X104.787 Y98.648 E20.57991
G1 X104.893 Y98.511 E20.58299
G1 X105.364 Y97.935 E20.59622
G1 X105.471 Y97.811 E20.59913
G1 X105.976 Y97.264 E20.61236
M204 S625
M205 X6 Y6
G0 F4285.7 X106.285 Y97.549
M204 S500
M205 X5 Y5
G1 F1200 X106.386 Y97.446 E20.61492
G1 X106.923 Y96.933 E20.62813
G1 X107.031 Y96.836 E20.63071
G1 X107.6 Y96.357 E20.64393
G1 X107.715 Y96.266 E20.64653
G1 X108.312 Y95.825 E20.65973
G1 X108.427 Y95.746 E20.66221
G1 X109.052 Y95.34 E20.67546
G1 X109.174 Y95.266 E20.67799
G1 X109.82 Y94.901 E20.69118
G1 X109.952 Y94.832 E20.69383
G1 X110.621 Y94.509 E20.70704
G1 X110.745 Y94.453 E20.70945
G1 X111.434 Y94.169 E20.7227
G1 X111.576 Y94.116 E20.7254
G1 X112.279 Y93.879 E20.73858
G1 X112.417 Y93.837 E20.74115
G1 X113.134 Y93.644 E20.75435
G1 X113.266 Y93.613 E20.75676
G1 X113.996 Y93.462 E20.77001
G1 X114.144 Y93.436 E20.77268
G1 X114.88 Y93.333 E20.78589
G1 X115.02 Y93.318 E20.78839
G1 X115.761 Y93.26 E20.80161
G1 X115.904 Y93.253 E20.80415
G1 X116.645 Y93.241 E20.81732
G1 X116.791 Y93.244 E20.81992
G1 X117.534 Y93.279 E20.83314
G1 X117.677 Y93.29 E20.83569
G1 X118.416 Y93.371 E20.84891
G1 X118.552 Y93.39 E20.85135
G1 X119.286 Y93.515 E20.86458
G1 X119.437 Y93.546 E20.86732
G1 X120.158 Y93.719 E20.8805
G1 X120.293 Y93.756 E20.88299
G1 X121.004 Y93.973 E20.89621
G1 X121.136 Y94.017 E20.89868
G1 X121.834 Y94.277 E20.91192
G1 X121.971 Y94.333 E20.91455
G1 X122.649 Y94.636 E20.92775
G1 X122.78 Y94.7 E20.93034
G1 X123.439 Y95.046 E20.94357
G1 X123.559 Y95.113 E20.94602
G1 X124.195 Y95.497 E20.95922
G1 X124.317 Y95.577 E20.96182
G1 X124.927 Y96 E20.97501
G1 X125.044 Y96.086 E20.97759
G1 X125.627 Y96.547 E20.99081
G1 X125.735 Y96.638 E20.99332
G1 X126.289 Y97.134 E21.00653
G1 X126.394 Y97.234 E21.00911
G1 X126.915 Y97.763 E21.02231
G1 X127.012 Y97.868 E21.02485
G1 X127.5 Y98.429 E21.03807
G1 X127.594 Y98.544 E21.04071
G1 X128.044 Y99.134 E21.0539
G1 X128.123 Y99.245 E21.05632
G1 X128.539 Y99.863 E21.06956
G1 X128.618 Y99.989 E21.07221
G1 X128.992 Y100.63 E21.0854
G1 X129.061 Y100.756 E21.08795
G1 X129.396 Y101.422 E21.1012
G1 X129.456 Y101.551 E21.10373
G1 X129.748 Y102.233 E21.11692
G1 X129.8 Y102.366 E21.11946
G1 X130.05 Y103.067 E21.13269
G1 X130.095 Y103.208 E21.13532
G1 X130.299 Y103.921 E21.1485
G1 X130.333 Y104.053 E21.15093
G1 X130.495 Y104.779 E21.16415
G1 X130.522 Y104.925 E21.16679
G1 X130.637 Y105.66 E21.18001
G1 X130.655 Y105.803 E21.18257
G1 X130.724 Y106.543 E21.19579
G1 X130.733 Y106.685 E21.19831
G1 X130.756 Y107.427 E21.21151
G1 X130.756 Y107.57 E21.21405
G1 X130.733 Y108.313 E21.22727
G1 X130.724 Y108.456 E21.22981
G1 X130.655 Y109.196 E21.24303
G1 X130.637 Y109.339 E21.24559
G1 X130.522 Y110.074 E21.25881
G1 X130.495 Y110.219 E21.26143
G1 X130.333 Y110.946 E21.27467
G1 X130.299 Y111.08 E21.27713
G1 X130.095 Y111.792 E21.2903
G1 X130.05 Y111.931 E21.29289
G1 X129.8 Y112.633 E21.30614
G1 X129.748 Y112.767 E21.3087
G1 X129.456 Y113.449 E21.32188
G1 X129.396 Y113.577 E21.3244
G1 X129.062 Y114.242 E21.33762
G1 X128.993 Y114.37 E21.34021
G1 X128.618 Y115.012 E21.35343
G1 X128.54 Y115.136 E21.35603
G1 X128.125 Y115.753 E21.36925
G1 X128.045 Y115.865 E21.37169
G1 X127.595 Y116.455 E21.38488
G1 X127.501 Y116.57 E21.38752
G1 X127.013 Y117.131 E21.40074
G1 X126.916 Y117.236 E21.40328
G1 X126.395 Y117.765 E21.41648
G1 X126.29 Y117.865 E21.41906
G1 X125.736 Y118.361 E21.43228
G1 X125.628 Y118.452 E21.43479
G1 X125.044 Y118.914 E21.44802
G1 X124.927 Y119 E21.45061
G1 X124.317 Y119.423 E21.4638
G1 X124.195 Y119.503 E21.46639
G1 X123.559 Y119.887 E21.4796
G1 X123.439 Y119.954 E21.48204
G1 X122.78 Y120.3 E21.49527
G1 X122.649 Y120.364 E21.49787
G1 X121.971 Y120.667 E21.51107
G1 X121.834 Y120.723 E21.5137
G1 X121.136 Y120.983 E21.52694
G1 X121.004 Y121.027 E21.52941
G1 X120.293 Y121.244 E21.54263
G1 X120.155 Y121.282 E21.54517
G1 X119.434 Y121.454 E21.55835
G1 X119.289 Y121.484 E21.56098
G1 X118.555 Y121.61 E21.57422
G1 X118.416 Y121.629 E21.57671
G1 X117.677 Y121.71 E21.58993
G1 X117.534 Y121.721 E21.59248
G1 X116.791 Y121.756 E21.6057
G1 X116.645 Y121.759 E21.60829
G1 X115.904 Y121.747 E21.62147
G1 X115.761 Y121.74 E21.62401
G1 X115.02 Y121.682 E21.63722
G1 X114.88 Y121.667 E21.63973
G1 X114.144 Y121.564 E21.65294
G1 X113.999 Y121.539 E21.65555
G1 X113.269 Y121.389 E21.6688
G1 X113.131 Y121.356 E21.67132
G1 X112.414 Y121.162 E21.68453
G1 X112.276 Y121.12 E21.68709
G1 X111.573 Y120.882 E21.70028
G1 X111.436 Y120.831 E21.70288
G1 X110.747 Y120.548 E21.71612
G1 X110.621 Y120.491 E21.71858
G1 X109.952 Y120.168 E21.73179
G1 X109.82 Y120.099 E21.73443
G1 X109.174 Y119.734 E21.74762
G1 X109.052 Y119.66 E21.75016
G1 X108.427 Y119.254 E21.76341
G1 X108.312 Y119.175 E21.76589
G1 X107.715 Y118.734 E21.77908
G1 X107.6 Y118.643 E21.78169
G1 X107.031 Y118.164 E21.79491
G1 X106.922 Y118.066 E21.79752
G1 X106.386 Y117.553 E21.81071
G1 X106.287 Y117.453 E21.81321
G1 X105.781 Y116.906 E21.82645
G1 X105.689 Y116.799 E21.82896
G1 X105.218 Y116.223 E21.84219
G1 X105.129 Y116.107 E21.84479
G1 X104.696 Y115.503 E21.858
G1 X104.615 Y115.383 E21.86057
G1 X104.221 Y114.754 E21.87376
G1 X104.15 Y114.632 E21.87627
G1 X103.794 Y113.978 E21.88951
G1 X103.727 Y113.845 E21.89216
G1 X103.416 Y113.174 E21.9053
G1 X103.361 Y113.046 E21.90778
G1 X103.089 Y112.352 E21.92103
G1 X103.041 Y112.218 E21.92356
G1 X102.813 Y111.511 E21.93676
G1 X102.773 Y111.37 E21.93937
G1 X102.59 Y110.649 E21.95259
G1 X102.559 Y110.51 E21.95512
G1 X102.421 Y109.779 E21.96835
G1 X102.399 Y109.636 E21.97092
G1 X102.307 Y108.899 E21.98412
G1 X102.293 Y108.756 E21.98668
G1 X102.247 Y108.016 E21.99986
G1 X102.243 Y107.873 E22.0024
G1 X102.243 Y107.128 E22.01564
G1 X102.247 Y106.985 E22.01819
G1 X102.293 Y106.244 E22.03138
G1 X102.307 Y106.101 E22.03394
G1 X102.399 Y105.364 E22.04714
G1 X102.421 Y105.224 E22.04966
G1 X102.558 Y104.493 E22.06288
G1 X102.59 Y104.348 E22.06552
G1 X102.774 Y103.627 E22.07875
G1 X102.813 Y103.489 E22.0813
G1 X103.041 Y102.782 E22.0945
G1 X103.089 Y102.648 E22.09703
G1 X103.361 Y101.954 E22.11028
G1 X103.417 Y101.823 E22.11281
G1 X103.729 Y101.152 E22.12597
G1 X103.794 Y101.024 E22.12852
G1 X104.149 Y100.37 E22.14175
G1 X104.221 Y100.246 E22.1443
G1 X104.615 Y99.617 E22.15749
G1 X104.696 Y99.497 E22.16006
G1 X105.129 Y98.893 E22.17327
G1 X105.218 Y98.777 E22.17587
G1 X105.689 Y98.201 E22.1891
G1 X105.78 Y98.096 E22.19157
G1 X106.285 Y97.549 E22.2048
M204 S625
M205 X6 Y6
G0 F4285.7 X106.593 Y97.834
M204 S500
M205 X5 Y5
G1 F1200 X106.676 Y97.749 E22.20691
G1 X107.213 Y97.236 E22.22012
G1 X107.302 Y97.157 E22.22223
G1 X107.871 Y96.678 E22.23545
G1 X107.965 Y96.604 E22.23758
G1 X108.562 Y96.163 E22.25077
G1 X108.655 Y96.098 E22.25279
G1 X109.28 Y95.692 E22.26604
G1 X109.38 Y95.631 E22.26812
G1 X110.026 Y95.266 E22.28131
G1 X110.134 Y95.21 E22.28347
G1 X110.803 Y94.887 E22.29668
G1 X110.905 Y94.842 E22.29866
G1 X111.594 Y94.558 E22.31191
G1 X111.71 Y94.514 E22.31411
G1 X112.413 Y94.277 E22.3273
G1 X112.526 Y94.243 E22.3294
G1 X113.243 Y94.05 E22.3426
G1 X113.351 Y94.024 E22.34457
G1 X114.081 Y93.873 E22.35782
G1 X114.202 Y93.852 E22.36001
G1 X114.938 Y93.749 E22.37322
G1 X115.053 Y93.737 E22.37527
G1 X115.794 Y93.679 E22.38848
G1 X115.91 Y93.673 E22.39055
G1 X116.651 Y93.661 E22.40372
G1 X116.771 Y93.663 E22.40586
G1 X117.514 Y93.698 E22.41908
G1 X117.631 Y93.707 E22.42116
G1 X118.37 Y93.788 E22.43438
G1 X118.481 Y93.804 E22.43637
G1 X119.215 Y93.929 E22.44961
G1 X119.339 Y93.954 E22.45186
G1 X120.06 Y94.127 E22.46504
G1 X120.171 Y94.157 E22.46708
G1 X120.882 Y94.374 E22.48029
G1 X120.99 Y94.411 E22.48232
G1 X121.688 Y94.671 E22.49556
G1 X121.799 Y94.716 E22.49769
G1 X122.477 Y95.019 E22.51089
G1 X122.585 Y95.072 E22.51303
G1 X123.244 Y95.418 E22.52626
G1 X123.342 Y95.473 E22.52826
G1 X123.978 Y95.857 E22.54147
G1 X124.078 Y95.922 E22.54359
G1 X124.688 Y96.345 E22.55678
G1 X124.783 Y96.415 E22.55888
G1 X125.366 Y96.876 E22.57209
G1 X125.455 Y96.951 E22.57416
G1 X126.009 Y97.447 E22.58738
G1 X126.095 Y97.529 E22.58949
G1 X126.616 Y98.058 E22.60269
G1 X126.695 Y98.144 E22.60477
G1 X127.183 Y98.705 E22.61798
G1 X127.26 Y98.799 E22.62014
G1 X127.71 Y99.389 E22.63333
G1 X127.775 Y99.48 E22.63532
G1 X128.191 Y100.098 E22.64856
G1 X128.255 Y100.201 E22.65072
G1 X128.629 Y100.842 E22.66391
G1 X128.685 Y100.945 E22.666
G1 X129.02 Y101.611 E22.67925
G1 X129.069 Y101.716 E22.68131
G1 X129.361 Y102.398 E22.6945
G1 X129.404 Y102.507 E22.69658
G1 X129.654 Y103.208 E22.70981
G1 X129.691 Y103.323 E22.71196
G1 X129.895 Y104.036 E22.72514
G1 X129.923 Y104.144 E22.72712
G1 X130.085 Y104.87 E22.74034
G1 X130.107 Y104.99 E22.74251
G1 X130.222 Y105.725 E22.75574
G1 X130.237 Y105.842 E22.75783
G1 X130.306 Y106.582 E22.77105
G1 X130.313 Y106.698 E22.77311
G1 X130.336 Y107.44 E22.78631
G1 X130.336 Y107.557 E22.78839
G1 X130.313 Y108.3 E22.8016
G1 X130.306 Y108.417 E22.80368
G1 X130.237 Y109.157 E22.8169
G1 X130.222 Y109.274 E22.81899
G1 X130.107 Y110.009 E22.83222
G1 X130.085 Y110.128 E22.83437
G1 X129.923 Y110.855 E22.84761
G1 X129.895 Y110.965 E22.84963
G1 X129.691 Y111.677 E22.86279
G1 X129.654 Y111.79 E22.8649
G1 X129.404 Y112.492 E22.87815
G1 X129.361 Y112.602 E22.88025
G1 X129.069 Y113.284 E22.89344
G1 X129.021 Y113.388 E22.89547
G1 X128.687 Y114.053 E22.9087
G1 X128.63 Y114.158 E22.91083
G1 X128.255 Y114.8 E22.92404
G1 X128.191 Y114.902 E22.92618
G1 X127.776 Y115.519 E22.9394
G1 X127.711 Y115.61 E22.94139
G1 X127.261 Y116.2 E22.95458
G1 X127.184 Y116.294 E22.95674
G1 X126.696 Y116.855 E22.96996
G1 X126.617 Y116.941 E22.97203
G1 X126.096 Y117.47 E22.98523
G1 X126.01 Y117.552 E22.98734
G1 X125.456 Y118.048 E23.00056
G1 X125.368 Y118.122 E23.00261
G1 X124.784 Y118.584 E23.01584
G1 X124.688 Y118.655 E23.01796
G1 X124.078 Y119.078 E23.03116
G1 X123.978 Y119.143 E23.03328
G1 X123.342 Y119.527 E23.04649
G1 X123.244 Y119.582 E23.04848
G1 X122.585 Y119.928 E23.06171
G1 X122.477 Y119.981 E23.06385
G1 X121.799 Y120.284 E23.07705
G1 X121.688 Y120.329 E23.07918
G1 X120.99 Y120.589 E23.09242
G1 X120.882 Y120.626 E23.09445
G1 X120.171 Y120.843 E23.10767
G1 X120.058 Y120.873 E23.10975
G1 X119.337 Y121.045 E23.12292
G1 X119.218 Y121.07 E23.12508
G1 X118.484 Y121.196 E23.13832
G1 X118.37 Y121.212 E23.14037
G1 X117.631 Y121.293 E23.15358
G1 X117.514 Y121.302 E23.15567
G1 X116.771 Y121.337 E23.16889
G1 X116.651 Y121.339 E23.17102
G1 X115.91 Y121.327 E23.1842
G1 X115.794 Y121.321 E23.18626
G1 X115.053 Y121.263 E23.19948
G1 X114.938 Y121.251 E23.20153
G1 X114.202 Y121.148 E23.21474
G1 X114.084 Y121.127 E23.21687
G1 X113.354 Y120.977 E23.23012
G1 X113.24 Y120.95 E23.2322
G1 X112.523 Y120.756 E23.24541
G1 X112.411 Y120.722 E23.24749
G1 X111.708 Y120.484 E23.26068
G1 X111.596 Y120.442 E23.26281
G1 X110.907 Y120.159 E23.27605
G1 X110.803 Y120.113 E23.27807
G1 X110.134 Y119.79 E23.29127
G1 X110.026 Y119.734 E23.29344
G1 X109.38 Y119.369 E23.30663
G1 X109.28 Y119.308 E23.30871
G1 X108.655 Y118.902 E23.32196
G1 X108.562 Y118.837 E23.32397
G1 X107.965 Y118.396 E23.33717
G1 X107.871 Y118.322 E23.33929
G1 X107.302 Y117.843 E23.35251
G1 X107.212 Y117.762 E23.35467
G1 X106.676 Y117.249 E23.36786
G1 X106.596 Y117.167 E23.36989
G1 X106.09 Y116.62 E23.38314
G1 X106.014 Y116.533 E23.38519
G1 X105.543 Y115.957 E23.39842
G1 X105.47 Y115.862 E23.40055
G1 X105.037 Y115.258 E23.41376
G1 X104.971 Y115.16 E23.41586
G1 X104.577 Y114.531 E23.42905
G1 X104.519 Y114.432 E23.43109
G1 X104.163 Y113.778 E23.44433
G1 X104.108 Y113.669 E23.4465
G1 X103.797 Y112.998 E23.45964
G1 X103.752 Y112.893 E23.46168
G1 X103.48 Y112.199 E23.47493
G1 X103.441 Y112.089 E23.477
G1 X103.213 Y111.382 E23.4902
G1 X103.18 Y111.267 E23.49233
G1 X102.997 Y110.546 E23.50555
G1 X102.972 Y110.432 E23.50763
G1 X102.834 Y109.701 E23.52085
G1 X102.816 Y109.584 E23.52296
G1 X102.724 Y108.847 E23.53616
G1 X102.713 Y108.73 E23.53825
G1 X102.667 Y107.99 E23.55143
G1 X102.663 Y107.873 E23.55351
G1 X102.663 Y107.128 E23.56675
G1 X102.667 Y107.011 E23.56883
G1 X102.713 Y106.27 E23.58203
G1 X102.724 Y106.153 E23.58412
G1 X102.816 Y105.416 E23.59732
G1 X102.833 Y105.302 E23.59937
G1 X102.97 Y104.571 E23.61259
G1 X102.997 Y104.452 E23.61476
G1 X103.181 Y103.731 E23.62799
G1 X103.213 Y103.618 E23.63008
G1 X103.441 Y102.911 E23.64328
G1 X103.48 Y102.801 E23.64536
G1 X103.752 Y102.107 E23.65861
G1 X103.798 Y102 E23.66068
G1 X104.11 Y101.329 E23.67383
G1 X104.163 Y101.224 E23.67592
G1 X104.518 Y100.57 E23.68915
G1 X104.577 Y100.469 E23.69123
G1 X104.971 Y99.84 E23.70442
G1 X105.037 Y99.742 E23.70652
G1 X105.47 Y99.138 E23.71973
G1 X105.543 Y99.043 E23.72186
G1 X106.014 Y98.467 E23.73509
G1 X106.088 Y98.381 E23.7371
G1 X106.593 Y97.834 E23.75034
M204 S625
M205 X6 Y6
G0 F4285.7 X106.902 Y98.119
M204 S500
M205 X5 Y5
G1 F1200 X106.967 Y98.053 E23.75199
G1 X107.504 Y97.54 E23.76519
G1 X107.572 Y97.478 E23.76682
G1 X108.141 Y96.999 E23.78004
G1 X108.215 Y96.942 E23.7817
G1 X108.812 Y96.501 E23.7949
G1 X108.884 Y96.45 E23.79647
G1 X109.509 Y96.044 E23.80971
G1 X109.587 Y95.997 E23.81133
G1 X110.233 Y95.632 E23.82452
G1 X110.317 Y95.588 E23.82621
G1 X110.986 Y95.265 E23.83941
G1 X111.065 Y95.23 E23.84095
G1 X111.754 Y94.946 E23.8542
G1 X111.844 Y94.912 E23.85591
G1 X112.547 Y94.675 E23.8691
G1 X112.635 Y94.649 E23.87073
G1 X113.352 Y94.456 E23.88393
G1 X113.436 Y94.435 E23.88546
G1 X114.166 Y94.284 E23.89872
G1 X114.26 Y94.268 E23.90041
G1 X114.996 Y94.165 E23.91362
G1 X115.085 Y94.155 E23.91521
G1 X115.826 Y94.097 E23.92843
G1 X115.917 Y94.093 E23.93004
G1 X116.658 Y94.081 E23.94322
G1 X116.751 Y94.083 E23.94487
G1 X117.494 Y94.118 E23.95809
G1 X117.585 Y94.125 E23.95972
G1 X118.324 Y94.206 E23.97293
G1 X118.411 Y94.218 E23.97449
G1 X119.145 Y94.343 E23.98773
G1 X119.241 Y94.363 E23.98947
G1 X119.962 Y94.536 E24.00265
G1 X120.048 Y94.559 E24.00423
G1 X120.759 Y94.776 E24.01745
G1 X120.843 Y94.804 E24.01902
G1 X121.541 Y95.064 E24.03226
G1 X121.628 Y95.1 E24.03394
G1 X122.306 Y95.403 E24.04714
G1 X122.389 Y95.443 E24.04878
G1 X123.048 Y95.789 E24.06201
G1 X123.125 Y95.833 E24.06358
G1 X123.761 Y96.217 E24.07679
G1 X123.839 Y96.267 E24.07844
G1 X124.449 Y96.69 E24.09163
G1 X124.523 Y96.745 E24.09327
G1 X125.106 Y97.206 E24.10648
G1 X125.175 Y97.264 E24.10808
G1 X125.729 Y97.76 E24.1213
G1 X125.795 Y97.824 E24.12294
G1 X126.316 Y98.353 E24.13613
G1 X126.378 Y98.419 E24.13774
G1 X126.866 Y98.98 E24.15096
G1 X126.926 Y99.054 E24.15266
G1 X127.376 Y99.644 E24.16585
G1 X127.426 Y99.714 E24.16737
G1 X127.842 Y100.332 E24.18062
G1 X127.893 Y100.412 E24.1823
G1 X128.267 Y101.053 E24.1955
G1 X128.31 Y101.133 E24.19711
G1 X128.645 Y101.799 E24.21036
G1 X128.683 Y101.881 E24.21197
G1 X128.975 Y102.563 E24.22516
G1 X129.009 Y102.648 E24.22678
G1 X129.259 Y103.349 E24.24001
G1 X129.287 Y103.439 E24.24169
G1 X129.491 Y104.152 E24.25487
G1 X129.513 Y104.236 E24.25642
G1 X129.675 Y104.962 E24.26964
G1 X129.692 Y105.055 E24.27132
G1 X129.807 Y105.79 E24.28454
G1 X129.819 Y105.881 E24.28617
G1 X129.888 Y106.621 E24.29939
G1 X129.893 Y106.711 E24.30099
G1 X129.916 Y107.453 E24.31418
G1 X129.916 Y107.544 E24.3158
G1 X129.893 Y108.287 E24.32902
G1 X129.888 Y108.378 E24.33064
G1 X129.819 Y109.118 E24.34385
G1 X129.807 Y109.209 E24.34548
G1 X129.692 Y109.944 E24.3587
G1 X129.675 Y110.037 E24.36038
G1 X129.513 Y110.764 E24.37362
G1 X129.491 Y110.849 E24.37518
G1 X129.287 Y111.561 E24.38835
G1 X129.259 Y111.649 E24.38999
G1 X129.009 Y112.351 E24.40324
G1 X128.975 Y112.437 E24.40488
G1 X128.683 Y113.119 E24.41807
G1 X128.646 Y113.2 E24.41965
G1 X128.312 Y113.865 E24.43288
G1 X128.267 Y113.946 E24.43453
G1 X127.892 Y114.588 E24.44774
G1 X127.843 Y114.667 E24.4494
G1 X127.428 Y115.284 E24.46261
G1 X127.377 Y115.355 E24.46417
G1 X126.927 Y115.945 E24.47736
G1 X126.867 Y116.019 E24.47905
G1 X126.379 Y116.58 E24.49227
G1 X126.317 Y116.646 E24.49388
G1 X125.796 Y117.175 E24.50708
G1 X125.73 Y117.239 E24.50871
G1 X125.176 Y117.735 E24.52193
G1 X125.107 Y117.793 E24.52353
G1 X124.523 Y118.255 E24.53677
G1 X124.449 Y118.31 E24.53841
G1 X123.839 Y118.733 E24.5516
G1 X123.761 Y118.783 E24.55325
G1 X123.125 Y119.167 E24.56646
G1 X123.048 Y119.211 E24.56803
G1 X122.389 Y119.557 E24.58126
G1 X122.306 Y119.597 E24.5829
G1 X121.628 Y119.9 E24.5961
G1 X121.541 Y119.936 E24.59778
G1 X120.843 Y120.196 E24.61102
G1 X120.759 Y120.224 E24.61259
G1 X120.048 Y120.441 E24.62581
G1 X119.96 Y120.465 E24.62743
G1 X119.239 Y120.637 E24.6406
G1 X119.147 Y120.656 E24.64227
G1 X118.413 Y120.782 E24.65551
G1 X118.324 Y120.794 E24.65711
G1 X117.585 Y120.875 E24.67032
G1 X117.494 Y120.882 E24.67195
G1 X116.751 Y120.917 E24.68517
G1 X116.658 Y120.919 E24.68682
G1 X115.917 Y120.907 E24.69999
G1 X115.826 Y120.903 E24.70161
G1 X115.085 Y120.845 E24.71483
G1 X114.996 Y120.835 E24.71642
G1 X114.26 Y120.732 E24.72963
G1 X114.168 Y120.716 E24.73129
G1 X113.438 Y120.566 E24.74454
G1 X113.35 Y120.545 E24.74614
G1 X112.633 Y120.351 E24.75935
G1 X112.546 Y120.324 E24.76097
G1 X111.843 Y120.086 E24.77416
G1 X111.755 Y120.054 E24.77583
G1 X111.066 Y119.771 E24.78907
G1 X110.986 Y119.735 E24.79063
G1 X110.317 Y119.412 E24.80383
G1 X110.233 Y119.368 E24.80552
G1 X109.587 Y119.003 E24.81871
G1 X109.509 Y118.956 E24.82032
G1 X108.884 Y118.55 E24.83357
G1 X108.812 Y118.499 E24.83514
G1 X108.215 Y118.058 E24.84834
G1 X108.141 Y118.001 E24.85
G1 X107.572 Y117.522 E24.86322
G1 X107.503 Y117.459 E24.86488
G1 X106.967 Y116.946 E24.87807
G1 X106.904 Y116.882 E24.87966
G1 X106.398 Y116.335 E24.89291
G1 X106.339 Y116.268 E24.8945
G1 X105.868 Y115.692 E24.90772
G1 X105.811 Y115.617 E24.9094
G1 X105.378 Y115.013 E24.92261
G1 X105.327 Y114.937 E24.92423
G1 X104.933 Y114.308 E24.93743
G1 X104.888 Y114.231 E24.93901
G1 X104.532 Y113.577 E24.95225
G1 X104.489 Y113.492 E24.95394
G1 X104.178 Y112.821 E24.96709
G1 X104.143 Y112.739 E24.96867
G1 X103.871 Y112.045 E24.98192
G1 X103.841 Y111.96 E24.98353
G1 X103.613 Y111.253 E24.99673
G1 X103.587 Y111.164 E24.99838
G1 X103.404 Y110.443 E25.0116
G1 X103.385 Y110.354 E25.01322
G1 X103.247 Y109.623 E25.02644
G1 X103.232 Y109.532 E25.02808
G1 X103.14 Y108.795 E25.04129
G1 X103.132 Y108.704 E25.04291
G1 X103.086 Y107.964 E25.05609
G1 X103.083 Y107.873 E25.05771
G1 X103.083 Y107.128 E25.07095
G1 X103.086 Y107.037 E25.07257
G1 X103.132 Y106.296 E25.08577
G1 X103.14 Y106.205 E25.08739
G1 X103.232 Y105.468 E25.10059
G1 X103.246 Y105.379 E25.10219
G1 X103.383 Y104.648 E25.11541
G1 X103.404 Y104.556 E25.11709
G1 X103.588 Y103.835 E25.13032
G1 X103.613 Y103.747 E25.13195
G1 X103.841 Y103.04 E25.14515
G1 X103.871 Y102.955 E25.14675
G1 X104.143 Y102.261 E25.16
G1 X104.179 Y102.177 E25.16163
G1 X104.491 Y101.506 E25.17478
G1 X104.532 Y101.425 E25.1764
G1 X104.887 Y100.771 E25.18962
G1 X104.933 Y100.692 E25.19125
G1 X105.327 Y100.063 E25.20444
G1 X105.378 Y99.987 E25.20607
G1 X105.811 Y99.383 E25.21928
G1 X105.868 Y99.308 E25.22095
G1 X106.339 Y98.732 E25.23418
G1 X106.397 Y98.666 E25.23574
G1 X106.902 Y98.119 E25.24898
M204 S625
M205 X6 Y6
G0 F4285.7 X107.211 Y98.404
M204 S500
M205 X5 Y5
G1 F1200 X107.257 Y98.357 E25.25014
G1 X107.794 Y97.844 E25.26335
G1 X107.843 Y97.8 E25.26452
G1 X108.412 Y97.321 E25.27774
G1 X108.464 Y97.279 E25.27893
G1 X109.061 Y96.838 E25.29212
G1 X109.113 Y96.802 E25.29324
G1 X109.738 Y96.396 E25.30649
G1 X109.793 Y96.363 E25.30763
G1 X110.439 Y95.998 E25.32082
G1 X110.499 Y95.966 E25.32203
G1 X111.168 Y95.643 E25.33524
G1 X111.225 Y95.618 E25.33634
G1 X111.914 Y95.334 E25.34959
G1 X111.979 Y95.31 E25.35082
G1 X112.682 Y95.073 E25.36401
G1 X112.744 Y95.054 E25.36516
G1 X113.461 Y94.861 E25.37836
G1 X113.521 Y94.847 E25.37946
G1 X114.251 Y94.696 E25.39271
G1 X114.318 Y94.684 E25.39392
G1 X115.054 Y94.581 E25.40713
G1 X115.118 Y94.574 E25.40827
G1 X115.859 Y94.516 E25.42149
G1 X115.924 Y94.513 E25.42264
G1 X116.665 Y94.501 E25.43582
G1 X116.731 Y94.502 E25.43699
G1 X117.474 Y94.537 E25.45021
G1 X117.539 Y94.542 E25.45137
G1 X118.278 Y94.623 E25.46459
G1 X118.34 Y94.632 E25.4657
G1 X119.074 Y94.757 E25.47893
G1 X119.143 Y94.771 E25.48019
G1 X119.864 Y94.944 E25.49337
G1 X119.926 Y94.961 E25.49451
G1 X120.637 Y95.178 E25.50772
G1 X120.697 Y95.198 E25.50885
G1 X121.395 Y95.458 E25.52209
G1 X121.456 Y95.483 E25.52326
G1 X122.134 Y95.786 E25.53646
G1 X122.194 Y95.815 E25.53765
G1 X122.853 Y96.161 E25.55088
G1 X122.908 Y96.192 E25.552
G1 X123.544 Y96.576 E25.5652
G1 X123.599 Y96.612 E25.56637
G1 X124.209 Y97.035 E25.57957
G1 X124.262 Y97.074 E25.58074
G1 X124.845 Y97.535 E25.59395
G1 X124.894 Y97.577 E25.5951
G1 X125.448 Y98.073 E25.60832
G1 X125.496 Y98.118 E25.60948
G1 X126.017 Y98.647 E25.62268
G1 X126.061 Y98.695 E25.62384
G1 X126.549 Y99.256 E25.63706
G1 X126.592 Y99.308 E25.63826
G1 X127.042 Y99.898 E25.65145
G1 X127.078 Y99.949 E25.65256
G1 X127.494 Y100.567 E25.6658
G1 X127.53 Y100.624 E25.667
G1 X127.904 Y101.265 E25.68019
G1 X127.935 Y101.322 E25.68134
G1 X128.27 Y101.988 E25.6946
G1 X128.297 Y102.047 E25.69575
G1 X128.589 Y102.729 E25.70894
G1 X128.613 Y102.789 E25.71009
G1 X128.863 Y103.49 E25.72332
G1 X128.883 Y103.554 E25.72451
G1 X129.087 Y104.267 E25.73769
G1 X129.103 Y104.327 E25.73879
G1 X129.265 Y105.053 E25.75202
G1 X129.277 Y105.12 E25.75323
G1 X129.392 Y105.855 E25.76645
G1 X129.4 Y105.92 E25.76762
G1 X129.469 Y106.66 E25.78083
G1 X129.473 Y106.724 E25.78197
G1 X129.496 Y107.466 E25.79516
G1 X129.496 Y107.531 E25.79632
G1 X129.473 Y108.274 E25.80953
G1 X129.469 Y108.339 E25.81069
G1 X129.4 Y109.079 E25.8239
G1 X129.392 Y109.144 E25.82506
G1 X129.277 Y109.879 E25.83829
G1 X129.265 Y109.945 E25.83948
G1 X129.103 Y110.672 E25.85272
G1 X129.087 Y110.733 E25.85384
G1 X128.883 Y111.445 E25.86701
G1 X128.863 Y111.508 E25.86818
G1 X128.613 Y112.21 E25.88143
G1 X128.589 Y112.271 E25.8826
G1 X128.297 Y112.953 E25.89578
G1 X128.27 Y113.011 E25.89692
G1 X127.936 Y113.676 E25.91015
G1 X127.905 Y113.735 E25.91133
G1 X127.53 Y114.377 E25.92455
G1 X127.494 Y114.433 E25.92573
G1 X127.079 Y115.05 E25.93895
G1 X127.043 Y115.101 E25.94006
G1 X126.593 Y115.691 E25.95325
G1 X126.55 Y115.743 E25.95445
G1 X126.062 Y116.304 E25.96767
G1 X126.018 Y116.352 E25.96882
G1 X125.497 Y116.881 E25.98202
G1 X125.449 Y116.926 E25.98319
G1 X124.895 Y117.422 E25.99641
G1 X124.846 Y117.463 E25.99755
G1 X124.262 Y117.925 E26.01078
G1 X124.209 Y117.965 E26.01196
G1 X123.599 Y118.388 E26.02516
G1 X123.544 Y118.424 E26.02633
G1 X122.908 Y118.808 E26.03953
G1 X122.853 Y118.839 E26.04066
G1 X122.194 Y119.185 E26.05389
G1 X122.134 Y119.214 E26.05507
G1 X121.456 Y119.517 E26.06827
G1 X121.395 Y119.542 E26.06944
G1 X120.697 Y119.802 E26.08268
G1 X120.637 Y119.822 E26.08381
G1 X119.926 Y120.039 E26.09702
G1 X119.863 Y120.056 E26.09818
G1 X119.142 Y120.228 E26.11136
G1 X119.076 Y120.242 E26.11256
G1 X118.342 Y120.368 E26.1258
G1 X118.278 Y120.377 E26.12695
G1 X117.539 Y120.458 E26.14016
G1 X117.474 Y120.463 E26.14132
G1 X116.731 Y120.498 E26.15454
G1 X116.665 Y120.499 E26.15572
G1 X115.924 Y120.487 E26.16889
G1 X115.859 Y120.484 E26.17005
G1 X115.118 Y120.426 E26.18326
G1 X115.054 Y120.419 E26.1844
G1 X114.318 Y120.316 E26.19761
G1 X114.253 Y120.305 E26.19879
G1 X113.523 Y120.155 E26.21203
G1 X113.46 Y120.14 E26.21318
G1 X112.743 Y119.946 E26.22639
G1 X112.68 Y119.927 E26.22756
G1 X111.977 Y119.689 E26.24075
G1 X111.915 Y119.665 E26.24193
G1 X111.226 Y119.382 E26.25517
G1 X111.168 Y119.357 E26.2563
G1 X110.499 Y119.034 E26.2695
G1 X110.439 Y119.002 E26.27071
G1 X109.793 Y118.637 E26.2839
G1 X109.738 Y118.604 E26.28504
G1 X109.113 Y118.198 E26.29829
G1 X109.061 Y118.162 E26.29941
G1 X108.464 Y117.721 E26.31261
G1 X108.412 Y117.679 E26.31379
G1 X107.843 Y117.2 E26.32702
G1 X107.793 Y117.156 E26.3282
G1 X107.257 Y116.643 E26.34139
G1 X107.212 Y116.597 E26.34253
G1 X106.706 Y116.05 E26.35578
G1 X106.664 Y116.002 E26.35691
G1 X106.193 Y115.426 E26.37014
G1 X106.153 Y115.373 E26.37132
G1 X105.72 Y114.769 E26.38453
G1 X105.683 Y114.714 E26.38571
G1 X105.289 Y114.085 E26.3989
G1 X105.257 Y114.03 E26.40003
G1 X104.901 Y113.376 E26.41327
G1 X104.87 Y113.316 E26.41447
G1 X104.559 Y112.645 E26.42761
G1 X104.534 Y112.586 E26.42875
G1 X104.262 Y111.892 E26.442
G1 X104.241 Y111.831 E26.44315
G1 X104.013 Y111.124 E26.45636
G1 X103.994 Y111.06 E26.45754
G1 X103.811 Y110.339 E26.47077
G1 X103.797 Y110.276 E26.47191
G1 X103.659 Y109.545 E26.48514
G1 X103.649 Y109.48 E26.48631
G1 X103.557 Y108.743 E26.49951
G1 X103.551 Y108.678 E26.50067
G1 X103.505 Y107.938 E26.51385
G1 X103.503 Y107.873 E26.515
G1 X103.503 Y107.128 E26.52825
G1 X103.505 Y107.063 E26.5294
G1 X103.551 Y106.322 E26.5426
G1 X103.557 Y106.257 E26.54376
G1 X103.649 Y105.52 E26.55696
G1 X103.659 Y105.457 E26.5581
G1 X103.796 Y104.726 E26.57132
G1 X103.811 Y104.659 E26.57254
G1 X103.995 Y103.938 E26.58577
G1 X104.013 Y103.876 E26.58691
G1 X104.241 Y103.169 E26.60012
G1 X104.262 Y103.108 E26.60126
G1 X104.534 Y102.414 E26.61452
G1 X104.56 Y102.354 E26.61568
G1 X104.872 Y101.683 E26.62883
G1 X104.901 Y101.625 E26.62998
G1 X105.256 Y100.971 E26.64321
G1 X105.289 Y100.915 E26.64437
G1 X105.683 Y100.286 E26.65756
G1 X105.72 Y100.231 E26.65874
G1 X106.153 Y99.627 E26.67195
G1 X106.193 Y99.574 E26.67313
G1 X106.664 Y98.998 E26.68636
G1 X107.211 Y98.404 E26.70071
M204 S625
M205 X6 Y6
G0 F4285.7 X107.519 Y98.689
M204 S500
M205 X5 Y5
G1 F1200 X107.547 Y98.66 E26.70143
G1 X108.084 Y98.147 E26.71463
G1 X108.113 Y98.121 E26.71532
G1 X108.682 Y97.642 E26.72854
G1 X108.714 Y97.617 E26.72926
G1 X109.311 Y97.176 E26.74246
G1 X110 Y96.728 E26.75707
G1 X110.646 Y96.363 E26.77026
G1 X111.351 Y96.022 E26.78418
G1 X112.074 Y95.723 E26.79808
G1 X112.113 Y95.708 E26.79883
G1 X112.816 Y95.471 E26.81202
G1 X113.57 Y95.267 E26.8259
G1 X113.606 Y95.258 E26.82656
G1 X114.336 Y95.107 E26.83981
G1 X114.377 Y95.1 E26.84055
G1 X115.113 Y94.997 E26.85376
G1 X115.892 Y94.935 E26.86765
G1 X115.931 Y94.933 E26.86835
G1 X116.672 Y94.921 E26.88152
G1 X117.455 Y94.957 E26.89545
G1 X117.494 Y94.96 E26.89615
G1 X118.27 Y95.046 E26.91003
G1 X119.045 Y95.179 E26.92401
G1 X119.766 Y95.352 E26.93719
G1 X119.803 Y95.362 E26.93787
G1 X120.514 Y95.579 E26.95108
G1 X121.248 Y95.852 E26.965
G1 X121.285 Y95.867 E26.96571
G1 X121.999 Y96.187 E26.97962
G1 X122.658 Y96.533 E26.99285
G1 X123.327 Y96.936 E27.00673
G1 X123.36 Y96.957 E27.00743
G1 X123.97 Y97.38 E27.02062
G1 X124.585 Y97.865 E27.03455
G1 X125.168 Y98.386 E27.04845
G1 X125.197 Y98.413 E27.04915
G1 X125.718 Y98.942 E27.06235
G1 X126.258 Y99.563 E27.07698
G1 X126.73 Y100.183 E27.09083
G1 X127.146 Y100.801 E27.10407
G1 X127.56 Y101.511 E27.11868
G1 X127.895 Y102.177 E27.13193
G1 X128.203 Y102.894 E27.1458
G1 X128.217 Y102.93 E27.14649
G1 X128.48 Y103.67 E27.16045
G1 X128.684 Y104.383 E27.17363
G1 X128.855 Y105.145 E27.18752
G1 X128.977 Y105.92 E27.20146
G1 X128.982 Y105.959 E27.20216
G1 X129.054 Y106.737 E27.21605
G1 X129.077 Y107.479 E27.22925
G1 X129.077 Y107.518 E27.22994
G1 X129.054 Y108.261 E27.24315
G1 X128.982 Y109.04 E27.25706
G1 X128.977 Y109.079 E27.25776
G1 X128.855 Y109.854 E27.27171
G1 X128.684 Y110.618 E27.28562
G1 X128.48 Y111.33 E27.29879
G1 X128.203 Y112.106 E27.31343
G1 X127.895 Y112.823 E27.32731
G1 X127.561 Y113.488 E27.34053
G1 X127.542 Y113.523 E27.34124
G1 X127.146 Y114.199 E27.35517
G1 X126.731 Y114.816 E27.36839
G1 X126.259 Y115.436 E27.38224
G1 X125.719 Y116.057 E27.39687
G1 X125.198 Y116.586 E27.41007
G1 X124.615 Y117.109 E27.42399
G1 X124.586 Y117.134 E27.42467
G1 X123.97 Y117.62 E27.43862
G1 X123.36 Y118.043 E27.45181
G1 X122.691 Y118.448 E27.46571
G1 X122.658 Y118.467 E27.46639
G1 X121.999 Y118.813 E27.47962
G1 X121.285 Y119.133 E27.49353
G1 X121.248 Y119.148 E27.49424
G1 X120.514 Y119.421 E27.50816
G1 X119.803 Y119.638 E27.52137
G1 X119.044 Y119.82 E27.53525
G1 X119.005 Y119.828 E27.53596
G1 X118.271 Y119.954 E27.54919
G1 X117.494 Y120.04 E27.56309
G1 X117.455 Y120.043 E27.56379
G1 X116.672 Y120.079 E27.57772
G1 X115.931 Y120.067 E27.59089
G1 X115.151 Y120.007 E27.6048
G1 X115.113 Y120.003 E27.60548
G1 X114.377 Y119.9 E27.61869
G1 X114.337 Y119.893 E27.61941
G1 X113.607 Y119.743 E27.63266
G1 X113.569 Y119.734 E27.63335
G1 X112.815 Y119.529 E27.64724
G1 X112.112 Y119.291 E27.66044
G1 X112.075 Y119.277 E27.66114
G1 X111.386 Y118.994 E27.67438
G1 X110.646 Y118.637 E27.68898
G1 X110 Y118.272 E27.70217
G1 X109.311 Y117.824 E27.71678
G1 X108.714 Y117.383 E27.72998
G1 X108.682 Y117.358 E27.7307
G1 X108.113 Y116.879 E27.74392
G1 X108.083 Y116.852 E27.74464
G1 X107.547 Y116.339 E27.75783
G1 X106.989 Y115.736 E27.77243
G1 X106.518 Y115.16 E27.78566
G1 X106.061 Y114.524 E27.79958
G1 X106.039 Y114.491 E27.80028
G1 X105.645 Y113.862 E27.81348
G1 X105.251 Y113.139 E27.82811
G1 X104.94 Y112.468 E27.84126
G1 X104.925 Y112.433 E27.84194
G1 X104.653 Y111.739 E27.85519
G1 X104.412 Y110.995 E27.86909
G1 X104.401 Y110.957 E27.86979
G1 X104.218 Y110.236 E27.88301
G1 X104.072 Y109.467 E27.89693
G1 X104.066 Y109.428 E27.89763
G1 X103.97 Y108.652 E27.91153
G1 X103.924 Y107.912 E27.92471
G1 X103.923 Y107.128 E27.93864
G1 X103.924 Y107.089 E27.93934
G1 X103.97 Y106.348 E27.95254
G1 X104.066 Y105.572 E27.96643
G1 X104.072 Y105.534 E27.96712
G1 X104.209 Y104.803 E27.98034
G1 X104.218 Y104.763 E27.98107
G1 X104.412 Y104.005 E27.99498
G1 X104.653 Y103.261 E28.00888
