;START_OF_HEADER
;HEADER_VERSION:0.1
;FLAVOR:Griffin
;GENERATOR.NAME:Cura_SteamEngine
;GENERATOR.VERSION:4.7.1
;GENERATOR.BUILD_DATE:2020-09-02
;TARGET_MACHINE.NAME:Ultimaker 3
;EXTRUDER_TRAIN.0.INITIAL_TEMPERATURE:205
;EXTRUDER_TRAIN.0.MATERIAL.VOLUME_USED:1451
;EXTRUDER_TRAIN.0.MATERIAL.GUID:506c9f0d-e3aa-4bd4-b2d2-23e2425b1aa9
;EXTRUDER_TRAIN.0.NOZZLE.DIAMETER:0.4
;EXTRUDER_TRAIN.0.NOZZLE.NAME:AA 0.4
;BUILD_PLATE.TYPE:glass
;BUILD_PLATE.INITIAL_TEMPERATURE:60
;PRINT.TIME:1529
;PRINT.GROUPS:1
;PRINT.SIZE.MIN.X:9
;PRINT.SIZE.MIN.Y:6
;PRINT.SIZE.MIN.Z:0.27
;PRINT.SIZE.MAX.X:133.928
;PRINT.SIZE.MAX.Y:124.928
;PRINT.SIZE.MAX.Z:9.97
;END_OF_HEADER
;Generated with Cura_SteamEngine 4.7.1
T0
M82 ;absolute extrusion mode

G92 E0
M109 S205
G0 F15000 X9 Y6 Z2
G280
G1 F1500 E-6.5
;LAYER_COUNT:98
;LAYER:0
M107
M204 S625
M205 X6 Y6
G1 F600 Z2.27
G0 F4285.7 X103.704 Y95.671 Z2.27
M204 S500
M205 X5 Y5
;TYPE:SKIRT
G1 F600 Z0.27
G1 F1500 E0
G1 F1200 X104.136 Y95.221 E0.01109
G1 X104.428 Y94.934 E0.01837
G1 X104.911 Y94.487 E0.03007
G1 X105.225 Y94.213 E0.03747
G1 X105.707 Y93.818 E0.04855
G1 X106.041 Y93.561 E0.05604
G1 X106.56 Y93.186 E0.06742
G1 X106.924 Y92.94 E0.07523
G1 X107.465 Y92.599 E0.0866
G1 X107.813 Y92.394 E0.09378
G1 X108.375 Y92.084 E0.10519
G1 X108.758 Y91.888 E0.11284
G1 X109.335 Y91.615 E0.12418
G1 X109.71 Y91.451 E0.13146
G1 X110.306 Y91.211 E0.14288
G1 X110.717 Y91.06 E0.15066
G1 X111.324 Y90.859 E0.16203
G1 X111.735 Y90.737 E0.16965
G1 X112.353 Y90.574 E0.18101
G1 X112.74 Y90.484 E0.18808
G1 X113.37 Y90.356 E0.1995
G1 X113.809 Y90.281 E0.20742
G1 X114.444 Y90.194 E0.21881
G1 X114.854 Y90.15 E0.22614
G1 X115.492 Y90.101 E0.23752
G1 X115.915 Y90.082 E0.24505
G1 X116.554 Y90.072 E0.25641
G1 X116.986 Y90.079 E0.26409
G1 X117.626 Y90.109 E0.27547
G1 X118.038 Y90.14 E0.28282
G1 X118.675 Y90.208 E0.29421
G1 X119.084 Y90.264 E0.30154
G1 X119.717 Y90.37 E0.31295
G1 X120.168 Y90.461 E0.32113
G1 X120.806 Y90.612 E0.33279
G1 X121.19 Y90.715 E0.33985
G1 X121.787 Y90.893 E0.35093
G1 X122.186 Y91.025 E0.3584
G1 X122.788 Y91.245 E0.36979
G1 X123.179 Y91.402 E0.37728
G1 X123.766 Y91.658 E0.38867
G1 X124.151 Y91.84 E0.39624
G1 X124.722 Y92.132 E0.40764
G1 X125.096 Y92.338 E0.41523
G1 X125.647 Y92.664 E0.42661
G1 X126.004 Y92.89 E0.43412
G1 X126.534 Y93.249 E0.4455
G1 X126.875 Y93.495 E0.45297
G1 X127.396 Y93.896 E0.46466
G1 X127.718 Y94.16 E0.47206
G1 X128.188 Y94.569 E0.48313
G1 X128.513 Y94.87 E0.49101
G1 X128.98 Y95.332 E0.50269
G1 X129.266 Y95.633 E0.51007
G1 X129.682 Y96.097 E0.52114
G1 X129.953 Y96.418 E0.52861
G1 X130.362 Y96.934 E0.54032
G1 X130.608 Y97.265 E0.54765
G1 X130.965 Y97.775 E0.55871
G1 X131.21 Y98.149 E0.56666
G1 X131.551 Y98.71 E0.57833
G1 X131.746 Y99.052 E0.58533
G1 X132.04 Y99.604 E0.59645
G1 X132.234 Y99.999 E0.60427
G1 X132.498 Y100.581 E0.61563
G1 X132.655 Y100.956 E0.62286
G1 X132.885 Y101.554 E0.63424
G1 X133.029 Y101.968 E0.64204
G1 X133.221 Y102.58 E0.65344
G1 X133.333 Y102.976 E0.66075
G1 X133.488 Y103.597 E0.67213
G1 X133.577 Y104.008 E0.67961
G1 X133.694 Y104.637 E0.69098
G1 X133.759 Y105.06 E0.69859
G1 X133.837 Y105.696 E0.70998
G1 X133.876 Y106.118 E0.71751
G1 X133.915 Y106.757 E0.72889
G1 X133.928 Y107.19 E0.73659
G1 X133.927 Y107.848 E0.74829
G1 X133.913 Y108.27 E0.75579
G1 X133.873 Y108.909 E0.76717
G1 X133.834 Y109.332 E0.77473
G1 X133.755 Y109.967 E0.7861
G1 X133.692 Y110.374 E0.79342
G1 X133.575 Y111.005 E0.80483
G1 X133.478 Y111.446 E0.81286
G1 X133.321 Y112.065 E0.82421
G1 X133.213 Y112.445 E0.83123
G1 X133.02 Y113.057 E0.84264
G1 X132.877 Y113.467 E0.85036
G1 X132.646 Y114.066 E0.86177
G1 X132.49 Y114.437 E0.86892
G1 X132.233 Y115.003 E0.87997
G1 X132.037 Y115.4 E0.88784
G1 X131.727 Y115.981 E0.89955
G1 X131.529 Y116.329 E0.90666
G1 X131.205 Y116.86 E0.91772
G1 X130.958 Y117.236 E0.92572
G1 X130.579 Y117.775 E0.93743
G1 X130.336 Y118.1 E0.94465
G1 X129.949 Y118.587 E0.9557
G1 X129.675 Y118.911 E0.96325
G1 X129.235 Y119.4 E0.97494
G1 X128.95 Y119.699 E0.98228
G1 X128.507 Y120.136 E0.99334
G1 X128.186 Y120.432 E1.0011
G1 X127.689 Y120.864 E1.01281
G1 X127.349 Y121.141 E1.02061
G1 X126.841 Y121.529 E1.03197
G1 X126.511 Y121.766 E1.03919
G1 X125.979 Y122.125 E1.0506
G1 X125.624 Y122.35 E1.05807
G1 X125.073 Y122.675 E1.06944
G1 X124.704 Y122.878 E1.07693
G1 X124.148 Y123.162 E1.08803
G1 X123.758 Y123.346 E1.09569
G1 X123.155 Y123.608 E1.10738
G1 X122.77 Y123.762 E1.11475
G1 X122.184 Y123.976 E1.12584
G1 X121.776 Y124.11 E1.13347
G1 X121.145 Y124.297 E1.14517
G1 X120.741 Y124.404 E1.1526
G1 X120.12 Y124.548 E1.16393
G1 X119.7 Y124.632 E1.17155
G1 X119.067 Y124.738 E1.18296
G1 X118.647 Y124.795 E1.19049
G1 X118.01 Y124.862 E1.20188
G1 X117.599 Y124.893 E1.2092
G1 X116.959 Y124.922 E1.22059
G1 X116.526 Y124.928 E1.22829
G1 X115.887 Y124.917 E1.23965
G1 X115.465 Y124.897 E1.24716
G1 X114.827 Y124.847 E1.25854
G1 X114.417 Y124.802 E1.26587
G1 X113.782 Y124.714 E1.27726
G1 X113.353 Y124.641 E1.285
G1 X112.723 Y124.513 E1.29643
G1 X112.313 Y124.417 E1.30391
G1 X111.696 Y124.252 E1.31526
G1 X111.298 Y124.132 E1.32265
G1 X110.691 Y123.93 E1.33403
G1 X110.281 Y123.78 E1.34179
G1 X109.685 Y123.539 E1.35321
G1 X109.31 Y123.374 E1.3605
G1 X108.733 Y123.1 E1.37185
G1 X108.35 Y122.903 E1.37951
G1 X107.79 Y122.593 E1.39089
G1 X107.435 Y122.383 E1.39822
G1 X106.894 Y122.04 E1.4096
G1 X106.546 Y121.804 E1.41708
G1 X106.041 Y121.439 E1.42815
G1 X105.705 Y121.18 E1.4357
G1 X105.21 Y120.774 E1.44708
G1 X104.898 Y120.502 E1.45443
G1 X104.428 Y120.067 E1.46582
G1 X104.128 Y119.772 E1.4733
G1 X103.684 Y119.308 E1.48471
G1 X103.397 Y118.989 E1.49234
G1 X102.984 Y118.5 E1.50372
G1 X102.716 Y118.162 E1.51139
G1 X102.334 Y117.648 E1.52277
G1 X102.09 Y117.297 E1.53037
G1 X101.731 Y116.746 E1.54206
G1 X101.519 Y116.4 E1.54927
G1 X101.202 Y115.845 E1.56063
G1 X100.996 Y115.455 E1.56847
G1 X100.714 Y114.879 E1.57987
G1 X100.542 Y114.499 E1.58729
G1 X100.296 Y113.909 E1.59865
G1 X100.146 Y113.517 E1.60611
G1 X99.935 Y112.91 E1.61754
G1 X99.805 Y112.494 E1.62528
G1 X99.634 Y111.88 E1.63661
G1 X99.535 Y111.48 E1.64394
G1 X99.4 Y110.853 E1.65534
G1 X99.325 Y110.442 E1.66277
G1 X99.228 Y109.808 E1.67417
G1 X99.176 Y109.382 E1.6818
G1 X99.12 Y108.761 E1.69288
G1 X99.095 Y108.356 E1.70009
G1 X99.075 Y107.718 E1.71144
G1 X99.075 Y107.285 E1.71914
G1 X99.095 Y106.645 E1.73052
G1 X99.12 Y106.234 E1.73784
G1 X99.178 Y105.596 E1.74923
G1 X99.231 Y105.164 E1.75696
G1 X99.329 Y104.53 E1.76837
G1 X99.403 Y104.13 E1.7756
G1 X99.538 Y103.503 E1.787
G1 X99.646 Y103.073 E1.79488
G1 X99.82 Y102.459 E1.80622
G1 X99.939 Y102.079 E1.8133
G1 X100.149 Y101.473 E1.8247
G1 X100.308 Y101.057 E1.83262
G1 X100.556 Y100.467 E1.844
G1 X100.727 Y100.092 E1.85132
G1 X101.01 Y99.517 E1.86271
G1 X101.22 Y99.124 E1.87063
G1 X101.547 Y98.555 E1.8823
G1 X101.757 Y98.211 E1.88946
G1 X102.108 Y97.675 E1.90085
G1 X102.346 Y97.335 E1.90823
G1 X102.718 Y96.835 E1.91931
G1 X102.989 Y96.494 E1.92705
G1 X103.414 Y95.992 E1.93874
G1 X103.704 Y95.671 E1.94643
M204 S625
M205 X6 Y6
G0 F4285.7 X104.007 Y95.962
M204 S500
M205 X5 Y5
G1 F1200 X104.439 Y95.512 E1.95752
G1 X104.713 Y95.242 E1.96436
G1 X105.196 Y94.795 E1.97606
G1 X105.492 Y94.538 E1.98303
G1 X105.974 Y94.143 E1.9941
G1 X106.287 Y93.901 E2.00114
G1 X106.806 Y93.526 E2.01252
G1 X107.148 Y93.296 E2.01985
G1 X107.689 Y92.955 E2.03121
G1 X108.016 Y92.762 E2.03796
G1 X108.578 Y92.452 E2.04937
G1 X108.938 Y92.267 E2.05657
G1 X109.515 Y91.994 E2.06791
G1 X109.867 Y91.84 E2.07474
G1 X110.463 Y91.6 E2.08617
G1 X110.849 Y91.459 E2.09347
G1 X111.456 Y91.258 E2.10484
G1 X111.842 Y91.143 E2.112
G1 X112.46 Y90.98 E2.12336
G1 X112.824 Y90.895 E2.13
G1 X113.454 Y90.767 E2.14143
G1 X113.866 Y90.697 E2.14886
G1 X114.501 Y90.61 E2.16025
G1 X114.886 Y90.569 E2.16713
G1 X115.524 Y90.52 E2.17851
G1 X115.921 Y90.502 E2.18557
G1 X116.56 Y90.492 E2.19693
G1 X116.967 Y90.498 E2.20417
G1 X117.607 Y90.528 E2.21556
G1 X117.993 Y90.558 E2.22244
G1 X118.63 Y90.626 E2.23383
G1 X119.014 Y90.678 E2.24072
G1 X119.647 Y90.784 E2.25212
G1 X120.071 Y90.87 E2.25981
G1 X120.709 Y91.021 E2.27147
G1 X121.07 Y91.117 E2.27811
G1 X121.667 Y91.295 E2.28918
G1 X122.042 Y91.42 E2.29621
G1 X122.644 Y91.64 E2.3076
G1 X123.011 Y91.787 E2.31463
G1 X123.598 Y92.043 E2.32601
G1 X123.96 Y92.214 E2.33313
G1 X124.531 Y92.506 E2.34453
G1 X124.882 Y92.699 E2.35165
G1 X125.433 Y93.025 E2.36303
G1 X125.769 Y93.238 E2.3701
G1 X126.299 Y93.597 E2.38148
G1 X126.619 Y93.828 E2.3885
G1 X127.14 Y94.229 E2.40019
G1 X127.443 Y94.477 E2.40715
G1 X127.913 Y94.886 E2.41822
G1 X128.217 Y95.169 E2.4256
G1 X128.684 Y95.631 E2.43728
G1 X128.953 Y95.913 E2.44421
G1 X129.369 Y96.377 E2.45529
G1 X129.624 Y96.679 E2.46231
G1 X130.033 Y97.195 E2.47402
G1 X130.264 Y97.506 E2.4809
G1 X130.621 Y98.016 E2.49197
G1 X130.851 Y98.368 E2.49944
G1 X131.192 Y98.929 E2.51111
G1 X131.375 Y99.25 E2.51768
G1 X131.669 Y99.802 E2.5288
G1 X131.852 Y100.173 E2.53615
G1 X132.116 Y100.755 E2.54751
G1 X132.263 Y101.107 E2.55429
G1 X132.493 Y101.705 E2.56568
G1 X132.628 Y102.093 E2.57299
G1 X132.82 Y102.705 E2.58439
G1 X132.925 Y103.077 E2.59126
G1 X133.08 Y103.698 E2.60264
G1 X133.164 Y104.084 E2.60966
G1 X133.281 Y104.713 E2.62103
G1 X133.343 Y105.112 E2.62821
G1 X133.421 Y105.748 E2.6396
G1 X133.457 Y106.143 E2.64665
G1 X133.496 Y106.782 E2.65803
G1 X133.508 Y107.189 E2.66527
G1 X133.507 Y107.847 E2.67696
G1 X133.494 Y108.244 E2.68403
G1 X133.454 Y108.883 E2.69541
G1 X133.417 Y109.28 E2.70249
G1 X133.338 Y109.915 E2.71387
G1 X133.279 Y110.298 E2.72076
G1 X133.162 Y110.929 E2.73217
G1 X133.071 Y111.342 E2.73968
G1 X132.914 Y111.961 E2.75103
G1 X132.813 Y112.319 E2.75765
G1 X132.62 Y112.931 E2.76905
G1 X132.485 Y113.315 E2.77629
G1 X132.254 Y113.914 E2.7877
G1 X132.108 Y114.263 E2.79443
G1 X131.851 Y114.829 E2.80548
G1 X131.667 Y115.203 E2.81289
G1 X131.357 Y115.784 E2.82459
G1 X131.17 Y116.11 E2.83127
G1 X130.846 Y116.641 E2.84233
G1 X130.614 Y116.995 E2.84985
G1 X130.235 Y117.534 E2.86157
G1 X130.007 Y117.839 E2.86833
G1 X129.62 Y118.326 E2.87939
G1 X129.362 Y118.63 E2.88648
G1 X128.922 Y119.119 E2.89817
G1 X128.655 Y119.4 E2.90506
G1 X128.212 Y119.837 E2.91613
G1 X127.911 Y120.115 E2.92341
G1 X127.414 Y120.547 E2.93511
G1 X127.094 Y120.808 E2.94245
G1 X126.586 Y121.196 E2.95382
G1 X126.276 Y121.418 E2.9606
G1 X125.744 Y121.777 E2.972
G1 X125.41 Y121.988 E2.97903
G1 X124.859 Y122.313 E2.9904
G1 X124.513 Y122.503 E2.99741
G1 X123.957 Y122.787 E3.00851
G1 X123.59 Y122.961 E3.01573
G1 X122.987 Y123.223 E3.02742
G1 X122.626 Y123.367 E3.03433
G1 X122.04 Y123.581 E3.04542
G1 X121.657 Y123.708 E3.05259
G1 X121.026 Y123.895 E3.06429
G1 X120.647 Y123.995 E3.07126
G1 X120.026 Y124.139 E3.08259
G1 X119.63 Y124.218 E3.08977
G1 X118.997 Y124.324 E3.10118
G1 X118.603 Y124.377 E3.10824
G1 X117.966 Y124.444 E3.11963
G1 X117.58 Y124.473 E3.12651
G1 X116.94 Y124.502 E3.1379
G1 X116.533 Y124.508 E3.14513
G1 X115.894 Y124.497 E3.15649
G1 X115.497 Y124.478 E3.16356
G1 X114.859 Y124.428 E3.17494
G1 X114.474 Y124.386 E3.18182
G1 X113.839 Y124.298 E3.19321
G1 X113.437 Y124.23 E3.20046
G1 X112.807 Y124.102 E3.21189
G1 X112.421 Y124.011 E3.21894
G1 X111.804 Y123.846 E3.23029
G1 X111.43 Y123.734 E3.23723
G1 X110.823 Y123.532 E3.2486
G1 X110.439 Y123.39 E3.25588
G1 X109.843 Y123.149 E3.26731
G1 X109.49 Y122.995 E3.27416
G1 X108.913 Y122.721 E3.28551
G1 X108.553 Y122.536 E3.29271
G1 X107.993 Y122.226 E3.30408
G1 X107.66 Y122.028 E3.31097
G1 X107.119 Y121.685 E3.32236
G1 X106.792 Y121.463 E3.32938
G1 X106.287 Y121.098 E3.34046
G1 X105.972 Y120.855 E3.34753
G1 X105.477 Y120.449 E3.35891
G1 X105.183 Y120.194 E3.36583
G1 X104.713 Y119.759 E3.37721
G1 X104.431 Y119.482 E3.38424
G1 X103.987 Y119.018 E3.39566
G1 X103.717 Y118.718 E3.40283
G1 X103.304 Y118.229 E3.41421
G1 X103.053 Y117.911 E3.42141
G1 X102.671 Y117.397 E3.43279
G1 X102.442 Y117.068 E3.43992
G1 X102.083 Y116.517 E3.45161
G1 X101.884 Y116.192 E3.45838
G1 X101.567 Y115.637 E3.46974
G1 X101.373 Y115.271 E3.47711
G1 X101.091 Y114.695 E3.48851
G1 X100.929 Y114.337 E3.49549
G1 X100.683 Y113.747 E3.50686
G1 X100.543 Y113.379 E3.51386
G1 X100.332 Y112.772 E3.52528
G1 X100.21 Y112.382 E3.53254
G1 X100.039 Y111.768 E3.54387
G1 X99.946 Y111.391 E3.55077
G1 X99.811 Y110.764 E3.56218
G1 X99.74 Y110.379 E3.56913
G1 X99.643 Y109.745 E3.58054
G1 X99.594 Y109.345 E3.5877
G1 X99.538 Y108.724 E3.59878
G1 X99.515 Y108.343 E3.60557
G1 X99.495 Y107.705 E3.61691
G1 X99.495 Y107.298 E3.62415
G1 X99.515 Y106.658 E3.63553
G1 X99.539 Y106.272 E3.64241
G1 X99.597 Y105.634 E3.65379
G1 X99.646 Y105.229 E3.66105
G1 X99.744 Y104.595 E3.67245
G1 X99.814 Y104.219 E3.67925
G1 X99.949 Y103.592 E3.69065
G1 X100.05 Y103.187 E3.69807
G1 X100.224 Y102.573 E3.70941
G1 X100.336 Y102.216 E3.71606
G1 X100.546 Y101.61 E3.72747
G1 X100.696 Y101.219 E3.73491
G1 X100.944 Y100.629 E3.74629
G1 X101.104 Y100.277 E3.75316
G1 X101.387 Y99.702 E3.76455
G1 X101.584 Y99.333 E3.77199
G1 X101.911 Y98.764 E3.78365
G1 X102.109 Y98.442 E3.79037
G1 X102.46 Y97.906 E3.80176
G1 X102.683 Y97.586 E3.80869
G1 X103.055 Y97.086 E3.81977
G1 X103.309 Y96.766 E3.82704
G1 X103.734 Y96.264 E3.83873
G1 X104.007 Y95.962 E3.84596
M204 S625
M205 X6 Y6
G0 F4285.7 X104.31 Y96.252
M204 S500
M205 X5 Y5
G1 F1200 X104.742 Y95.802 E3.85705
G1 X104.999 Y95.55 E3.86345
G1 X105.482 Y95.103 E3.87515
G1 X105.758 Y94.863 E3.88165
G1 X106.24 Y94.468 E3.89273
G1 X106.533 Y94.242 E3.89931
G1 X107.052 Y93.867 E3.91069
G1 X107.372 Y93.651 E3.91755
G1 X107.913 Y93.31 E3.92892
G1 X108.219 Y93.129 E3.93524
G1 X108.781 Y92.819 E3.94665
G1 X109.117 Y92.647 E3.95336
G1 X109.694 Y92.374 E3.9647
G1 X110.024 Y92.23 E3.9711
G1 X110.62 Y91.99 E3.98253
G1 X110.981 Y91.858 E3.98936
G1 X111.588 Y91.657 E4.00072
G1 X111.949 Y91.549 E4.00742
G1 X112.567 Y91.386 E4.01878
G1 X112.907 Y91.307 E4.02499
G1 X113.537 Y91.179 E4.03642
G1 X113.923 Y91.113 E4.04338
G1 X114.558 Y91.026 E4.05477
G1 X114.919 Y90.988 E4.06122
G1 X115.557 Y90.939 E4.0726
G1 X115.928 Y90.922 E4.0792
G1 X116.567 Y90.912 E4.09056
G1 X116.947 Y90.918 E4.09732
G1 X117.587 Y90.948 E4.1087
G1 X117.948 Y90.975 E4.11514
G1 X118.585 Y91.043 E4.12653
G1 X118.945 Y91.093 E4.13299
G1 X119.578 Y91.199 E4.1444
G1 X119.975 Y91.279 E4.1516
G1 X120.613 Y91.43 E4.16325
G1 X120.95 Y91.52 E4.16945
G1 X121.547 Y91.698 E4.18052
G1 X121.897 Y91.814 E4.18708
G1 X122.499 Y92.034 E4.19847
G1 X122.843 Y92.172 E4.20506
G1 X123.43 Y92.428 E4.21644
G1 X123.769 Y92.588 E4.22311
G1 X124.34 Y92.88 E4.23451
G1 X124.668 Y93.061 E4.24117
G1 X125.219 Y93.387 E4.25255
G1 X125.533 Y93.586 E4.25916
G1 X126.063 Y93.945 E4.27054
G1 X126.362 Y94.161 E4.27709
G1 X126.883 Y94.562 E4.28878
G1 X127.167 Y94.794 E4.2953
G1 X127.637 Y95.203 E4.30637
G1 X127.922 Y95.468 E4.31329
G1 X128.389 Y95.93 E4.32497
G1 X128.64 Y96.194 E4.33144
G1 X129.056 Y96.658 E4.34252
G1 X129.295 Y96.94 E4.34909
G1 X129.704 Y97.456 E4.3608
G1 X129.92 Y97.747 E4.36724
G1 X130.277 Y98.257 E4.3783
G1 X130.492 Y98.586 E4.38529
G1 X130.833 Y99.147 E4.39696
G1 X131.004 Y99.447 E4.4031
G1 X131.298 Y99.999 E4.41422
G1 X131.469 Y100.346 E4.42109
G1 X131.733 Y100.928 E4.43245
G1 X131.871 Y101.258 E4.43881
G1 X132.101 Y101.856 E4.4502
G1 X132.228 Y102.219 E4.45704
G1 X132.42 Y102.831 E4.46844
G1 X132.518 Y103.179 E4.47487
G1 X132.673 Y103.8 E4.48624
G1 X132.751 Y104.161 E4.49281
G1 X132.868 Y104.79 E4.50418
G1 X132.926 Y105.163 E4.51089
G1 X133.004 Y105.799 E4.52228
G1 X133.038 Y106.169 E4.52889
G1 X133.077 Y106.808 E4.54027
G1 X133.088 Y107.188 E4.54702
G1 X133.087 Y107.846 E4.55872
G1 X133.075 Y108.217 E4.56532
G1 X133.035 Y108.856 E4.5767
G1 X133 Y109.228 E4.58334
G1 X132.921 Y109.863 E4.59472
G1 X132.866 Y110.221 E4.60116
G1 X132.749 Y110.852 E4.61256
G1 X132.664 Y111.239 E4.61961
G1 X132.507 Y111.858 E4.63096
G1 X132.412 Y112.193 E4.63715
G1 X132.219 Y112.805 E4.64856
G1 X132.093 Y113.164 E4.65532
G1 X131.862 Y113.763 E4.66673
G1 X131.725 Y114.09 E4.67303
G1 X131.468 Y114.656 E4.68408
G1 X131.296 Y115.005 E4.691
G1 X130.986 Y115.586 E4.7027
G1 X130.812 Y115.891 E4.70895
G1 X130.488 Y116.422 E4.72
G1 X130.271 Y116.753 E4.72704
G1 X129.892 Y117.292 E4.73875
G1 X129.678 Y117.578 E4.7451
G1 X129.291 Y118.065 E4.75616
G1 X129.05 Y118.349 E4.76278
G1 X128.61 Y118.838 E4.77447
G1 X128.36 Y119.101 E4.78092
G1 X127.917 Y119.538 E4.79199
G1 X127.635 Y119.798 E4.7988
G1 X127.138 Y120.23 E4.81051
G1 X126.84 Y120.474 E4.81736
G1 X126.332 Y120.862 E4.82872
G1 X126.042 Y121.07 E4.83506
G1 X125.51 Y121.429 E4.84647
G1 X125.197 Y121.627 E4.85305
G1 X124.646 Y121.952 E4.86443
G1 X124.322 Y122.129 E4.87099
G1 X123.766 Y122.413 E4.88209
G1 X123.423 Y122.576 E4.88884
G1 X122.82 Y122.838 E4.90052
G1 X122.482 Y122.972 E4.90699
G1 X121.896 Y123.186 E4.91808
G1 X121.537 Y123.305 E4.9248
G1 X120.906 Y123.492 E4.9365
G1 X120.552 Y123.586 E4.94301
G1 X119.931 Y123.73 E4.95434
G1 X119.561 Y123.803 E4.96105
G1 X118.928 Y123.909 E4.97245
G1 X118.559 Y123.96 E4.97908
G1 X117.922 Y124.027 E4.99046
G1 X117.561 Y124.054 E4.9969
G1 X116.921 Y124.083 E5.00829
G1 X116.54 Y124.088 E5.01506
G1 X115.901 Y124.077 E5.02642
G1 X115.53 Y124.059 E5.03302
G1 X114.892 Y124.009 E5.0444
G1 X114.532 Y123.97 E5.05083
G1 X113.897 Y123.882 E5.06223
G1 X113.52 Y123.818 E5.06903
G1 X112.89 Y123.69 E5.08046
G1 X112.53 Y123.605 E5.08703
G1 X111.913 Y123.44 E5.09838
G1 X111.563 Y123.335 E5.10488
G1 X110.956 Y123.133 E5.11625
G1 X110.596 Y123.001 E5.12307
G1 X110 Y122.76 E5.1345
G1 X109.671 Y122.615 E5.14089
G1 X109.094 Y122.341 E5.15224
G1 X108.757 Y122.168 E5.15897
G1 X108.197 Y121.858 E5.17035
G1 X107.885 Y121.673 E5.1768
G1 X107.344 Y121.33 E5.18819
G1 X107.038 Y121.123 E5.19475
G1 X106.533 Y120.758 E5.20583
G1 X106.238 Y120.531 E5.21245
G1 X105.743 Y120.125 E5.22383
G1 X105.468 Y119.885 E5.23032
G1 X104.998 Y119.45 E5.2417
G1 X104.735 Y119.191 E5.24826
G1 X104.291 Y118.727 E5.25968
G1 X104.038 Y118.447 E5.26638
G1 X103.625 Y117.958 E5.27776
G1 X103.39 Y117.661 E5.28449
G1 X103.008 Y117.147 E5.29588
G1 X102.793 Y116.839 E5.30256
G1 X102.434 Y116.288 E5.31425
G1 X102.249 Y115.983 E5.32059
G1 X101.932 Y115.428 E5.33195
G1 X101.75 Y115.086 E5.33884
G1 X101.468 Y114.51 E5.35024
G1 X101.317 Y114.176 E5.35675
G1 X101.071 Y113.586 E5.36811
G1 X100.94 Y113.242 E5.37466
G1 X100.729 Y112.635 E5.38608
G1 X100.614 Y112.269 E5.3929
G1 X100.443 Y111.655 E5.40423
G1 X100.356 Y111.303 E5.41068
G1 X100.221 Y110.676 E5.42208
G1 X100.155 Y110.315 E5.4286
G1 X100.058 Y109.681 E5.44
G1 X100.013 Y109.307 E5.4467
G1 X99.957 Y108.686 E5.45778
G1 X99.935 Y108.33 E5.46412
G1 X99.915 Y107.692 E5.47547
G1 X99.915 Y107.311 E5.48224
G1 X99.935 Y106.671 E5.49362
G1 X99.957 Y106.31 E5.50005
G1 X100.015 Y105.672 E5.51144
G1 X100.061 Y105.293 E5.51823
G1 X100.159 Y104.659 E5.52963
G1 X100.224 Y104.307 E5.53599
G1 X100.359 Y103.68 E5.54739
G1 X100.454 Y103.302 E5.55432
G1 X100.628 Y102.688 E5.56567
G1 X100.733 Y102.354 E5.57189
G1 X100.943 Y101.748 E5.58329
G1 X101.083 Y101.382 E5.59026
G1 X101.331 Y100.792 E5.60163
G1 X101.481 Y100.463 E5.60806
G1 X101.764 Y99.888 E5.61945
G1 X101.948 Y99.543 E5.6264
G1 X102.275 Y98.974 E5.63807
G1 X102.46 Y98.672 E5.64436
G1 X102.811 Y98.136 E5.65575
G1 X103.02 Y97.837 E5.66224
G1 X103.392 Y97.337 E5.67332
G1 X103.63 Y97.037 E5.68012
G1 X104.055 Y96.535 E5.69182
G1 X104.31 Y96.252 E5.69859
M204 S625
M205 X6 Y6
G0 F4285.7 X104.613 Y96.543
M204 S500
M205 X5 Y5
G1 F1200 X105.045 Y96.093 E5.70968
G1 X105.284 Y95.859 E5.71562
G1 X105.767 Y95.412 E5.72732
G1 X106.024 Y95.188 E5.73338
G1 X106.506 Y94.793 E5.74446
G1 X106.779 Y94.582 E5.75059
G1 X107.298 Y94.207 E5.76197
G1 X107.596 Y94.006 E5.76836
G1 X108.137 Y93.665 E5.77973
G1 X108.421 Y93.497 E5.7856
G1 X108.983 Y93.187 E5.797
G1 X109.297 Y93.027 E5.80327
G1 X109.874 Y92.754 E5.81462
G1 X110.181 Y92.619 E5.82058
G1 X110.777 Y92.379 E5.832
G1 X111.113 Y92.256 E5.83836
G1 X111.72 Y92.055 E5.84973
G1 X112.056 Y91.955 E5.85596
G1 X112.674 Y91.792 E5.86732
G1 X112.991 Y91.719 E5.8731
G1 X113.621 Y91.591 E5.88453
G1 X113.98 Y91.529 E5.891
G1 X114.615 Y91.442 E5.9024
G1 X114.951 Y91.407 E5.9084
G1 X115.589 Y91.358 E5.91978
G1 X115.934 Y91.342 E5.92592
G1 X116.573 Y91.332 E5.93728
G1 X116.927 Y91.337 E5.94357
G1 X117.567 Y91.367 E5.95496
G1 X117.904 Y91.393 E5.96097
G1 X118.541 Y91.461 E5.97236
G1 X118.875 Y91.507 E5.97835
G1 X119.508 Y91.613 E5.98976
G1 X119.878 Y91.687 E5.99646
G1 X120.516 Y91.838 E6.00812
G1 X120.83 Y91.922 E6.0139
G1 X121.427 Y92.1 E6.02497
G1 X121.753 Y92.208 E6.03108
G1 X122.355 Y92.428 E6.04247
G1 X122.676 Y92.557 E6.04862
G1 X123.263 Y92.813 E6.06
G1 X123.578 Y92.962 E6.0662
G1 X124.149 Y93.254 E6.0776
G1 X124.454 Y93.422 E6.08379
G1 X125.005 Y93.748 E6.09517
G1 X125.298 Y93.934 E6.10134
G1 X125.828 Y94.293 E6.11272
G1 X126.106 Y94.494 E6.11881
G1 X126.627 Y94.895 E6.1305
G1 X126.891 Y95.111 E6.13656
G1 X127.361 Y95.52 E6.14764
G1 X127.627 Y95.766 E6.15408
G1 X128.094 Y96.228 E6.16576
G1 X128.328 Y96.474 E6.17179
G1 X128.744 Y96.938 E6.18287
G1 X128.965 Y97.201 E6.18898
G1 X129.374 Y97.717 E6.20068
G1 X129.576 Y97.987 E6.20667
G1 X129.933 Y98.497 E6.21774
G1 X130.133 Y98.804 E6.22425
G1 X130.474 Y99.365 E6.23592
G1 X130.633 Y99.645 E6.24165
G1 X130.927 Y100.197 E6.25276
G1 X131.087 Y100.52 E6.25917
G1 X131.351 Y101.102 E6.27053
G1 X131.479 Y101.409 E6.27644
G1 X131.709 Y102.007 E6.28783
G1 X131.827 Y102.345 E6.2942
G1 X132.019 Y102.957 E6.3056
G1 X132.11 Y103.281 E6.31158
G1 X132.265 Y103.902 E6.32296
G1 X132.338 Y104.238 E6.32907
G1 X132.455 Y104.867 E6.34044
G1 X132.509 Y105.214 E6.34669
G1 X132.587 Y105.85 E6.35808
G1 X132.618 Y106.195 E6.36423
G1 X132.657 Y106.834 E6.37561
G1 X132.668 Y107.188 E6.38191
G1 X132.667 Y107.846 E6.39361
G1 X132.656 Y108.191 E6.39974
G1 X132.616 Y108.83 E6.41112
G1 X132.584 Y109.176 E6.4173
G1 X132.505 Y109.811 E6.42868
G1 X132.453 Y110.145 E6.43468
G1 X132.336 Y110.776 E6.44609
G1 X132.257 Y111.136 E6.45264
G1 X132.1 Y111.755 E6.464
G1 X132.011 Y112.066 E6.46975
G1 X131.818 Y112.678 E6.48115
G1 X131.701 Y113.013 E6.48746
G1 X131.47 Y113.612 E6.49887
G1 X131.343 Y113.916 E6.50473
G1 X131.086 Y114.482 E6.51578
G1 X130.925 Y114.807 E6.52223
G1 X130.615 Y115.388 E6.53393
G1 X130.453 Y115.672 E6.53974
G1 X130.129 Y116.203 E6.5508
G1 X129.927 Y116.511 E6.55735
G1 X129.548 Y117.05 E6.56906
G1 X129.349 Y117.317 E6.57498
G1 X128.962 Y117.804 E6.58604
G1 X128.738 Y118.069 E6.59221
G1 X128.298 Y118.558 E6.6039
G1 X128.065 Y118.802 E6.6099
G1 X127.622 Y119.239 E6.62096
G1 X127.36 Y119.481 E6.6273
G1 X126.863 Y119.913 E6.639
G1 X126.585 Y120.14 E6.64538
G1 X126.077 Y120.528 E6.65675
G1 X125.807 Y120.722 E6.66266
G1 X125.275 Y121.081 E6.67407
G1 X124.984 Y121.265 E6.68019
G1 X124.433 Y121.59 E6.69156
G1 X124.131 Y121.755 E6.69767
G1 X123.575 Y122.039 E6.70877
G1 X123.256 Y122.19 E6.71505
G1 X122.653 Y122.452 E6.72673
G1 X122.338 Y122.578 E6.73276
G1 X121.752 Y122.792 E6.74385
G1 X121.418 Y122.902 E6.7501
G1 X120.787 Y123.089 E6.7618
G1 X120.457 Y123.176 E6.76787
G1 X119.836 Y123.32 E6.7792
G1 X119.491 Y123.389 E6.78546
G1 X118.858 Y123.495 E6.79686
G1 X118.515 Y123.542 E6.80302
G1 X117.878 Y123.609 E6.8144
G1 X117.542 Y123.634 E6.82039
G1 X116.902 Y123.663 E6.83178
G1 X116.547 Y123.668 E6.83809
G1 X115.908 Y123.657 E6.84945
G1 X115.563 Y123.641 E6.85559
G1 X114.925 Y123.591 E6.86697
G1 X114.59 Y123.554 E6.87296
G1 X113.955 Y123.466 E6.88436
G1 X113.604 Y123.406 E6.89069
G1 X112.974 Y123.278 E6.90211
G1 X112.638 Y123.2 E6.90824
G1 X112.021 Y123.035 E6.9196
G1 X111.696 Y122.937 E6.92563
G1 X111.089 Y122.735 E6.937
G1 X110.753 Y122.612 E6.94336
G1 X110.157 Y122.371 E6.95479
G1 X109.851 Y122.236 E6.96074
G1 X109.274 Y121.962 E6.97209
G1 X108.96 Y121.801 E6.97836
G1 X108.4 Y121.491 E6.98974
G1 X108.11 Y121.319 E6.99574
G1 X107.569 Y120.976 E7.00712
G1 X107.284 Y120.782 E7.01325
G1 X106.779 Y120.417 E7.02433
G1 X106.504 Y120.206 E7.03049
G1 X106.009 Y119.8 E7.04187
G1 X105.754 Y119.577 E7.04789
G1 X105.284 Y119.142 E7.05927
G1 X105.038 Y118.901 E7.0654
G1 X104.594 Y118.437 E7.07681
G1 X104.359 Y118.176 E7.08306
G1 X103.946 Y117.687 E7.09443
G1 X103.727 Y117.41 E7.10071
G1 X103.345 Y116.896 E7.11209
G1 X103.145 Y116.609 E7.11831
G1 X102.786 Y116.058 E7.13
G1 X102.614 Y115.775 E7.13589
G1 X102.297 Y115.22 E7.14725
G1 X102.128 Y114.901 E7.15367
G1 X101.846 Y114.325 E7.16507
G1 X101.705 Y114.014 E7.17114
G1 X101.459 Y113.424 E7.1825
G1 X101.336 Y113.104 E7.18859
G1 X101.125 Y112.497 E7.20002
G1 X101.019 Y112.156 E7.20637
G1 X100.848 Y111.542 E7.2177
G1 X100.767 Y111.214 E7.2237
G1 X100.632 Y110.587 E7.2351
G1 X100.57 Y110.252 E7.24116
G1 X100.473 Y109.618 E7.25256
G1 X100.431 Y109.269 E7.25881
G1 X100.375 Y108.648 E7.26989
G1 X100.355 Y108.317 E7.27579
G1 X100.335 Y107.679 E7.28713
G1 X100.335 Y107.324 E7.29344
G1 X100.355 Y106.684 E7.30483
G1 X100.375 Y106.348 E7.31081
G1 X100.433 Y105.71 E7.3222
G1 X100.477 Y105.357 E7.32852
G1 X100.575 Y104.723 E7.33992
G1 X100.635 Y104.396 E7.34583
G1 X100.77 Y103.769 E7.35723
G1 X100.858 Y103.416 E7.3637
G1 X101.032 Y102.802 E7.37505
G1 X101.13 Y102.491 E7.38084
G1 X101.34 Y101.885 E7.39224
G1 X101.47 Y101.545 E7.39871
G1 X101.718 Y100.955 E7.41009
G1 X101.858 Y100.648 E7.41609
G1 X102.141 Y100.073 E7.42748
G1 X102.312 Y99.752 E7.43395
G1 X102.639 Y99.183 E7.44561
G1 X102.812 Y98.902 E7.45148
G1 X103.163 Y98.366 E7.46287
G1 X103.357 Y98.087 E7.46891
G1 X103.729 Y97.587 E7.47998
G1 X103.951 Y97.308 E7.48632
G1 X104.376 Y96.806 E7.49801
G1 X104.613 Y96.543 E7.50431
M204 S625
M205 X6 Y6
G0 F4285.7 X104.916 Y96.834
M204 S500
M205 X5 Y5
G1 F1200 X105.348 Y96.384 E7.5154
G1 X105.569 Y96.167 E7.5209
G1 X106.052 Y95.72 E7.5326
G1 X106.29 Y95.512 E7.53822
G1 X106.772 Y95.117 E7.5493
G1 X107.025 Y94.923 E7.55496
G1 X107.544 Y94.548 E7.56635
G1 X107.82 Y94.362 E7.57226
G1 X108.361 Y94.021 E7.58363
G1 X108.624 Y93.865 E7.58907
G1 X109.186 Y93.555 E7.60048
G1 X109.477 Y93.406 E7.60629
G1 X110.054 Y93.133 E7.61763
G1 X110.338 Y93.009 E7.62314
G1 X110.934 Y92.769 E7.63456
G1 X111.245 Y92.655 E7.64045
G1 X111.852 Y92.454 E7.65182
G1 X112.163 Y92.362 E7.65758
G1 X112.781 Y92.199 E7.66894
G1 X113.075 Y92.13 E7.67431
G1 X113.705 Y92.002 E7.68574
G1 X114.037 Y91.946 E7.69172
G1 X114.672 Y91.859 E7.70312
G1 X114.983 Y91.825 E7.70868
G1 X115.621 Y91.776 E7.72005
G1 X115.941 Y91.762 E7.72575
G1 X116.58 Y91.752 E7.73711
G1 X116.908 Y91.757 E7.74294
G1 X117.548 Y91.787 E7.75433
G1 X117.859 Y91.811 E7.75987
G1 X118.496 Y91.879 E7.77126
G1 X118.806 Y91.921 E7.77682
G1 X119.439 Y92.027 E7.78823
G1 X119.781 Y92.096 E7.79443
G1 X120.419 Y92.247 E7.80609
G1 X120.71 Y92.325 E7.81144
G1 X121.307 Y92.503 E7.82252
G1 X121.609 Y92.603 E7.82817
G1 X122.211 Y92.823 E7.83956
G1 X122.508 Y92.942 E7.84525
G1 X123.095 Y93.198 E7.85664
G1 X123.386 Y93.336 E7.86236
G1 X123.957 Y93.628 E7.87376
G1 X124.24 Y93.784 E7.8795
G1 X124.791 Y94.11 E7.89089
G1 X125.062 Y94.281 E7.89658
G1 X125.592 Y94.64 E7.90796
G1 X125.85 Y94.827 E7.91362
G1 X126.371 Y95.228 E7.92531
G1 X126.615 Y95.428 E7.93092
G1 X127.085 Y95.837 E7.94199
G1 X127.331 Y96.065 E7.94796
G1 X127.798 Y96.527 E7.95963
G1 X128.015 Y96.754 E7.96522
G1 X128.431 Y97.218 E7.97629
G1 X128.636 Y97.462 E7.98196
G1 X129.045 Y97.978 E7.99366
G1 X129.232 Y98.228 E7.99921
G1 X129.589 Y98.738 E8.01028
G1 X129.774 Y99.022 E8.0163
G1 X130.115 Y99.583 E8.02797
G1 X130.263 Y99.842 E8.03328
G1 X130.557 Y100.394 E8.04439
G1 X130.704 Y100.693 E8.05032
G1 X130.968 Y101.275 E8.06168
G1 X131.087 Y101.559 E8.06715
G1 X131.317 Y102.157 E8.07854
G1 X131.426 Y102.47 E8.08443
G1 X131.618 Y103.082 E8.09583
G1 X131.703 Y103.383 E8.10139
G1 X131.858 Y104.004 E8.11277
G1 X131.925 Y104.315 E8.11843
G1 X132.042 Y104.944 E8.1298
G1 X132.092 Y105.265 E8.13557
G1 X132.17 Y105.901 E8.14696
G1 X132.199 Y106.22 E8.15266
G1 X132.238 Y106.859 E8.16404
G1 X132.248 Y107.187 E8.16987
G1 X132.247 Y107.845 E8.18157
G1 X132.237 Y108.165 E8.18726
G1 X132.197 Y108.804 E8.19864
G1 X132.167 Y109.124 E8.20435
G1 X132.088 Y109.759 E8.21573
G1 X132.04 Y110.068 E8.22129
G1 X131.923 Y110.699 E8.23269
G1 X131.85 Y111.033 E8.23877
G1 X131.693 Y111.652 E8.25012
G1 X131.611 Y111.94 E8.25545
G1 X131.418 Y112.552 E8.26685
G1 X131.309 Y112.862 E8.27269
G1 X131.078 Y113.461 E8.28411
G1 X130.96 Y113.743 E8.28954
G1 X130.703 Y114.309 E8.30059
G1 X130.555 Y114.609 E8.30654
G1 X130.245 Y115.19 E8.31824
G1 X130.095 Y115.454 E8.32364
G1 X129.771 Y115.985 E8.3347
G1 X129.584 Y116.27 E8.34076
G1 X129.205 Y116.809 E8.35247
G1 X129.02 Y117.055 E8.35794
G1 X128.633 Y117.542 E8.369
G1 X128.426 Y117.788 E8.37471
G1 X127.986 Y118.277 E8.38641
G1 X127.77 Y118.503 E8.39196
G1 X127.327 Y118.94 E8.40303
G1 X127.084 Y119.164 E8.4089
G1 X126.587 Y119.596 E8.42061
G1 X126.33 Y119.806 E8.42651
G1 X125.822 Y120.194 E8.43787
G1 X125.572 Y120.374 E8.44334
G1 X125.04 Y120.733 E8.45475
G1 X124.77 Y120.903 E8.46042
G1 X124.219 Y121.228 E8.4718
G1 X123.94 Y121.381 E8.47745
G1 X123.384 Y121.665 E8.48855
G1 X123.088 Y121.805 E8.49437
G1 X122.485 Y122.067 E8.50606
G1 X122.194 Y122.183 E8.51163
G1 X121.608 Y122.397 E8.52272
G1 X121.299 Y122.5 E8.52851
G1 X120.668 Y122.687 E8.54021
G1 X120.362 Y122.767 E8.54583
G1 X119.741 Y122.911 E8.55716
G1 X119.422 Y122.975 E8.56294
G1 X118.789 Y123.081 E8.57435
G1 X118.471 Y123.124 E8.58006
G1 X117.834 Y123.191 E8.59144
G1 X117.523 Y123.215 E8.59699
G1 X116.883 Y123.244 E8.60837
G1 X116.555 Y123.248 E8.61421
G1 X115.916 Y123.237 E8.62557
G1 X115.596 Y123.222 E8.63126
G1 X114.958 Y123.172 E8.64264
G1 X114.647 Y123.138 E8.6482
G1 X114.012 Y123.05 E8.65959
G1 X113.688 Y122.995 E8.66544
G1 X113.058 Y122.867 E8.67686
G1 X112.747 Y122.794 E8.68254
G1 X112.13 Y122.629 E8.69389
G1 X111.828 Y122.538 E8.6995
G1 X111.221 Y122.336 E8.71087
G1 X110.911 Y122.222 E8.71674
G1 X110.315 Y121.981 E8.72817
G1 X110.031 Y121.856 E8.73369
G1 X109.454 Y121.582 E8.74504
G1 X109.163 Y121.433 E8.75085
G1 X108.603 Y121.123 E8.76223
G1 X108.335 Y120.964 E8.76777
G1 X107.794 Y120.621 E8.77916
G1 X107.53 Y120.442 E8.78483
G1 X107.025 Y120.077 E8.7959
G1 X106.771 Y119.881 E8.80161
G1 X106.276 Y119.475 E8.81299
G1 X106.039 Y119.269 E8.81857
G1 X105.569 Y118.834 E8.82995
G1 X105.342 Y118.611 E8.83561
G1 X104.898 Y118.147 E8.84703
G1 X104.68 Y117.905 E8.85282
G1 X104.267 Y117.416 E8.86419
G1 X104.064 Y117.16 E8.87
G1 X103.682 Y116.646 E8.88139
G1 X103.497 Y116.38 E8.88714
G1 X103.138 Y115.829 E8.89883
G1 X102.978 Y115.567 E8.90429
G1 X102.661 Y115.012 E8.91565
G1 X102.505 Y114.716 E8.9216
G1 X102.223 Y114.14 E8.933
G1 X102.092 Y113.852 E8.93863
G1 X101.846 Y113.262 E8.94999
G1 X101.733 Y112.966 E8.95562
G1 X101.522 Y112.359 E8.96704
G1 X101.423 Y112.044 E8.97291
G1 X101.252 Y111.43 E8.98424
G1 X101.178 Y111.126 E8.9898
G1 X101.043 Y110.499 E9.00121
G1 X100.985 Y110.188 E9.00683
G1 X100.888 Y109.554 E9.01823
G1 X100.849 Y109.232 E9.024
G1 X100.793 Y108.611 E9.03508
G1 X100.775 Y108.303 E9.04056
G1 X100.755 Y107.665 E9.05191
G1 X100.755 Y107.337 E9.05774
G1 X100.775 Y106.697 E9.06912
G1 X100.794 Y106.386 E9.07466
G1 X100.852 Y105.748 E9.08605
G1 X100.892 Y105.421 E9.09191
G1 X100.99 Y104.787 E9.10331
G1 X101.046 Y104.484 E9.10879
G1 X101.181 Y103.857 E9.12019
G1 X101.262 Y103.531 E9.12616
G1 X101.436 Y102.917 E9.1375
G1 X101.526 Y102.629 E9.14287
G1 X101.736 Y102.023 E9.15427
G1 X101.857 Y101.708 E9.16027
G1 X102.105 Y101.118 E9.17164
G1 X102.235 Y100.834 E9.1772
G1 X102.518 Y100.259 E9.18859
G1 X102.676 Y99.961 E9.19458
G1 X103.003 Y99.392 E9.20625
G1 X103.163 Y99.132 E9.21168
G1 X103.514 Y98.596 E9.22306
G1 X103.694 Y98.338 E9.22866
G1 X104.066 Y97.838 E9.23973
G1 X104.271 Y97.58 E9.24559
G1 X104.696 Y97.078 E9.25728
G1 X104.916 Y96.834 E9.26312
M204 S625
M205 X6 Y6
G0 F4285.7 X105.219 Y97.125
M204 S500
M205 X5 Y5
G1 F1200 X105.651 Y96.675 E9.27421
G1 X105.854 Y96.475 E9.27928
G1 X106.337 Y96.028 E9.29098
G1 X106.557 Y95.837 E9.29616
G1 X107.039 Y95.442 E9.30723
G1 X107.271 Y95.263 E9.31244
G1 X107.79 Y94.888 E9.32382
G1 X108.044 Y94.717 E9.32927
G1 X108.585 Y94.376 E9.34064
G1 X108.827 Y94.233 E9.34563
G1 X109.389 Y93.923 E9.35704
G1 X109.656 Y93.786 E9.36238
G1 X110.233 Y93.513 E9.37372
G1 X110.495 Y93.399 E9.3788
G1 X111.091 Y93.159 E9.39022
G1 X111.377 Y93.054 E9.39564
G1 X111.984 Y92.853 E9.407
G1 X112.27 Y92.768 E9.41231
G1 X112.888 Y92.605 E9.42367
G1 X113.158 Y92.542 E9.4286
G1 X113.788 Y92.414 E9.44003
G1 X114.094 Y92.362 E9.44554
G1 X114.729 Y92.275 E9.45694
G1 X115.015 Y92.244 E9.46205
G1 X115.653 Y92.195 E9.47342
G1 X115.947 Y92.182 E9.47866
G1 X116.586 Y92.172 E9.49002
G1 X116.888 Y92.176 E9.49538
G1 X117.528 Y92.206 E9.50677
G1 X117.815 Y92.228 E9.51189
G1 X118.452 Y92.296 E9.52328
G1 X118.737 Y92.335 E9.52839
G1 X119.37 Y92.441 E9.5398
G1 X119.684 Y92.505 E9.5455
G1 X120.322 Y92.656 E9.55715
G1 X120.59 Y92.727 E9.56208
G1 X121.187 Y92.905 E9.57315
G1 X121.465 Y92.997 E9.57836
G1 X122.067 Y93.217 E9.58975
G1 X122.34 Y93.327 E9.59498
G1 X122.927 Y93.583 E9.60637
G1 X123.195 Y93.71 E9.61164
G1 X123.766 Y94.002 E9.62304
G1 X124.026 Y94.145 E9.62831
G1 X124.577 Y94.471 E9.63969
G1 X124.827 Y94.629 E9.64495
G1 X125.357 Y94.988 E9.65633
G1 X125.594 Y95.159 E9.66153
G1 X126.115 Y95.56 E9.67321
G1 X126.34 Y95.744 E9.67838
G1 X126.81 Y96.153 E9.68945
G1 X127.036 Y96.363 E9.69494
G1 X127.503 Y96.825 E9.70662
G1 X127.702 Y97.035 E9.71176
G1 X128.118 Y97.499 E9.72284
G1 X128.307 Y97.723 E9.72805
G1 X128.716 Y98.239 E9.73975
G1 X128.888 Y98.469 E9.74486
G1 X129.245 Y98.979 E9.75592
G1 X129.415 Y99.24 E9.76146
G1 X129.756 Y99.801 E9.77313
G1 X129.892 Y100.039 E9.778
G1 X130.186 Y100.591 E9.78912
G1 X130.322 Y100.867 E9.79459
G1 X130.586 Y101.449 E9.80595
G1 X130.695 Y101.71 E9.81098
G1 X130.925 Y102.308 E9.82237
G1 X131.026 Y102.596 E9.82779
G1 X131.218 Y103.208 E9.83919
G1 X131.295 Y103.484 E9.84429
G1 X131.45 Y104.105 E9.85566
G1 X131.513 Y104.392 E9.86089
G1 X131.63 Y105.021 E9.87226
G1 X131.675 Y105.316 E9.87756
G1 X131.753 Y105.952 E9.88895
G1 X131.78 Y106.246 E9.8942
G1 X131.819 Y106.885 E9.90558
G1 X131.828 Y107.186 E9.91094
G1 X131.827 Y107.844 E9.92263
G1 X131.818 Y108.139 E9.92788
G1 X131.778 Y108.778 E9.93926
G1 X131.75 Y109.072 E9.94451
G1 X131.671 Y109.707 E9.95588
G1 X131.627 Y109.992 E9.96101
G1 X131.51 Y110.623 E9.97242
G1 X131.443 Y110.929 E9.97799
G1 X131.286 Y111.548 E9.98934
G1 X131.21 Y111.814 E9.99426
G1 X131.017 Y112.426 E10.00566
G1 X130.918 Y112.711 E10.01103
G1 X130.687 Y113.31 E10.02244
G1 X130.578 Y113.569 E10.02743
G1 X130.321 Y114.135 E10.03848
G1 X130.184 Y114.412 E10.04398
G1 X129.874 Y114.993 E10.05568
G1 X129.736 Y115.235 E10.06063
G1 X129.412 Y115.766 E10.07169
G1 X129.24 Y116.028 E10.07726
G1 X128.861 Y116.567 E10.08898
G1 X128.691 Y116.794 E10.09402
G1 X128.304 Y117.281 E10.10507
G1 X128.113 Y117.507 E10.11033
G1 X127.673 Y117.996 E10.12203
G1 X127.475 Y118.204 E10.12713
G1 X127.032 Y118.641 E10.13819
G1 X126.809 Y118.847 E10.14359
G1 X126.312 Y119.279 E10.1553
G1 X126.075 Y119.472 E10.16073
G1 X125.567 Y119.86 E10.17209
G1 X125.337 Y120.026 E10.17713
G1 X124.805 Y120.385 E10.18854
G1 X124.557 Y120.541 E10.19375
G1 X124.006 Y120.866 E10.20512
G1 X123.749 Y121.007 E10.21033
G1 X123.193 Y121.291 E10.22143
G1 X122.921 Y121.42 E10.22678
G1 X122.318 Y121.682 E10.23847
G1 X122.05 Y121.789 E10.2436
G1 X121.464 Y122.003 E10.25469
G1 X121.179 Y122.097 E10.26002
G1 X120.548 Y122.284 E10.27172
G1 X120.267 Y122.358 E10.27689
G1 X119.646 Y122.502 E10.28822
G1 X119.353 Y122.561 E10.29353
G1 X118.72 Y122.667 E10.30494
G1 X118.427 Y122.707 E10.3102
G1 X117.79 Y122.774 E10.32158
G1 X117.504 Y122.795 E10.32668
G1 X116.864 Y122.824 E10.33807
G1 X116.562 Y122.828 E10.34344
G1 X115.923 Y122.817 E10.3548
G1 X115.629 Y122.803 E10.36003
G1 X114.991 Y122.753 E10.37141
G1 X114.705 Y122.722 E10.37652
G1 X114.07 Y122.634 E10.38792
G1 X113.771 Y122.583 E10.39331
G1 X113.141 Y122.455 E10.40474
G1 X112.855 Y122.388 E10.40996
G1 X112.238 Y122.223 E10.42131
G1 X111.961 Y122.14 E10.42645
G1 X111.354 Y121.938 E10.43782
G1 X111.068 Y121.833 E10.44324
G1 X110.472 Y121.592 E10.45467
G1 X110.211 Y121.477 E10.45974
G1 X109.634 Y121.203 E10.47109
G1 X109.367 Y121.066 E10.47642
G1 X108.807 Y120.756 E10.4878
G1 X108.56 Y120.609 E10.49291
G1 X108.019 Y120.266 E10.5043
G1 X107.776 Y120.102 E10.50951
G1 X107.271 Y119.737 E10.52059
G1 X107.037 Y119.557 E10.52583
G1 X106.542 Y119.151 E10.53721
G1 X106.324 Y118.961 E10.54235
G1 X105.854 Y118.526 E10.55374
G1 X105.645 Y118.32 E10.55896
G1 X105.201 Y117.856 E10.57037
G1 X105.001 Y117.634 E10.57568
G1 X104.588 Y117.145 E10.58706
G1 X104.401 Y116.909 E10.59241
G1 X104.019 Y116.395 E10.6038
G1 X103.849 Y116.151 E10.60908
G1 X103.49 Y115.6 E10.62077
G1 X103.343 Y115.359 E10.62579
G1 X103.026 Y114.804 E10.63715
G1 X102.882 Y114.532 E10.64262
G1 X102.6 Y113.956 E10.65402
G1 X102.48 Y113.691 E10.6592
G1 X102.234 Y113.101 E10.67056
G1 X102.13 Y112.828 E10.67575
G1 X101.919 Y112.221 E10.68717
G1 X101.828 Y111.931 E10.69258
G1 X101.657 Y111.317 E10.70391
G1 X101.588 Y111.038 E10.70902
G1 X101.453 Y110.411 E10.72042
G1 X101.401 Y110.124 E10.7256
G1 X101.304 Y109.49 E10.737
G1 X101.268 Y109.194 E10.7423
G1 X101.212 Y108.573 E10.75339
G1 X101.194 Y108.29 E10.75843
G1 X101.174 Y107.652 E10.76977
G1 X101.174 Y107.35 E10.77514
G1 X101.194 Y106.71 E10.78652
G1 X101.212 Y106.424 E10.79162
G1 X101.27 Y105.786 E10.80301
G1 X101.307 Y105.485 E10.8084
G1 X101.405 Y104.851 E10.8198
G1 X101.456 Y104.572 E10.82484
G1 X101.591 Y103.945 E10.83624
G1 X101.666 Y103.645 E10.84174
G1 X101.84 Y103.031 E10.85309
G1 X101.923 Y102.767 E10.858
G1 X102.133 Y102.161 E10.86941
G1 X102.244 Y101.87 E10.87494
G1 X102.492 Y101.28 E10.88632
G1 X102.611 Y101.019 E10.89142
G1 X102.894 Y100.444 E10.90281
G1 X103.04 Y100.17 E10.90833
G1 X103.367 Y99.601 E10.91999
G1 X103.514 Y99.362 E10.92498
G1 X103.865 Y98.826 E10.93637
G1 X104.031 Y98.589 E10.94151
G1 X104.403 Y98.089 E10.95259
G1 X104.592 Y97.851 E10.95799
G1 X105.017 Y97.349 E10.96969
G1 X105.219 Y97.125 E10.97505
M204 S625
M205 X6 Y6
G0 F4285.7 X105.522 Y97.416
M204 S500
M205 X5 Y5
G1 F1200 X105.954 Y96.966 E10.98614
G1 X106.14 Y96.783 E10.99078
G1 X106.623 Y96.336 E11.00247
G1 X106.823 Y96.162 E11.00719
G1 X107.305 Y95.767 E11.01826
G1 X107.517 Y95.603 E11.02303
G1 X108.036 Y95.228 E11.03441
G1 X108.267 Y95.072 E11.03937
G1 X108.808 Y94.731 E11.05073
G1 X109.03 Y94.601 E11.05531
G1 X109.592 Y94.291 E11.06672
G1 X109.836 Y94.166 E11.07159
G1 X110.413 Y93.893 E11.08294
G1 X110.652 Y93.788 E11.08758
G1 X111.248 Y93.548 E11.099
G1 X111.509 Y93.453 E11.10393
G1 X112.116 Y93.252 E11.1153
G1 X112.377 Y93.174 E11.12014
G1 X112.995 Y93.011 E11.1315
G1 X113.242 Y92.953 E11.13601
G1 X113.872 Y92.825 E11.14744
G1 X114.151 Y92.778 E11.15247
G1 X114.786 Y92.691 E11.16386
G1 X115.047 Y92.663 E11.16853
G1 X115.685 Y92.614 E11.17991
G1 X115.954 Y92.602 E11.18469
G1 X116.593 Y92.592 E11.19605
G1 X116.868 Y92.596 E11.20094
G1 X117.508 Y92.626 E11.21233
G1 X117.77 Y92.646 E11.217
G1 X118.407 Y92.714 E11.22839
G1 X118.667 Y92.75 E11.23305
G1 X119.3 Y92.856 E11.24446
G1 X119.588 Y92.914 E11.24969
G1 X120.226 Y93.065 E11.26134
G1 X120.47 Y93.13 E11.26583
G1 X121.067 Y93.308 E11.2769
G1 X121.321 Y93.392 E11.28166
G1 X121.923 Y93.612 E11.29305
G1 X122.172 Y93.712 E11.29782
G1 X122.759 Y93.968 E11.3092
G1 X123.004 Y94.084 E11.31402
G1 X123.575 Y94.376 E11.32542
G1 X123.813 Y94.507 E11.33025
G1 X124.364 Y94.833 E11.34163
G1 X124.591 Y94.977 E11.34641
G1 X125.121 Y95.336 E11.35779
G1 X125.338 Y95.492 E11.36254
G1 X125.859 Y95.893 E11.37423
G1 X126.064 Y96.061 E11.37894
G1 X126.534 Y96.47 E11.39002
G1 X126.741 Y96.662 E11.39503
G1 X127.208 Y97.124 E11.40671
G1 X127.39 Y97.315 E11.4114
G1 X127.806 Y97.779 E11.42248
G1 X127.978 Y97.984 E11.42724
G1 X128.387 Y98.5 E11.43894
G1 X128.544 Y98.71 E11.4436
G1 X128.901 Y99.22 E11.45467
G1 X129.056 Y99.458 E11.45972
G1 X129.397 Y100.019 E11.47139
G1 X129.521 Y100.237 E11.47584
G1 X129.815 Y100.789 E11.48696
G1 X129.939 Y101.04 E11.49194
G1 X130.203 Y101.622 E11.5033
G1 X130.303 Y101.861 E11.5079
G1 X130.533 Y102.459 E11.51929
G1 X130.625 Y102.722 E11.52425
G1 X130.817 Y103.334 E11.53565
G1 X130.888 Y103.586 E11.5403
G1 X131.043 Y104.207 E11.55168
G1 X131.1 Y104.469 E11.55644
G1 X131.217 Y105.098 E11.56782
G1 X131.258 Y105.367 E11.57265
G1 X131.336 Y106.003 E11.58404
G1 X131.361 Y106.271 E11.58883
G1 X131.4 Y106.91 E11.60021
G1 X131.408 Y107.186 E11.60512
G1 X131.407 Y107.844 E11.61681
G1 X131.398 Y108.113 E11.6216
G1 X131.358 Y108.752 E11.63298
G1 X131.333 Y109.02 E11.63776
G1 X131.254 Y109.655 E11.64914
G1 X131.214 Y109.915 E11.65382
G1 X131.097 Y110.546 E11.66522
G1 X131.036 Y110.826 E11.67032
G1 X130.879 Y111.445 E11.68167
G1 X130.81 Y111.687 E11.68614
G1 X130.617 Y112.299 E11.69755
G1 X130.526 Y112.56 E11.70246
G1 X130.295 Y113.159 E11.71387
G1 X130.195 Y113.395 E11.71843
G1 X129.938 Y113.961 E11.72948
G1 X129.814 Y114.214 E11.73449
G1 X129.504 Y114.795 E11.7462
G1 X129.378 Y115.016 E11.75072
G1 X129.054 Y115.547 E11.76177
G1 X128.896 Y115.787 E11.76688
G1 X128.517 Y116.326 E11.7786
G1 X128.363 Y116.533 E11.78318
G1 X127.976 Y117.02 E11.79424
G1 X127.801 Y117.226 E11.79904
G1 X127.361 Y117.715 E11.81074
G1 X127.18 Y117.905 E11.8154
G1 X126.737 Y118.342 E11.82646
G1 X126.533 Y118.53 E11.83139
G1 X126.036 Y118.962 E11.8431
G1 X125.82 Y119.139 E11.84806
G1 X125.312 Y119.527 E11.85943
G1 X125.102 Y119.678 E11.86402
G1 X124.57 Y120.037 E11.87543
G1 X124.343 Y120.179 E11.88019
G1 X123.792 Y120.504 E11.89156
G1 X123.558 Y120.633 E11.89631
G1 X123.002 Y120.917 E11.90741
G1 X122.753 Y121.035 E11.91231
G1 X122.15 Y121.297 E11.924
G1 X121.906 Y121.394 E11.92866
G1 X121.32 Y121.608 E11.93975
G1 X121.06 Y121.694 E11.94462
G1 X120.429 Y121.881 E11.95632
G1 X120.172 Y121.949 E11.96105
G1 X119.551 Y122.093 E11.97238
G1 X119.283 Y122.146 E11.97723
G1 X118.65 Y122.252 E11.98864
G1 X118.383 Y122.289 E11.99344
G1 X117.746 Y122.356 E12.00482
G1 X117.485 Y122.375 E12.00947
G1 X116.845 Y122.404 E12.02086
G1 X116.569 Y122.408 E12.02577
G1 X115.93 Y122.397 E12.03713
G1 X115.661 Y122.385 E12.04191
G1 X115.023 Y122.335 E12.05329
G1 X114.763 Y122.306 E12.05794
G1 X114.128 Y122.218 E12.06934
G1 X113.855 Y122.172 E12.07426
G1 X113.225 Y122.044 E12.08569
G1 X112.964 Y121.982 E12.09045
G1 X112.347 Y121.817 E12.10181
G1 X112.094 Y121.741 E12.1065
G1 X111.487 Y121.539 E12.11788
G1 X111.226 Y121.443 E12.12282
G1 X110.63 Y121.202 E12.13425
G1 X110.391 Y121.098 E12.13888
G1 X109.814 Y120.824 E12.15023
G1 X109.57 Y120.698 E12.15512
G1 X109.01 Y120.388 E12.16649
G1 X108.785 Y120.255 E12.17114
G1 X108.244 Y119.912 E12.18253
G1 X108.022 Y119.761 E12.1873
G1 X107.517 Y119.396 E12.19838
G1 X107.303 Y119.232 E12.20317
G1 X106.808 Y118.826 E12.21455
G1 X106.609 Y118.653 E12.21924
G1 X106.139 Y118.218 E12.23062
G1 X105.949 Y118.03 E12.23537
G1 X105.505 Y117.566 E12.24679
G1 X105.322 Y117.363 E12.25164
G1 X104.909 Y116.874 E12.26302
G1 X104.738 Y116.659 E12.26791
G1 X104.356 Y116.145 E12.27929
G1 X104.201 Y115.921 E12.28413
G1 X103.842 Y115.37 E12.29582
G1 X103.708 Y115.15 E12.3004
G1 X103.391 Y114.595 E12.31176
G1 X103.259 Y114.347 E12.31676
G1 X102.977 Y113.771 E12.32816
G1 X102.868 Y113.529 E12.33287
G1 X102.622 Y112.939 E12.34424
G1 X102.526 Y112.69 E12.34898
G1 X102.315 Y112.083 E12.3604
G1 X102.233 Y111.818 E12.36534
G1 X102.062 Y111.204 E12.37667
G1 X101.999 Y110.949 E12.38133
G1 X101.864 Y110.322 E12.39274
G1 X101.816 Y110.061 E12.39745
G1 X101.719 Y109.427 E12.40885
G1 X101.686 Y109.156 E12.41371
G1 X101.63 Y108.535 E12.42479
G1 X101.614 Y108.277 E12.42939
G1 X101.594 Y107.639 E12.44073
G1 X101.594 Y107.363 E12.44564
G1 X101.614 Y106.723 E12.45702
G1 X101.63 Y106.462 E12.46167
G1 X101.688 Y105.824 E12.47306
G1 X101.722 Y105.549 E12.47798
G1 X101.82 Y104.915 E12.48939
G1 X101.867 Y104.661 E12.49398
G1 X102.002 Y104.034 E12.50538
G1 X102.07 Y103.76 E12.5104
G1 X102.244 Y103.146 E12.52174
G1 X102.32 Y102.904 E12.52625
G1 X102.53 Y102.298 E12.53765
G1 X102.632 Y102.033 E12.5427
G1 X102.88 Y101.443 E12.55408
G1 X102.988 Y101.205 E12.55872
G1 X103.271 Y100.63 E12.57011
G1 X103.404 Y100.38 E12.57515
G1 X103.731 Y99.811 E12.58681
G1 X103.866 Y99.592 E12.59139
G1 X104.217 Y99.056 E12.60278
G1 X104.368 Y98.84 E12.60746
G1 X104.74 Y98.34 E12.61854
G1 X104.912 Y98.122 E12.62347
G1 X105.337 Y97.62 E12.63517
G1 X105.522 Y97.416 E12.64006
M204 S625
M205 X6 Y6
G0 F4285.7 X105.825 Y97.707
M204 S500
M205 X5 Y5
G1 F1200 X106.257 Y97.257 E12.65115
G1 X106.425 Y97.092 E12.65534
G1 X106.908 Y96.645 E12.66703
G1 X107.089 Y96.487 E12.67131
G1 X107.571 Y96.092 E12.68238
G1 X107.763 Y95.944 E12.68669
G1 X108.282 Y95.569 E12.69807
G1 X108.491 Y95.428 E12.70256
G1 X109.032 Y95.087 E12.71392
G1 X109.233 Y94.968 E12.71808
G1 X109.795 Y94.658 E12.72948
G1 X110.016 Y94.545 E12.7339
G1 X110.593 Y94.272 E12.74524
G1 X110.809 Y94.178 E12.74943
G1 X111.405 Y93.938 E12.76085
G1 X111.641 Y93.851 E12.76532
G1 X112.248 Y93.65 E12.77669
G1 X112.484 Y93.58 E12.78107
G1 X113.102 Y93.417 E12.79243
G1 X113.326 Y93.365 E12.79651
G1 X113.956 Y93.237 E12.80794
G1 X114.208 Y93.194 E12.81249
G1 X114.843 Y93.107 E12.82388
G1 X115.079 Y93.082 E12.8281
G1 X115.717 Y93.033 E12.83947
G1 X115.961 Y93.021 E12.84382
G1 X116.6 Y93.011 E12.85518
G1 X116.849 Y93.015 E12.8596
G1 X117.489 Y93.045 E12.87099
G1 X117.726 Y93.064 E12.87522
G1 X118.363 Y93.132 E12.88661
G1 X118.598 Y93.164 E12.89082
G1 X119.231 Y93.27 E12.90223
G1 X119.491 Y93.322 E12.90694
G1 X120.129 Y93.473 E12.9186
G1 X120.35 Y93.532 E12.92266
G1 X120.947 Y93.71 E12.93374
G1 X121.177 Y93.786 E12.93804
G1 X121.779 Y94.006 E12.94944
G1 X122.004 Y94.097 E12.95375
G1 X122.591 Y94.353 E12.96514
G1 X122.813 Y94.458 E12.9695
G1 X123.384 Y94.75 E12.9809
G1 X123.599 Y94.868 E12.98526
G1 X124.15 Y95.194 E12.99664
G1 X124.356 Y95.325 E13.00098
G1 X124.886 Y95.684 E13.01236
G1 X125.082 Y95.825 E13.01665
G1 X125.603 Y96.226 E13.02834
G1 X125.788 Y96.378 E13.03259
G1 X126.258 Y96.787 E13.04367
G1 X126.445 Y96.961 E13.04821
G1 X126.912 Y97.423 E13.05989
G1 X127.077 Y97.595 E13.06412
G1 X127.493 Y98.059 E13.0752
G1 X127.649 Y98.245 E13.07952
G1 X128.058 Y98.761 E13.09122
G1 X128.2 Y98.951 E13.09544
G1 X128.557 Y99.461 E13.1065
G1 X128.698 Y99.677 E13.11109
G1 X129.039 Y100.238 E13.12276
G1 X129.151 Y100.434 E13.12677
G1 X129.445 Y100.986 E13.13789
G1 X129.557 Y101.214 E13.14241
G1 X129.821 Y101.796 E13.15377
G1 X129.911 Y102.012 E13.15793
G1 X130.141 Y102.61 E13.16931
G1 X130.224 Y102.848 E13.17379
G1 X130.416 Y103.46 E13.1852
G1 X130.48 Y103.688 E13.18941
G1 X130.635 Y104.309 E13.20078
G1 X130.687 Y104.545 E13.20508
G1 X130.804 Y105.174 E13.21645
G1 X130.841 Y105.418 E13.22084
G1 X130.919 Y106.054 E13.23223
G1 X130.942 Y106.297 E13.23657
G1 X130.981 Y106.936 E13.24795
G1 X130.988 Y107.185 E13.25238
G1 X130.987 Y107.843 E13.26407
G1 X130.979 Y108.086 E13.26839
G1 X130.939 Y108.725 E13.27978
G1 X130.916 Y108.969 E13.28413
G1 X130.837 Y109.604 E13.29551
G1 X130.801 Y109.838 E13.29972
G1 X130.684 Y110.469 E13.31112
G1 X130.629 Y110.723 E13.31574
G1 X130.472 Y111.342 E13.3271
G1 X130.409 Y111.561 E13.33115
G1 X130.216 Y112.173 E13.34255
G1 X130.134 Y112.409 E13.34699
G1 X129.903 Y113.008 E13.35841
G1 X129.813 Y113.222 E13.36253
G1 X129.556 Y113.788 E13.37358
G1 X129.443 Y114.016 E13.37811
G1 X129.133 Y114.597 E13.38981
G1 X129.019 Y114.797 E13.3939
G1 X128.695 Y115.328 E13.40496
G1 X128.553 Y115.545 E13.40957
G1 X128.174 Y116.084 E13.42128
G1 X128.034 Y116.271 E13.42544
G1 X127.647 Y116.758 E13.43649
G1 X127.489 Y116.945 E13.44085
G1 X127.049 Y117.434 E13.45254
G1 X126.885 Y117.606 E13.45676
G1 X126.442 Y118.043 E13.46783
G1 X126.258 Y118.213 E13.47228
G1 X125.761 Y118.645 E13.48398
G1 X125.565 Y118.805 E13.48848
G1 X125.057 Y119.193 E13.49984
G1 X124.867 Y119.329 E13.504
G1 X124.335 Y119.688 E13.51541
G1 X124.13 Y119.818 E13.51972
G1 X123.579 Y120.143 E13.53109
G1 X123.367 Y120.259 E13.53539
G1 X122.811 Y120.543 E13.54649
G1 X122.586 Y120.649 E13.55091
G1 X121.983 Y120.911 E13.5626
G1 X121.762 Y121 E13.56683
G1 X121.176 Y121.214 E13.57792
G1 X120.941 Y121.292 E13.58232
G1 X120.31 Y121.479 E13.59402
G1 X120.077 Y121.54 E13.5983
G1 X119.456 Y121.684 E13.60963
G1 X119.214 Y121.732 E13.61402
G1 X118.581 Y121.838 E13.62543
G1 X118.339 Y121.871 E13.62977
G1 X117.702 Y121.938 E13.64116
G1 X117.466 Y121.956 E13.64536
G1 X116.826 Y121.985 E13.65675
G1 X116.576 Y121.988 E13.6612
G1 X115.937 Y121.977 E13.67256
G1 X115.694 Y121.966 E13.67688
G1 X115.056 Y121.916 E13.68826
G1 X114.82 Y121.89 E13.69248
G1 X114.185 Y121.802 E13.70387
G1 X113.939 Y121.76 E13.70831
G1 X113.309 Y121.632 E13.71974
G1 X113.072 Y121.577 E13.72406
G1 X112.455 Y121.412 E13.73541
G1 X112.226 Y121.343 E13.73966
G1 X111.619 Y121.141 E13.75104
G1 X111.383 Y121.054 E13.75551
G1 X110.787 Y120.813 E13.76694
G1 X110.571 Y120.718 E13.77113
G1 X109.994 Y120.444 E13.78248
G1 X109.774 Y120.331 E13.78688
G1 X109.214 Y120.021 E13.79826
G1 X109.01 Y119.9 E13.80248
G1 X108.469 Y119.557 E13.81386
G1 X108.268 Y119.421 E13.81818
G1 X107.763 Y119.056 E13.82925
G1 X107.57 Y118.907 E13.83359
G1 X107.075 Y118.501 E13.84497
G1 X106.895 Y118.344 E13.84921
G1 X106.425 Y117.909 E13.8606
G1 X106.252 Y117.74 E13.8649
G1 X105.808 Y117.276 E13.87631
G1 X105.643 Y117.092 E13.8807
G1 X105.23 Y116.603 E13.89208
G1 X105.076 Y116.408 E13.8965
G1 X104.694 Y115.894 E13.90788
G1 X104.553 Y115.692 E13.91226
G1 X104.194 Y115.141 E13.92395
G1 X104.072 Y114.942 E13.9281
G1 X103.755 Y114.387 E13.93946
G1 X103.636 Y114.162 E13.94399
G1 X103.354 Y113.586 E13.95539
G1 X103.255 Y113.368 E13.95964
G1 X103.009 Y112.778 E13.97101
G1 X102.923 Y112.552 E13.97531
G1 X102.712 Y111.945 E13.98673
G1 X102.637 Y111.705 E13.9912
G1 X102.466 Y111.091 E14.00253
G1 X102.409 Y110.861 E14.00674
G1 X102.274 Y110.234 E14.01814
G1 X102.231 Y109.997 E14.02242
G1 X102.134 Y109.363 E14.03382
G1 X102.104 Y109.118 E14.03821
G1 X102.048 Y108.497 E14.0493
G1 X102.034 Y108.264 E14.05344
G1 X102.014 Y107.626 E14.06479
G1 X102.014 Y107.376 E14.06924
G1 X102.034 Y106.736 E14.08062
G1 X102.048 Y106.5 E14.08482
G1 X102.106 Y105.862 E14.09621
G1 X102.137 Y105.613 E14.10067
G1 X102.235 Y104.979 E14.11207
G1 X102.277 Y104.749 E14.11623
G1 X102.412 Y104.122 E14.12763
G1 X102.474 Y103.874 E14.13217
G1 X102.648 Y103.26 E14.14352
G1 X102.717 Y103.042 E14.14758
G1 X102.927 Y102.436 E14.15898
G1 X103.019 Y102.196 E14.16355
G1 X103.267 Y101.606 E14.17493
G1 X103.365 Y101.39 E14.17914
G1 X103.648 Y100.815 E14.19054
G1 X103.769 Y100.589 E14.19509
G1 X104.096 Y100.02 E14.20676
G1 X104.217 Y99.822 E14.21088
G1 X104.568 Y99.286 E14.22227
G1 X104.705 Y99.09 E14.22652
G1 X105.077 Y98.59 E14.2376
G1 X105.233 Y98.394 E14.24206
G1 X105.658 Y97.892 E14.25375
G1 X105.825 Y97.707 E14.25818
M204 S625
M205 X6 Y6
G0 F4285.7 X106.128 Y97.998
M204 S500
M205 X5 Y5
G1 F1200 X106.56 Y97.548 E14.26927
G1 X106.71 Y97.4 E14.27301
G1 X107.193 Y96.953 E14.28471
G1 X107.355 Y96.812 E14.28853
G1 X107.837 Y96.417 E14.29961
G1 X108.009 Y96.284 E14.30347
G1 X108.528 Y95.909 E14.31485
G1 X108.715 Y95.783 E14.31886
G1 X109.256 Y95.442 E14.33023
G1 X109.436 Y95.336 E14.33394
G1 X109.998 Y95.026 E14.34535
G1 X110.195 Y94.925 E14.34929
G1 X110.772 Y94.652 E14.36063
G1 X110.965 Y94.567 E14.36438
G1 X111.561 Y94.327 E14.3758
G1 X111.773 Y94.25 E14.37981
G1 X112.38 Y94.049 E14.39118
G1 X112.592 Y93.986 E14.39511
G1 X113.21 Y93.823 E14.40647
G1 X113.409 Y93.776 E14.41011
G1 X114.039 Y93.648 E14.42153
G1 X114.265 Y93.61 E14.42561
G1 X114.9 Y93.523 E14.437
G1 X115.112 Y93.5 E14.44079
G1 X115.75 Y93.451 E14.45217
G1 X115.967 Y93.441 E14.45603
G1 X116.606 Y93.431 E14.46739
G1 X116.829 Y93.435 E14.47135
G1 X117.469 Y93.465 E14.48274
G1 X117.681 Y93.481 E14.48652
G1 X118.318 Y93.549 E14.49791
G1 X118.529 Y93.578 E14.50169
G1 X119.162 Y93.684 E14.5131
G1 X119.394 Y93.731 E14.51731
G1 X120.032 Y93.882 E14.52897
G1 X120.23 Y93.935 E14.53261
G1 X120.827 Y94.113 E14.54368
G1 X121.032 Y94.181 E14.54752
G1 X121.634 Y94.401 E14.55892
G1 X121.836 Y94.482 E14.56278
G1 X122.423 Y94.738 E14.57417
G1 X122.621 Y94.831 E14.57806
G1 X123.192 Y95.123 E14.58946
G1 X123.385 Y95.229 E14.59337
G1 X123.936 Y95.555 E14.60475
G1 X124.12 Y95.672 E14.60863
G1 X124.65 Y96.031 E14.62001
G1 X124.825 Y96.158 E14.62385
G1 X125.346 Y96.559 E14.63554
G1 X125.513 Y96.695 E14.63937
G1 X125.983 Y97.104 E14.65044
G1 X126.15 Y97.259 E14.65449
G1 X126.617 Y97.721 E14.66617
G1 X126.764 Y97.876 E14.66997
G1 X127.18 Y98.34 E14.68104
G1 X127.32 Y98.505 E14.68489
G1 X127.729 Y99.021 E14.69659
G1 X127.856 Y99.192 E14.70038
G1 X128.213 Y99.702 E14.71145
G1 X128.339 Y99.895 E14.71554
G1 X128.68 Y100.456 E14.72721
G1 X128.78 Y100.632 E14.73081
G1 X129.074 Y101.184 E14.74193
G1 X129.174 Y101.387 E14.74595
G1 X129.438 Y101.969 E14.75731
G1 X129.519 Y102.162 E14.76103
G1 X129.749 Y102.76 E14.77242
G1 X129.823 Y102.973 E14.77643
G1 X130.015 Y103.585 E14.78783
G1 X130.073 Y103.789 E14.7916
G1 X130.228 Y104.41 E14.80298
G1 X130.274 Y104.622 E14.80684
G1 X130.391 Y105.251 E14.81821
G1 X130.424 Y105.469 E14.82213
G1 X130.502 Y106.105 E14.83352
G1 X130.522 Y106.323 E14.83741
G1 X130.561 Y106.962 E14.84879
G1 X130.568 Y107.184 E14.85274
G1 X130.567 Y107.842 E14.86443
G1 X130.56 Y108.06 E14.86831
G1 X130.52 Y108.699 E14.87969
G1 X130.5 Y108.917 E14.88358
G1 X130.421 Y109.552 E14.89496
G1 X130.388 Y109.762 E14.89874
G1 X130.271 Y110.393 E14.91014
G1 X130.221 Y110.62 E14.91428
G1 X130.064 Y111.239 E14.92563
G1 X130.009 Y111.435 E14.92925
G1 X129.816 Y112.047 E14.94065
G1 X129.742 Y112.258 E14.94463
G1 X129.511 Y112.857 E14.95604
G1 X129.431 Y113.048 E14.95972
G1 X129.174 Y113.614 E14.97077
G1 X129.073 Y113.819 E14.97483
G1 X128.763 Y114.4 E14.98654
G1 X128.66 Y114.578 E14.9902
G1 X128.336 Y115.109 E15.00125
G1 X128.209 Y115.303 E15.00538
G1 X127.83 Y115.842 E15.01709
G1 X127.705 Y116.01 E15.02081
G1 X127.318 Y116.497 E15.03187
G1 X127.177 Y116.664 E15.03575
G1 X126.737 Y117.153 E15.04745
G1 X126.59 Y117.307 E15.05123
G1 X126.147 Y117.744 E15.06229
G1 X125.982 Y117.896 E15.06628
G1 X125.485 Y118.328 E15.07799
G1 X125.31 Y118.471 E15.082
G1 X124.802 Y118.859 E15.09337
G1 X124.632 Y118.981 E15.09709
G1 X124.1 Y119.34 E15.10849
G1 X123.917 Y119.456 E15.11235
G1 X123.366 Y119.781 E15.12372
G1 X123.176 Y119.885 E15.12757
G1 X122.62 Y120.169 E15.13867
G1 X122.419 Y120.264 E15.14262
G1 X121.816 Y120.526 E15.1543
G1 X121.618 Y120.605 E15.15809
G1 X121.032 Y120.819 E15.16918
G1 X120.821 Y120.889 E15.17313
G1 X120.19 Y121.076 E15.18483
G1 X119.982 Y121.131 E15.18866
G1 X119.361 Y121.275 E15.19999
G1 X119.145 Y121.318 E15.2039
G1 X118.512 Y121.424 E15.21531
G1 X118.295 Y121.453 E15.21921
G1 X117.658 Y121.52 E15.23059
G1 X117.447 Y121.536 E15.23435
G1 X116.807 Y121.565 E15.24574
G1 X116.584 Y121.568 E15.24971
G1 X115.945 Y121.557 E15.26107
G1 X115.727 Y121.547 E15.26495
G1 X115.089 Y121.497 E15.27632
G1 X114.878 Y121.474 E15.28009
G1 X114.243 Y121.386 E15.29149
G1 X114.022 Y121.349 E15.29547
G1 X113.392 Y121.221 E15.3069
G1 X113.181 Y121.171 E15.31076
G1 X112.564 Y121.006 E15.32211
G1 X112.359 Y120.944 E15.32592
G1 X111.752 Y120.742 E15.33729
G1 X111.541 Y120.665 E15.34128
G1 X110.945 Y120.424 E15.35271
G1 X110.752 Y120.339 E15.35646
G1 X110.175 Y120.065 E15.36781
G1 X109.977 Y119.963 E15.37177
G1 X109.417 Y119.653 E15.38315
G1 X109.234 Y119.545 E15.38693
G1 X108.693 Y119.202 E15.39831
G1 X108.514 Y119.08 E15.40216
G1 X108.009 Y118.715 E15.41324
G1 X107.836 Y118.582 E15.41712
G1 X107.341 Y118.176 E15.4285
G1 X107.18 Y118.036 E15.43229
G1 X106.71 Y117.601 E15.44367
G1 X106.556 Y117.449 E15.44752
G1 X106.112 Y116.985 E15.45894
G1 X105.964 Y116.821 E15.46286
G1 X105.551 Y116.332 E15.47424
G1 X105.413 Y116.157 E15.4782
G1 X105.031 Y115.643 E15.48959
G1 X104.905 Y115.463 E15.49349
G1 X104.546 Y114.912 E15.50518
G1 X104.437 Y114.734 E15.50889
G1 X104.12 Y114.179 E15.52025
G1 X104.014 Y113.978 E15.52429
G1 X103.732 Y113.402 E15.53569
G1 X103.643 Y113.206 E15.53952
G1 X103.397 Y112.616 E15.55088
G1 X103.32 Y112.414 E15.55473
G1 X103.109 Y111.807 E15.56615
G1 X103.042 Y111.593 E15.57014
G1 X102.871 Y110.979 E15.58147
G1 X102.82 Y110.772 E15.58526
G1 X102.685 Y110.145 E15.59666
G1 X102.646 Y109.934 E15.60047
G1 X102.549 Y109.3 E15.61187
G1 X102.522 Y109.081 E15.61579
G1 X102.466 Y108.46 E15.62688
G1 X102.454 Y108.251 E15.6306
G1 X102.434 Y107.613 E15.64195
G1 X102.434 Y107.389 E15.64593
G1 X102.454 Y106.749 E15.65731
G1 X102.467 Y106.538 E15.66107
G1 X102.525 Y105.9 E15.67246
G1 X102.552 Y105.678 E15.67643
G1 X102.65 Y105.044 E15.68783
G1 X102.688 Y104.838 E15.69156
G1 X102.823 Y104.211 E15.70296
G1 X102.878 Y103.989 E15.70702
G1 X103.052 Y103.375 E15.71837
G1 X103.114 Y103.179 E15.72202
G1 X103.324 Y102.573 E15.73342
G1 X103.406 Y102.359 E15.7375
G1 X103.654 Y101.769 E15.74887
G1 X103.742 Y101.576 E15.75265
G1 X104.025 Y101.001 E15.76404
G1 X104.133 Y100.798 E15.76812
G1 X104.46 Y100.229 E15.77979
G1 X104.568 Y100.052 E15.78348
G1 X104.919 Y99.516 E15.79487
G1 X105.042 Y99.341 E15.79867
G1 X105.414 Y98.841 E15.80975
G1 X105.553 Y98.665 E15.81373
G1 X105.978 Y98.163 E15.82542
G1 X106.128 Y97.998 E15.82939
M204 S625
M205 X6 Y6
G0 F4285.7 X106.431 Y98.289
M204 S500
M205 X5 Y5
G1 F1200 X106.863 Y97.839 E15.84048
G1 X106.995 Y97.708 E15.84378
G1 X107.478 Y97.261 E15.85548
G1 X107.621 Y97.137 E15.85885
G1 X108.103 Y96.742 E15.86992
G1 X108.255 Y96.625 E15.87333
G1 X108.774 Y96.25 E15.88471
G1 X108.939 Y96.138 E15.88826
G1 X109.48 Y95.797 E15.89963
G1 X109.639 Y95.704 E15.9029
G1 X110.201 Y95.394 E15.91431
G1 X110.375 Y95.305 E15.91779
G1 X110.952 Y95.032 E15.92913
G1 X111.122 Y94.957 E15.93243
G1 X111.718 Y94.717 E15.94386
G1 X111.905 Y94.649 E15.94739
G1 X112.512 Y94.448 E15.95876
G1 X112.699 Y94.392 E15.96223
G1 X113.317 Y94.229 E15.97359
G1 X113.493 Y94.188 E15.9768
G1 X114.123 Y94.06 E15.98823
G1 X114.322 Y94.026 E15.99182
G1 X114.957 Y93.939 E16.00321
G1 X115.144 Y93.919 E16.00656
G1 X115.782 Y93.87 E16.01793
G1 X115.974 Y93.861 E16.02135
G1 X116.613 Y93.851 E16.03271
G1 X116.809 Y93.854 E16.03619
G1 X117.449 Y93.884 E16.04758
G1 X117.636 Y93.899 E16.05092
G1 X118.273 Y93.967 E16.0623
G1 X118.459 Y93.992 E16.06564
G1 X119.092 Y94.098 E16.07705
G1 X119.297 Y94.14 E16.08077
G1 X119.935 Y94.291 E16.09242
G1 X120.11 Y94.337 E16.09564
G1 X120.707 Y94.515 E16.10671
G1 X120.888 Y94.575 E16.1101
G1 X121.49 Y94.795 E16.1215
G1 X121.668 Y94.867 E16.12491
G1 X122.255 Y95.123 E16.13629
G1 X122.43 Y95.205 E16.13973
G1 X123.001 Y95.497 E16.15113
G1 X123.171 Y95.591 E16.15458
G1 X123.722 Y95.917 E16.16596
G1 X123.885 Y96.02 E16.16939
G1 X124.415 Y96.379 E16.18077
G1 X124.569 Y96.491 E16.18415
G1 X125.09 Y96.892 E16.19584
G1 X125.237 Y97.012 E16.19921
G1 X125.707 Y97.421 E16.21029
G1 X125.854 Y97.558 E16.21386
G1 X126.321 Y98.02 E16.22554
G1 X126.451 Y98.156 E16.22888
G1 X126.867 Y98.62 E16.23996
G1 X126.991 Y98.766 E16.24336
G1 X127.4 Y99.282 E16.25507
G1 X127.512 Y99.433 E16.25841
G1 X127.869 Y99.943 E16.26948
G1 X127.98 Y100.113 E16.27309
G1 X128.321 Y100.674 E16.28476
G1 X128.409 Y100.829 E16.28792
G1 X128.703 Y101.381 E16.29904
G1 X128.792 Y101.561 E16.30261
G1 X129.056 Y102.143 E16.31397
G1 X129.127 Y102.313 E16.31725
G1 X129.357 Y102.911 E16.32864
G1 X129.423 Y103.099 E16.33218
G1 X129.615 Y103.711 E16.34358
G1 X129.665 Y103.891 E16.3469
G1 X129.82 Y104.512 E16.35828
G1 X129.861 Y104.699 E16.36168
G1 X129.978 Y105.328 E16.37305
G1 X130.008 Y105.521 E16.37653
G1 X130.086 Y106.157 E16.38792
G1 X130.103 Y106.348 E16.39132
G1 X130.142 Y106.987 E16.4027
G1 X130.148 Y107.184 E16.40621
G1 X130.147 Y107.842 E16.4179
G1 X130.141 Y108.034 E16.42132
G1 X130.101 Y108.673 E16.4327
G1 X130.083 Y108.865 E16.43613
G1 X130.004 Y109.5 E16.4475
G1 X129.975 Y109.685 E16.45083
G1 X129.858 Y110.316 E16.46224
G1 X129.814 Y110.516 E16.46588
G1 X129.657 Y111.135 E16.47723
G1 X129.608 Y111.308 E16.48043
G1 X129.415 Y111.92 E16.49183
G1 X129.35 Y112.106 E16.49534
G1 X129.119 Y112.705 E16.50675
G1 X129.048 Y112.874 E16.51001
G1 X128.791 Y113.44 E16.52106
G1 X128.702 Y113.621 E16.52464
G1 X128.392 Y114.202 E16.53635
G1 X128.302 Y114.36 E16.53958
G1 X127.978 Y114.891 E16.55064
G1 X127.866 Y115.062 E16.55427
G1 X127.487 Y115.601 E16.56598
G1 X127.376 Y115.749 E16.56927
G1 X126.989 Y116.236 E16.58033
G1 X126.865 Y116.383 E16.58375
G1 X126.425 Y116.872 E16.59544
G1 X126.295 Y117.008 E16.59879
G1 X125.852 Y117.445 E16.60985
G1 X125.706 Y117.579 E16.61337
G1 X125.209 Y118.011 E16.62508
G1 X125.055 Y118.137 E16.62861
G1 X124.547 Y118.525 E16.63998
G1 X124.397 Y118.633 E16.64326
G1 X123.865 Y118.992 E16.65467
G1 X123.703 Y119.094 E16.65807
G1 X123.152 Y119.419 E16.66945
G1 X122.985 Y119.511 E16.67283
G1 X122.429 Y119.795 E16.68393
G1 X122.251 Y119.879 E16.68743
G1 X121.648 Y120.141 E16.69912
G1 X121.474 Y120.211 E16.70245
G1 X120.888 Y120.425 E16.71354
G1 X120.702 Y120.486 E16.71702
G1 X120.071 Y120.673 E16.72872
G1 X119.888 Y120.722 E16.73209
G1 X119.267 Y120.866 E16.74342
G1 X119.075 Y120.904 E16.7469
G1 X118.442 Y121.01 E16.75831
G1 X118.252 Y121.036 E16.76172
G1 X117.615 Y121.103 E16.7731
G1 X117.428 Y121.117 E16.77644
G1 X116.788 Y121.146 E16.78782
G1 X116.591 Y121.149 E16.79133
G1 X115.952 Y121.138 E16.80269
G1 X115.76 Y121.128 E16.8061
G1 X115.122 Y121.078 E16.81748
G1 X114.936 Y121.058 E16.82081
G1 X114.301 Y120.97 E16.8322
G1 X114.106 Y120.937 E16.83572
G1 X113.476 Y120.809 E16.84714
G1 X113.289 Y120.765 E16.85056
G1 X112.672 Y120.6 E16.86191
G1 X112.491 Y120.546 E16.86527
G1 X111.884 Y120.344 E16.87664
G1 X111.698 Y120.275 E16.88017
G1 X111.102 Y120.034 E16.8916
G1 X110.932 Y119.959 E16.8949
G1 X110.355 Y119.685 E16.90625
G1 X110.18 Y119.596 E16.90974
G1 X109.62 Y119.286 E16.92112
G1 X109.459 Y119.19 E16.92445
G1 X108.918 Y118.847 E16.93584
G1 X108.76 Y118.74 E16.93923
G1 X108.255 Y118.375 E16.95031
G1 X108.102 Y118.258 E16.95373
G1 X107.607 Y117.852 E16.96511
G1 X107.465 Y117.728 E16.96846
G1 X106.995 Y117.293 E16.97985
G1 X106.859 Y117.159 E16.98324
G1 X106.415 Y116.695 E16.99466
G1 X106.284 Y116.55 E16.99813
G1 X105.871 Y116.061 E17.00951
G1 X105.75 Y115.907 E17.01299
G1 X105.368 Y115.393 E17.02437
G1 X105.257 Y115.234 E17.02782
G1 X104.898 Y114.683 E17.03951
G1 X104.802 Y114.525 E17.0428
G1 X104.485 Y113.97 E17.05416
G1 X104.391 Y113.793 E17.05772
G1 X104.109 Y113.217 E17.06912
G1 X104.031 Y113.044 E17.0725
G1 X103.785 Y112.454 E17.08386
G1 X103.717 Y112.276 E17.08725
G1 X103.506 Y111.669 E17.09867
G1 X103.446 Y111.48 E17.10219
G1 X103.275 Y110.866 E17.11352
G1 X103.231 Y110.684 E17.11685
G1 X103.096 Y110.057 E17.12825
G1 X103.061 Y109.87 E17.13163
G1 X102.964 Y109.236 E17.14304
G1 X102.941 Y109.043 E17.14649
G1 X102.885 Y108.422 E17.15757
G1 X102.874 Y108.238 E17.16085
G1 X102.854 Y107.6 E17.1722
G1 X102.854 Y107.403 E17.1757
G1 X102.874 Y106.763 E17.18708
G1 X102.885 Y106.576 E17.19041
G1 X102.943 Y105.938 E17.2018
G1 X102.967 Y105.742 E17.20531
G1 X103.065 Y105.108 E17.21671
G1 X103.099 Y104.926 E17.22
G1 X103.234 Y104.299 E17.23141
G1 X103.282 Y104.103 E17.23499
G1 X103.456 Y103.489 E17.24634
G1 X103.511 Y103.317 E17.24955
G1 X103.721 Y102.711 E17.26095
G1 X103.793 Y102.521 E17.26456
G1 X104.041 Y101.931 E17.27594
G1 X104.119 Y101.761 E17.27926
G1 X104.402 Y101.186 E17.29065
G1 X104.497 Y101.007 E17.29426
G1 X104.824 Y100.438 E17.30592
G1 X104.92 Y100.282 E17.30918
G1 X105.271 Y99.746 E17.32057
G1 X105.379 Y99.592 E17.32391
G1 X105.751 Y99.092 E17.33499
G1 X105.874 Y98.937 E17.33851
G1 X106.299 Y98.435 E17.3502
G1 X106.431 Y98.289 E17.3537
M204 S625
M205 X6 Y6
G0 F4285.7 X106.734 Y98.579
M204 S500
M205 X5 Y5
G1 F1200 X107.166 Y98.129 E17.36478
G1 X107.281 Y98.016 E17.36765
G1 X107.764 Y97.569 E17.37935
G1 X107.888 Y97.461 E17.38227
G1 X108.37 Y97.066 E17.39335
G1 X108.501 Y96.965 E17.39629
G1 X109.02 Y96.59 E17.40767
G1 X109.163 Y96.493 E17.41074
G1 X109.704 Y96.152 E17.42211
G1 X109.841 Y96.072 E17.42493
G1 X110.403 Y95.762 E17.43634
G1 X110.554 Y95.684 E17.43936
G1 X111.131 Y95.411 E17.45071
G1 X111.279 Y95.347 E17.45358
G1 X111.875 Y95.107 E17.465
G1 X112.037 Y95.047 E17.46807
G1 X112.644 Y94.846 E17.47943
G1 X112.806 Y94.798 E17.48244
G1 X113.424 Y94.635 E17.4938
G1 X113.576 Y94.6 E17.49657
G1 X114.206 Y94.472 E17.508
G1 X114.379 Y94.442 E17.51112
G1 X115.014 Y94.355 E17.52251
G1 X115.176 Y94.338 E17.52541
G1 X115.814 Y94.289 E17.53678
G1 X115.98 Y94.281 E17.53974
G1 X116.619 Y94.271 E17.5511
G1 X116.79 Y94.274 E17.55414
G1 X117.43 Y94.304 E17.56553
G1 X117.592 Y94.316 E17.56841
G1 X118.229 Y94.384 E17.5798
G1 X118.39 Y94.406 E17.58269
G1 X119.023 Y94.512 E17.5941
G1 X119.201 Y94.548 E17.59733
G1 X119.839 Y94.699 E17.60898
G1 X119.99 Y94.74 E17.61176
G1 X120.587 Y94.918 E17.62284
G1 X120.744 Y94.97 E17.62578
G1 X121.346 Y95.19 E17.63717
G1 X121.5 Y95.252 E17.64012
G1 X122.087 Y95.508 E17.6515
G1 X122.239 Y95.579 E17.65449
G1 X122.81 Y95.871 E17.66589
G1 X122.957 Y95.952 E17.66887
G1 X123.508 Y96.278 E17.68025
G1 X123.649 Y96.368 E17.68322
G1 X124.179 Y96.727 E17.6946
G1 X124.313 Y96.824 E17.69754
G1 X124.834 Y97.225 E17.70923
G1 X124.961 Y97.329 E17.71215
G1 X125.431 Y97.738 E17.72322
G1 X125.559 Y97.856 E17.72632
G1 X126.026 Y98.318 E17.738
G1 X126.139 Y98.437 E17.74091
G1 X126.555 Y98.901 E17.75199
G1 X126.661 Y99.027 E17.75492
G1 X127.07 Y99.543 E17.76662
G1 X127.168 Y99.673 E17.76952
G1 X127.525 Y100.183 E17.78058
G1 X127.621 Y100.331 E17.78372
G1 X127.962 Y100.892 E17.79539
G1 X128.039 Y101.027 E17.79815
G1 X128.333 Y101.579 E17.80927
G1 X128.409 Y101.734 E17.81234
G1 X128.673 Y102.316 E17.8237
G1 X128.735 Y102.464 E17.82655
G1 X128.965 Y103.062 E17.83794
G1 X129.022 Y103.225 E17.84101
G1 X129.214 Y103.837 E17.85241
G1 X129.258 Y103.993 E17.85529
G1 X129.413 Y104.614 E17.86667
G1 X129.448 Y104.776 E17.86961
G1 X129.565 Y105.405 E17.88099
G1 X129.591 Y105.572 E17.88399
G1 X129.669 Y106.208 E17.89538
G1 X129.684 Y106.374 E17.89835
G1 X129.723 Y107.013 E17.90973
G1 X129.728 Y107.183 E17.91275
G1 X129.727 Y107.841 E17.92444
G1 X129.722 Y108.008 E17.92741
G1 X129.682 Y108.647 E17.9388
G1 X129.666 Y108.813 E17.94176
G1 X129.587 Y109.448 E17.95314
G1 X129.562 Y109.609 E17.95603
G1 X129.445 Y110.24 E17.96744
G1 X129.407 Y110.413 E17.97059
G1 X129.25 Y111.032 E17.98194
G1 X129.208 Y111.182 E17.98471
G1 X129.015 Y111.794 E17.99612
G1 X128.958 Y111.955 E17.99915
G1 X128.727 Y112.554 E18.01056
G1 X128.666 Y112.701 E18.01339
G1 X128.409 Y113.267 E18.02444
G1 X128.332 Y113.423 E18.02754
G1 X128.022 Y114.004 E18.03924
G1 X127.943 Y114.141 E18.04205
G1 X127.619 Y114.672 E18.05311
G1 X127.522 Y114.82 E18.05626
G1 X127.143 Y115.359 E18.06797
G1 X127.047 Y115.487 E18.07081
G1 X126.66 Y115.974 E18.08187
G1 X126.552 Y116.102 E18.08485
G1 X126.112 Y116.591 E18.09654
G1 X126 Y116.709 E18.09943
G1 X125.557 Y117.146 E18.11049
G1 X125.431 Y117.262 E18.11354
G1 X124.934 Y117.694 E18.12524
G1 X124.8 Y117.804 E18.12833
G1 X124.292 Y118.192 E18.13969
G1 X124.162 Y118.285 E18.14253
G1 X123.63 Y118.644 E18.15394
G1 X123.49 Y118.732 E18.15688
G1 X122.939 Y119.057 E18.16825
G1 X122.794 Y119.137 E18.17119
G1 X122.238 Y119.421 E18.18229
G1 X122.084 Y119.494 E18.18532
G1 X121.481 Y119.756 E18.19701
G1 X121.329 Y119.816 E18.19991
G1 X120.743 Y120.03 E18.211
G1 X120.583 Y120.083 E18.214
G1 X119.952 Y120.27 E18.2257
G1 X119.793 Y120.312 E18.22862
G1 X119.172 Y120.456 E18.23995
G1 X119.006 Y120.49 E18.24296
G1 X118.373 Y120.596 E18.25437
G1 X118.208 Y120.618 E18.25733
G1 X117.571 Y120.685 E18.26872
G1 X117.409 Y120.697 E18.2716
G1 X116.769 Y120.726 E18.28299
G1 X116.598 Y120.729 E18.28603
G1 X115.959 Y120.718 E18.29739
G1 X115.793 Y120.71 E18.30035
G1 X115.155 Y120.66 E18.31172
G1 X114.993 Y120.642 E18.31462
G1 X114.358 Y120.554 E18.32602
G1 X114.189 Y120.525 E18.32907
G1 X113.559 Y120.397 E18.34049
G1 X113.398 Y120.359 E18.34343
G1 X112.781 Y120.194 E18.35479
G1 X112.624 Y120.147 E18.3577
G1 X112.017 Y119.945 E18.36907
G1 X111.856 Y119.886 E18.37212
G1 X111.26 Y119.645 E18.38355
G1 X111.112 Y119.58 E18.38642
G1 X110.535 Y119.306 E18.39778
G1 X110.384 Y119.228 E18.4008
G1 X109.824 Y118.918 E18.41217
G1 X109.684 Y118.836 E18.41506
G1 X109.143 Y118.493 E18.42645
G1 X109.006 Y118.4 E18.42939
G1 X108.501 Y118.035 E18.44046
G1 X108.369 Y117.933 E18.44343
G1 X107.874 Y117.527 E18.45481
G1 X107.751 Y117.42 E18.45771
G1 X107.281 Y116.985 E18.46909
G1 X107.163 Y116.868 E18.47205
G1 X106.719 Y116.404 E18.48346
G1 X106.605 Y116.279 E18.48647
G1 X106.192 Y115.79 E18.49785
G1 X106.087 Y115.656 E18.50087
G1 X105.705 Y115.142 E18.51226
G1 X105.609 Y115.004 E18.51525
G1 X105.25 Y114.453 E18.52694
G1 X105.166 Y114.317 E18.52978
G1 X104.849 Y113.762 E18.54114
G1 X104.768 Y113.608 E18.54423
G1 X104.486 Y113.032 E18.55563
G1 X104.418 Y112.883 E18.55854
G1 X104.172 Y112.293 E18.56991
G1 X104.113 Y112.138 E18.57285
G1 X103.902 Y111.531 E18.58428
G1 X103.851 Y111.367 E18.58733
G1 X103.68 Y110.753 E18.59866
G1 X103.641 Y110.596 E18.60154
G1 X103.506 Y109.969 E18.61294
G1 X103.476 Y109.807 E18.61587
G1 X103.379 Y109.173 E18.62727
G1 X103.359 Y109.005 E18.63027
G1 X103.303 Y108.384 E18.64136
G1 X103.293 Y108.225 E18.64419
G1 X103.273 Y107.587 E18.65554
G1 X103.273 Y107.416 E18.65858
G1 X103.293 Y106.776 E18.66996
G1 X103.303 Y106.614 E18.67284
G1 X103.361 Y105.976 E18.68423
G1 X103.382 Y105.806 E18.68728
G1 X103.48 Y105.172 E18.69868
G1 X103.509 Y105.014 E18.70154
G1 X103.644 Y104.387 E18.71294
G1 X103.686 Y104.218 E18.71603
G1 X103.86 Y103.604 E18.72738
G1 X103.907 Y103.454 E18.73017
G1 X104.117 Y102.848 E18.74157
G1 X104.18 Y102.684 E18.74469
G1 X104.428 Y102.094 E18.75607
G1 X104.496 Y101.946 E18.75897
G1 X104.779 Y101.371 E18.77036
G1 X104.861 Y101.217 E18.77346
G1 X105.188 Y100.648 E18.78513
G1 X105.271 Y100.512 E18.78796
G1 X105.622 Y99.976 E18.79935
G1 X105.716 Y99.842 E18.80226
G1 X106.088 Y99.342 E18.81333
G1 X106.194 Y99.208 E18.81637
G1 X106.619 Y98.706 E18.82806
G1 X106.734 Y98.579 E18.83111
M204 S625
M205 X6 Y6
G0 F4285.7 X107.037 Y98.87
M204 S500
M205 X5 Y5
G1 F1200 X107.469 Y98.42 E18.8422
G1 X107.566 Y98.325 E18.84461
G1 X108.049 Y97.878 E18.85631
G1 X108.154 Y97.786 E18.85879
G1 X108.636 Y97.391 E18.86987
G1 X108.747 Y97.306 E18.87235
G1 X109.266 Y96.931 E18.88374
G1 X109.387 Y96.849 E18.88633
G1 X109.928 Y96.508 E18.8977
G1 X110.044 Y96.439 E18.9001
G1 X110.606 Y96.129 E18.91151
G1 X110.734 Y96.064 E18.91406
G1 X111.311 Y95.791 E18.92541
G1 X111.436 Y95.736 E18.92784
G1 X112.032 Y95.496 E18.93926
G1 X112.169 Y95.446 E18.94185
G1 X112.776 Y95.245 E18.95322
G1 X112.913 Y95.204 E18.95576
G1 X113.531 Y95.041 E18.96712
G1 X113.66 Y95.011 E18.96947
G1 X114.29 Y94.883 E18.9809
G1 X114.436 Y94.858 E18.98353
G1 X115.071 Y94.771 E18.99493
G1 X115.208 Y94.757 E18.99738
G1 X115.846 Y94.708 E19.00875
G1 X115.987 Y94.701 E19.01126
G1 X116.626 Y94.691 E19.02262
G1 X116.77 Y94.694 E19.02518
G1 X117.41 Y94.724 E19.03657
G1 X117.547 Y94.734 E19.03901
G1 X118.184 Y94.802 E19.0504
G1 X118.321 Y94.821 E19.05286
G1 X118.954 Y94.927 E19.06427
G1 X119.104 Y94.957 E19.06699
G1 X119.742 Y95.108 E19.07864
G1 X119.87 Y95.142 E19.08099
G1 X120.467 Y95.32 E19.09207
G1 X120.6 Y95.364 E19.09456
G1 X121.202 Y95.584 E19.10595
G1 X121.332 Y95.637 E19.10845
G1 X121.919 Y95.893 E19.11983
G1 X122.048 Y95.953 E19.12236
G1 X122.619 Y96.245 E19.13376
G1 X122.743 Y96.314 E19.13628
G1 X123.294 Y96.64 E19.14766
G1 X123.413 Y96.715 E19.15016
G1 X123.943 Y97.074 E19.16154
G1 X124.057 Y97.156 E19.16404
G1 X124.578 Y97.557 E19.17573
G1 X124.685 Y97.645 E19.17819
G1 X125.155 Y98.054 E19.18926
G1 X125.264 Y98.155 E19.19191
G1 X125.731 Y98.617 E19.20358
G1 X125.826 Y98.717 E19.20603
G1 X126.242 Y99.181 E19.21711
G1 X126.332 Y99.288 E19.2196
G1 X126.741 Y99.804 E19.2313
G1 X126.823 Y99.914 E19.23374
G1 X127.18 Y100.424 E19.24481
G1 X127.262 Y100.549 E19.24746
G1 X127.603 Y101.11 E19.25913
G1 X127.668 Y101.224 E19.26147
G1 X127.962 Y101.776 E19.27258
G1 X128.027 Y101.908 E19.2752
G1 X128.291 Y102.49 E19.28656
G1 X128.343 Y102.615 E19.28897
G1 X128.573 Y103.213 E19.30036
G1 X128.621 Y103.351 E19.30295
G1 X128.813 Y103.963 E19.31435
G1 X128.85 Y104.095 E19.31679
G1 X129.005 Y104.716 E19.32817
G1 X129.035 Y104.853 E19.33066
G1 X129.152 Y105.482 E19.34204
G1 X129.174 Y105.623 E19.34457
G1 X129.252 Y106.259 E19.35596
G1 X129.265 Y106.399 E19.35846
G1 X129.304 Y107.038 E19.36984
G1 X129.308 Y107.183 E19.37242
G1 X129.307 Y107.841 E19.38412
G1 X129.302 Y107.981 E19.38661
G1 X129.262 Y108.62 E19.39799
G1 X129.249 Y108.761 E19.4005
G1 X129.17 Y109.396 E19.41188
G1 X129.149 Y109.532 E19.41433
G1 X129.032 Y110.163 E19.42573
G1 X129 Y110.31 E19.42841
G1 X128.843 Y110.929 E19.43976
G1 X128.807 Y111.056 E19.44211
G1 X128.614 Y111.668 E19.45351
G1 X128.566 Y111.804 E19.45608
G1 X128.335 Y112.403 E19.46749
G1 X128.283 Y112.527 E19.46988
G1 X128.026 Y113.093 E19.48093
G1 X127.961 Y113.225 E19.48354
G1 X127.651 Y113.806 E19.49525
G1 X127.585 Y113.922 E19.49762
G1 X127.261 Y114.453 E19.50868
G1 X127.179 Y114.579 E19.51135
G1 X126.8 Y115.118 E19.52307
G1 X126.719 Y115.226 E19.52547
G1 X126.332 Y115.713 E19.53652
G1 X126.24 Y115.821 E19.53904
G1 X125.8 Y116.31 E19.55074
G1 X125.705 Y116.41 E19.55319
G1 X125.262 Y116.847 E19.56425
G1 X125.155 Y116.945 E19.56683
G1 X124.658 Y117.377 E19.57854
G1 X124.545 Y117.47 E19.58114
G1 X124.037 Y117.858 E19.5925
G1 X123.927 Y117.937 E19.59491
G1 X123.395 Y118.296 E19.60632
G1 X123.277 Y118.371 E19.6088
G1 X122.726 Y118.696 E19.62017
G1 X122.603 Y118.763 E19.62266
G1 X122.047 Y119.047 E19.63376
G1 X121.917 Y119.109 E19.63632
G1 X121.314 Y119.371 E19.64801
G1 X121.185 Y119.422 E19.65047
G1 X120.599 Y119.636 E19.66156
G1 X120.463 Y119.681 E19.66411
G1 X119.832 Y119.868 E19.67581
G1 X119.698 Y119.903 E19.67827
G1 X119.077 Y120.047 E19.6896
G1 X118.937 Y120.075 E19.69214
G1 X118.304 Y120.181 E19.70355
G1 X118.164 Y120.2 E19.70606
G1 X117.527 Y120.267 E19.71745
G1 X117.39 Y120.278 E19.71989
G1 X116.75 Y120.307 E19.73128
G1 X116.605 Y120.309 E19.73386
G1 X115.966 Y120.298 E19.74522
G1 X115.826 Y120.291 E19.74771
G1 X115.188 Y120.241 E19.75908
G1 X115.051 Y120.226 E19.76153
G1 X114.416 Y120.138 E19.77293
G1 X114.273 Y120.114 E19.77551
G1 X113.643 Y119.986 E19.78693
G1 X113.506 Y119.954 E19.78944
G1 X112.889 Y119.789 E19.80079
G1 X112.757 Y119.749 E19.80324
G1 X112.15 Y119.547 E19.81461
G1 X112.013 Y119.497 E19.8172
G1 X111.417 Y119.256 E19.82863
G1 X111.292 Y119.201 E19.83106
G1 X110.715 Y118.927 E19.84241
G1 X110.587 Y118.861 E19.84497
G1 X110.027 Y118.551 E19.85635
G1 X109.909 Y118.481 E19.85879
G1 X109.368 Y118.138 E19.87018
G1 X109.252 Y118.059 E19.87267
G1 X108.747 Y117.694 E19.88375
G1 X108.635 Y117.608 E19.88626
G1 X108.14 Y117.202 E19.89764
G1 X108.036 Y117.111 E19.9001
G1 X107.566 Y116.676 E19.91148
G1 X107.466 Y116.578 E19.91397
G1 X107.022 Y116.114 E19.92538
G1 X106.926 Y116.008 E19.92793
G1 X106.513 Y115.519 E19.9393
G1 X106.424 Y115.406 E19.94186
G1 X106.042 Y114.892 E19.95325
G1 X105.961 Y114.775 E19.95577
G1 X105.602 Y114.224 E19.96747
G1 X105.531 Y114.109 E19.96987
G1 X105.214 Y113.554 E19.98123
G1 X105.145 Y113.424 E19.98385
G1 X104.863 Y112.848 E19.99525
G1 X104.806 Y112.721 E19.99772
G1 X104.56 Y112.131 E20.00908
G1 X104.51 Y112 E20.01158
G1 X104.299 Y111.393 E20.023
G1 X104.256 Y111.255 E20.02557
G1 X104.085 Y110.641 E20.0369
G1 X104.052 Y110.507 E20.03935
G1 X103.917 Y109.88 E20.05075
G1 X103.892 Y109.743 E20.05323
G1 X103.795 Y109.109 E20.06463
G1 X103.777 Y108.967 E20.06717
G1 X103.721 Y108.346 E20.07826
G1 X103.713 Y108.211 E20.08066
G1 X103.693 Y107.573 E20.09201
G1 X103.693 Y107.429 E20.09457
G1 X103.713 Y106.789 E20.10595
G1 X103.721 Y106.652 E20.10839
G1 X103.779 Y106.014 E20.11978
G1 X103.797 Y105.87 E20.12236
G1 X103.895 Y105.236 E20.13376
G1 X103.92 Y105.103 E20.13617
G1 X104.055 Y104.476 E20.14757
G1 X104.091 Y104.332 E20.15021
G1 X104.265 Y103.718 E20.16155
G1 X104.304 Y103.592 E20.16389
G1 X104.514 Y102.986 E20.17529
G1 X104.567 Y102.847 E20.17794
G1 X104.815 Y102.257 E20.18932
G1 X104.872 Y102.132 E20.19176
G1 X105.155 Y101.557 E20.20315
G1 X105.225 Y101.426 E20.20579
G1 X105.552 Y100.857 E20.21746
G1 X105.622 Y100.742 E20.21985
G1 X105.973 Y100.206 E20.23124
G1 X106.053 Y100.093 E20.2337
G1 X106.425 Y99.593 E20.24478
G1 X106.515 Y99.479 E20.24736
G1 X106.94 Y98.977 E20.25905
G1 X107.037 Y98.87 E20.26162
M204 S625
M205 X6 Y6
G0 F4285.7 X107.34 Y99.161
M204 S500
M205 X5 Y5
G1 F1200 X107.772 Y98.711 E20.27271
G1 X107.851 Y98.633 E20.27468
G1 X108.334 Y98.186 E20.28638
G1 X108.42 Y98.111 E20.28841
G1 X108.902 Y97.716 E20.29949
G1 X108.993 Y97.646 E20.30153
G1 X109.512 Y97.271 E20.31291
G1 X109.611 Y97.204 E20.31503
G1 X110.152 Y96.863 E20.3264
G1 X110.247 Y96.807 E20.32836
G1 X110.809 Y96.497 E20.33977
G1 X110.914 Y96.444 E20.34186
G1 X111.491 Y96.171 E20.35321
G1 X111.593 Y96.126 E20.35519
G1 X112.189 Y95.886 E20.36661
G1 X112.301 Y95.845 E20.36873
G1 X112.908 Y95.644 E20.3801
G1 X113.02 Y95.61 E20.38218
G1 X113.638 Y95.447 E20.39354
G1 X113.744 Y95.423 E20.39547
G1 X114.374 Y95.295 E20.4069
G1 X114.493 Y95.274 E20.40905
G1 X115.128 Y95.187 E20.42044
G1 X115.24 Y95.176 E20.42244
G1 X115.878 Y95.127 E20.43381
G1 X115.993 Y95.121 E20.43586
G1 X116.632 Y95.111 E20.44722
G1 X116.75 Y95.113 E20.44932
G1 X117.39 Y95.143 E20.46071
G1 X117.503 Y95.152 E20.46272
G1 X118.14 Y95.22 E20.47411
G1 X118.251 Y95.235 E20.4761
G1 X118.884 Y95.341 E20.48751
G1 X119.007 Y95.366 E20.48974
G1 X119.645 Y95.517 E20.5014
G1 X119.75 Y95.545 E20.50333
G1 X120.347 Y95.723 E20.5144
G1 X120.456 Y95.759 E20.51644
G1 X121.058 Y95.979 E20.52784
G1 X121.165 Y96.022 E20.52989
G1 X121.752 Y96.278 E20.54127
G1 X121.857 Y96.327 E20.54333
G1 X122.428 Y96.619 E20.55473
G1 X122.529 Y96.675 E20.55678
G1 X123.08 Y97.001 E20.56816
G1 X123.178 Y97.063 E20.57022
G1 X123.708 Y97.422 E20.5816
G1 X123.801 Y97.489 E20.58364
G1 X124.322 Y97.89 E20.59533
G1 X124.41 Y97.962 E20.59735
G1 X124.88 Y98.371 E20.60842
G1 X124.968 Y98.453 E20.61056
G1 X125.435 Y98.915 E20.62224
G1 X125.513 Y98.997 E20.62425
G1 X125.929 Y99.461 E20.63533
G1 X126.003 Y99.549 E20.63737
G1 X126.412 Y100.065 E20.64908
G1 X126.479 Y100.155 E20.65107
G1 X126.836 Y100.665 E20.66214
G1 X126.903 Y100.767 E20.66431
G1 X127.244 Y101.328 E20.67598
G1 X127.297 Y101.422 E20.6779
G1 X127.591 Y101.974 E20.68901
G1 X127.644 Y102.081 E20.69114
G1 X127.908 Y102.663 E20.7025
G1 X127.951 Y102.766 E20.70448
G1 X128.181 Y103.364 E20.71587
G1 X128.22 Y103.476 E20.71798
G1 X128.412 Y104.088 E20.72938
G1 X128.443 Y104.196 E20.73138
G1 X128.598 Y104.817 E20.74275
G1 X128.622 Y104.929 E20.74479
G1 X128.739 Y105.558 E20.75616
G1 X128.757 Y105.674 E20.75825
G1 X128.835 Y106.31 E20.76964
G1 X128.845 Y106.425 E20.77169
G1 X128.884 Y107.064 E20.78307
G1 X128.888 Y107.182 E20.78517
G1 X128.887 Y107.84 E20.79687
G1 X128.883 Y107.955 E20.79891
G1 X128.843 Y108.594 E20.81029
G1 X128.833 Y108.709 E20.81235
G1 X128.754 Y109.344 E20.82372
G1 X128.736 Y109.456 E20.82574
G1 X128.619 Y110.087 E20.83714
G1 X128.593 Y110.207 E20.83933
G1 X128.436 Y110.826 E20.85068
G1 X128.406 Y110.929 E20.85259
G1 X128.213 Y111.541 E20.86399
G1 X128.174 Y111.653 E20.8661
G1 X127.943 Y112.252 E20.87751
G1 X127.901 Y112.353 E20.87946
G1 X127.644 Y112.919 E20.89051
G1 X127.59 Y113.028 E20.89267
G1 X127.28 Y113.609 E20.90438
G1 X127.226 Y113.703 E20.9063
G1 X126.902 Y114.234 E20.91736
G1 X126.835 Y114.337 E20.91954
G1 X126.456 Y114.876 E20.93126
G1 X126.39 Y114.965 E20.93323
G1 X126.003 Y115.452 E20.94428
G1 X125.928 Y115.54 E20.94634
G1 X125.488 Y116.029 E20.95803
G1 X125.41 Y116.111 E20.96004
G1 X124.967 Y116.548 E20.97111
G1 X124.88 Y116.628 E20.97321
G1 X124.383 Y117.06 E20.98491
G1 X124.29 Y117.136 E20.98705
G1 X123.782 Y117.524 E20.99841
G1 X123.692 Y117.589 E21.00038
G1 X123.16 Y117.948 E21.01179
G1 X123.063 Y118.009 E21.01383
G1 X122.512 Y118.334 E21.0252
G1 X122.412 Y118.389 E21.02723
G1 X121.856 Y118.673 E21.03833
G1 X121.749 Y118.723 E21.04043
G1 X121.146 Y118.985 E21.05211
G1 X121.041 Y119.027 E21.05412
G1 X120.455 Y119.241 E21.06521
G1 X120.344 Y119.278 E21.06729
G1 X119.713 Y119.465 E21.07899
G1 X119.603 Y119.494 E21.08101
G1 X118.982 Y119.638 E21.09235
G1 X118.867 Y119.661 E21.09443
G1 X118.234 Y119.767 E21.10584
G1 X118.12 Y119.783 E21.10789
G1 X117.483 Y119.85 E21.11927
G1 X117.371 Y119.858 E21.12127
G1 X116.731 Y119.887 E21.13266
G1 X116.612 Y119.889 E21.13477
G1 X115.973 Y119.878 E21.14613
G1 X115.858 Y119.872 E21.14818
G1 X115.22 Y119.822 E21.15956
G1 X115.109 Y119.81 E21.16154
G1 X114.474 Y119.722 E21.17294
G1 X114.357 Y119.702 E21.17505
G1 X113.727 Y119.574 E21.18647
G1 X113.615 Y119.548 E21.18852
G1 X112.998 Y119.383 E21.19987
G1 X112.889 Y119.35 E21.20189
G1 X112.282 Y119.148 E21.21327
G1 X112.17 Y119.107 E21.21539
G1 X111.574 Y118.866 E21.22681
G1 X111.472 Y118.821 E21.2288
G1 X110.895 Y118.547 E21.24015
G1 X110.791 Y118.494 E21.24223
G1 X110.231 Y118.184 E21.2536
G1 X110.134 Y118.126 E21.25561
G1 X109.593 Y117.783 E21.267
G1 X109.498 Y117.719 E21.26904
G1 X108.993 Y117.354 E21.28011
G1 X108.901 Y117.283 E21.28218
G1 X108.406 Y116.877 E21.29356
G1 X108.321 Y116.803 E21.29556
G1 X107.851 Y116.368 E21.30695
G1 X107.769 Y116.288 E21.30898
G1 X107.325 Y115.824 E21.3204
G1 X107.247 Y115.737 E21.32247
G1 X106.834 Y115.248 E21.33385
G1 X106.761 Y115.155 E21.33595
G1 X106.379 Y114.641 E21.34734
G1 X106.312 Y114.546 E21.3494
G1 X105.953 Y113.995 E21.36109
G1 X105.896 Y113.9 E21.36306
G1 X105.579 Y113.345 E21.37443
G1 X105.523 Y113.239 E21.37656
G1 X105.241 Y112.663 E21.38796
G1 X105.194 Y112.559 E21.38999
G1 X104.948 Y111.969 E21.40135
G1 X104.907 Y111.863 E21.40337
G1 X104.696 Y111.256 E21.41479
G1 X104.66 Y111.142 E21.41692
G1 X104.489 Y110.528 E21.42825
G1 X104.462 Y110.419 E21.43024
G1 X104.327 Y109.792 E21.44164
G1 X104.307 Y109.68 E21.44367
G1 X104.21 Y109.046 E21.45507
G1 X104.196 Y108.93 E21.45714
G1 X104.14 Y108.309 E21.46823
G1 X104.133 Y108.198 E21.47021
G1 X104.113 Y107.56 E21.48155
G1 X104.113 Y107.442 E21.48365
G1 X104.133 Y106.802 E21.49503
G1 X104.14 Y106.69 E21.49703
G1 X104.198 Y106.052 E21.50841
G1 X104.212 Y105.934 E21.51053
G1 X104.31 Y105.3 E21.52193
G1 X104.33 Y105.191 E21.5239
G1 X104.465 Y104.564 E21.5353
G1 X104.495 Y104.447 E21.53745
G1 X104.669 Y103.833 E21.54879
G1 X104.701 Y103.729 E21.55073
G1 X104.911 Y103.123 E21.56213
G1 X104.955 Y103.01 E21.56428
G1 X105.203 Y102.42 E21.57566
G1 X105.249 Y102.317 E21.57766
G1 X105.532 Y101.742 E21.58906
G1 X105.589 Y101.635 E21.59121
G1 X105.916 Y101.066 E21.60288
G1 X105.974 Y100.973 E21.60483
G1 X106.325 Y100.437 E21.61622
G1 X106.39 Y100.344 E21.61823
G1 X106.762 Y99.844 E21.62931
G1 X106.836 Y99.751 E21.63142
G1 X107.261 Y99.249 E21.64312
G1 X107.34 Y99.161 E21.64522
M204 S625
M205 X6 Y6
G0 F4285.7 X107.643 Y99.452
M204 S500
M205 X5 Y5
G1 F1200 X108.075 Y99.002 E21.65631
G1 X108.137 Y98.941 E21.65785
G1 X108.62 Y98.494 E21.66955
G1 X108.686 Y98.436 E21.67111
G1 X109.168 Y98.041 E21.68219
G1 X109.239 Y97.986 E21.68379
G1 X109.758 Y97.611 E21.69517
G1 X109.835 Y97.559 E21.69682
G1 X110.376 Y97.218 E21.70819
G1 X110.45 Y97.175 E21.70971
G1 X111.012 Y96.865 E21.72112
G1 X111.093 Y96.823 E21.72274
G1 X111.67 Y96.55 E21.73409
G1 X111.75 Y96.515 E21.73564
G1 X112.346 Y96.275 E21.74706
G1 X112.433 Y96.244 E21.7487
G1 X113.04 Y96.043 E21.76007
G1 X113.127 Y96.017 E21.76168
G1 X113.745 Y95.854 E21.77304
G1 X113.827 Y95.834 E21.77454
G1 X114.457 Y95.706 E21.78597
G1 X114.55 Y95.691 E21.78765
G1 X115.185 Y95.604 E21.79904
G1 X115.272 Y95.594 E21.8006
G1 X115.91 Y95.545 E21.81197
G1 X116 Y95.541 E21.81357
G1 X116.639 Y95.531 E21.82493
G1 X116.731 Y95.533 E21.82657
G1 X117.371 Y95.563 E21.83796
G1 X117.458 Y95.569 E21.83951
G1 X118.095 Y95.637 E21.85089
G1 X118.182 Y95.649 E21.85246
G1 X118.815 Y95.755 E21.86386
G1 X118.911 Y95.775 E21.86561
G1 X119.549 Y95.926 E21.87726
G1 X119.63 Y95.947 E21.87875
G1 X120.227 Y96.125 E21.88982
G1 X120.312 Y96.153 E21.89141
G1 X120.914 Y96.373 E21.90281
G1 X120.997 Y96.407 E21.9044
G1 X121.584 Y96.663 E21.91579
G1 X121.665 Y96.701 E21.91738
G1 X122.236 Y96.993 E21.92878
G1 X122.316 Y97.037 E21.9304
G1 X122.867 Y97.363 E21.94178
G1 X122.942 Y97.411 E21.94336
G1 X123.472 Y97.77 E21.95474
G1 X123.545 Y97.822 E21.95634
G1 X124.066 Y98.223 E21.96802
G1 X124.134 Y98.279 E21.96959
G1 X124.604 Y98.688 E21.98066
G1 X124.673 Y98.752 E21.98234
G1 X125.14 Y99.214 E21.99401
G1 X125.201 Y99.278 E21.99559
G1 X125.617 Y99.742 E22.00666
G1 X125.674 Y99.81 E22.00824
G1 X126.083 Y100.326 E22.01994
G1 X126.135 Y100.396 E22.02149
G1 X126.492 Y100.906 E22.03256
G1 X126.544 Y100.985 E22.03424
G1 X126.885 Y101.546 E22.04591
G1 X126.926 Y101.619 E22.0474
G1 X127.22 Y102.171 E22.05852
G1 X127.262 Y102.255 E22.06019
G1 X127.526 Y102.837 E22.07155
G1 X127.559 Y102.916 E22.07307
G1 X127.789 Y103.514 E22.08446
G1 X127.82 Y103.602 E22.08612
G1 X128.012 Y104.214 E22.09752
G1 X128.035 Y104.298 E22.09907
G1 X128.19 Y104.919 E22.11044
G1 X128.209 Y105.006 E22.11203
G1 X128.326 Y105.635 E22.1234
G1 X128.34 Y105.725 E22.12502
G1 X128.418 Y106.361 E22.13641
G1 X128.426 Y106.45 E22.138
G1 X128.465 Y107.089 E22.14938
G1 X128.468 Y107.181 E22.15101
G1 X128.467 Y107.839 E22.16271
G1 X128.464 Y107.929 E22.16431
G1 X128.424 Y108.568 E22.17569
G1 X128.416 Y108.657 E22.17728
G1 X128.337 Y109.292 E22.18866
G1 X128.323 Y109.379 E22.19022
G1 X128.206 Y110.01 E22.20163
G1 X128.186 Y110.103 E22.20332
G1 X128.029 Y110.722 E22.21467
G1 X128.006 Y110.803 E22.21617
G1 X127.813 Y111.415 E22.22758
G1 X127.783 Y111.502 E22.22921
G1 X127.552 Y112.101 E22.24062
G1 X127.518 Y112.18 E22.24215
G1 X127.261 Y112.746 E22.2532
G1 X127.22 Y112.83 E22.25486
G1 X126.91 Y113.411 E22.26657
G1 X126.868 Y113.485 E22.26808
G1 X126.544 Y114.016 E22.27914
G1 X126.491 Y114.096 E22.28085
G1 X126.112 Y114.635 E22.29256
G1 X126.061 Y114.704 E22.29408
G1 X125.674 Y115.191 E22.30514
G1 X125.616 Y115.259 E22.30673
G1 X125.176 Y115.748 E22.31842
G1 X125.115 Y115.812 E22.32
G1 X124.672 Y116.249 E22.33106
G1 X124.604 Y116.311 E22.33269
G1 X124.107 Y116.743 E22.3444
G1 X124.035 Y116.802 E22.34605
G1 X123.527 Y117.19 E22.35742
G1 X123.457 Y117.241 E22.35896
G1 X122.925 Y117.6 E22.37036
G1 X122.85 Y117.647 E22.37194
G1 X122.299 Y117.972 E22.38331
G1 X122.221 Y118.015 E22.38489
G1 X121.665 Y118.299 E22.39599
G1 X121.582 Y118.338 E22.39762
G1 X120.979 Y118.6 E22.40931
G1 X120.897 Y118.633 E22.41088
G1 X120.311 Y118.847 E22.42197
G1 X120.225 Y118.875 E22.42358
G1 X119.594 Y119.062 E22.43527
G1 X119.508 Y119.085 E22.43686
G1 X118.887 Y119.229 E22.44819
G1 X118.798 Y119.247 E22.4498
G1 X118.165 Y119.353 E22.46121
G1 X118.076 Y119.365 E22.46281
G1 X117.439 Y119.432 E22.47419
G1 X117.352 Y119.438 E22.47574
G1 X116.712 Y119.467 E22.48713
G1 X116.62 Y119.469 E22.48877
G1 X115.981 Y119.458 E22.50013
G1 X115.891 Y119.454 E22.50173
G1 X115.253 Y119.404 E22.51311
G1 X115.166 Y119.394 E22.51466
G1 X114.531 Y119.306 E22.52606
G1 X114.44 Y119.291 E22.5277
G1 X113.81 Y119.163 E22.53913
G1 X113.723 Y119.142 E22.54072
G1 X113.106 Y118.977 E22.55207
G1 X113.022 Y118.952 E22.55363
G1 X112.415 Y118.75 E22.565
G1 X112.328 Y118.718 E22.56665
G1 X111.732 Y118.477 E22.57807
G1 X111.652 Y118.442 E22.57963
G1 X111.075 Y118.168 E22.59098
G1 X110.994 Y118.126 E22.5926
G1 X110.434 Y117.816 E22.60398
G1 X110.359 Y117.772 E22.60553
G1 X109.818 Y117.429 E22.61691
G1 X109.744 Y117.378 E22.61851
G1 X109.239 Y117.013 E22.62959
G1 X109.168 Y116.959 E22.63117
G1 X108.673 Y116.553 E22.64255
G1 X108.606 Y116.495 E22.64413
G1 X108.136 Y116.06 E22.65551
G1 X108.073 Y115.997 E22.6571
G1 X107.629 Y115.533 E22.66851
G1 X107.568 Y115.466 E22.67012
G1 X107.155 Y114.977 E22.6815
G1 X107.098 Y114.905 E22.68313
G1 X106.716 Y114.391 E22.69452
G1 X106.664 Y114.316 E22.69614
G1 X106.305 Y113.765 E22.70783
G1 X106.261 Y113.692 E22.70934
G1 X105.944 Y113.137 E22.72071
G1 X105.9 Y113.054 E22.72238
G1 X105.618 Y112.478 E22.73378
G1 X105.581 Y112.398 E22.73534
G1 X105.335 Y111.808 E22.74671
G1 X105.303 Y111.725 E22.74829
G1 X105.092 Y111.118 E22.75971
G1 X105.065 Y111.029 E22.76136
G1 X104.894 Y110.415 E22.77269
G1 X104.873 Y110.33 E22.77425
G1 X104.738 Y109.703 E22.78565
G1 X104.722 Y109.616 E22.78722
G1 X104.625 Y108.982 E22.79862
G1 X104.614 Y108.892 E22.80024
G1 X104.558 Y108.271 E22.81132
G1 X104.553 Y108.185 E22.81285
G1 X104.533 Y107.547 E22.8242
G1 X104.533 Y107.455 E22.82583
G1 X104.553 Y106.815 E22.83722
G1 X104.558 Y106.728 E22.83876
G1 X104.616 Y106.09 E22.85015
G1 X104.627 Y105.998 E22.8518
G1 X104.725 Y105.364 E22.8632
G1 X104.741 Y105.28 E22.86472
G1 X104.876 Y104.653 E22.87612
G1 X104.899 Y104.561 E22.87781
G1 X105.073 Y103.947 E22.88915
G1 X105.098 Y103.867 E22.89064
G1 X105.308 Y103.261 E22.90204
G1 X105.342 Y103.172 E22.90374
G1 X105.59 Y102.582 E22.91512
G1 X105.626 Y102.503 E22.91666
G1 X105.909 Y101.928 E22.92805
G1 X105.953 Y101.845 E22.92972
G1 X106.28 Y101.276 E22.94139
G1 X106.325 Y101.203 E22.94291
G1 X106.676 Y100.667 E22.9543
G1 X106.727 Y100.595 E22.95587
G1 X107.099 Y100.095 E22.96695
G1 X107.156 Y100.022 E22.96859
G1 X107.581 Y99.52 E22.98028
G1 X107.643 Y99.452 E22.98192
M204 S625
M205 X6 Y6
G0 F4285.7 X107.946 Y99.743
M204 S500
M205 X5 Y5
G1 F1200 X108.378 Y99.293 E22.99301
G1 X108.422 Y99.249 E22.99412
G1 X108.905 Y98.802 E23.00581
G1 X108.952 Y98.761 E23.00692
G1 X109.434 Y98.366 E23.018
G1 X109.485 Y98.327 E23.01914
G1 X110.004 Y97.952 E23.03052
G1 X110.059 Y97.915 E23.0317
G1 X110.6 Y97.574 E23.04307
G1 X110.653 Y97.543 E23.04416
G1 X111.215 Y97.233 E23.05557
G1 X111.273 Y97.203 E23.05673
G1 X111.85 Y96.93 E23.06808
G1 X111.907 Y96.905 E23.06918
G1 X112.503 Y96.665 E23.0806
G1 X112.565 Y96.642 E23.08178
G1 X113.172 Y96.441 E23.09315
G1 X113.234 Y96.423 E23.09429
G1 X113.852 Y96.26 E23.10566
G1 X113.911 Y96.246 E23.10673
G1 X114.541 Y96.118 E23.11816
G1 X114.607 Y96.107 E23.11935
G1 X115.242 Y96.02 E23.13074
G1 X115.305 Y96.013 E23.13187
G1 X115.943 Y95.964 E23.14324
G1 X116.007 Y95.961 E23.14438
G1 X116.646 Y95.951 E23.15574
G1 X116.711 Y95.952 E23.1569
G1 X117.351 Y95.982 E23.16829
G1 X117.413 Y95.987 E23.16939
G1 X118.05 Y96.055 E23.18078
G1 X118.112 Y96.063 E23.18189
G1 X118.745 Y96.169 E23.1933
G1 X118.814 Y96.183 E23.19455
G1 X119.452 Y96.334 E23.20621
G1 X119.51 Y96.35 E23.20728
G1 X120.107 Y96.528 E23.21835
G1 X120.167 Y96.548 E23.21948
G1 X120.769 Y96.768 E23.23087
G1 X120.829 Y96.792 E23.23202
G1 X121.416 Y97.048 E23.2434
G1 X121.474 Y97.075 E23.24454
G1 X122.045 Y97.367 E23.25594
G1 X122.102 Y97.398 E23.25709
G1 X122.653 Y97.724 E23.26847
G1 X122.707 Y97.759 E23.26962
G1 X123.237 Y98.118 E23.281
G1 X123.288 Y98.155 E23.28212
G1 X123.809 Y98.556 E23.2938
G1 X123.858 Y98.596 E23.29493
G1 X124.328 Y99.005 E23.306
G1 X124.377 Y99.051 E23.3072
G1 X124.888 Y99.558 E23.31999
G1 X125.304 Y100.022 E23.33107
G1 X125.345 Y100.071 E23.33221
G1 X125.754 Y100.587 E23.34391
G1 X125.791 Y100.637 E23.34502
G1 X126.148 Y101.147 E23.35608
G1 X126.185 Y101.204 E23.35729
G1 X126.556 Y101.816 E23.37001
G1 X126.85 Y102.368 E23.38113
G1 X126.879 Y102.428 E23.38231
G1 X127.143 Y103.01 E23.39367
G1 X127.167 Y103.067 E23.39477
G1 X127.397 Y103.665 E23.40616
G1 X127.419 Y103.728 E23.40735
G1 X127.611 Y104.34 E23.41875
G1 X127.628 Y104.4 E23.41986
G1 X127.783 Y105.021 E23.43124
G1 X127.796 Y105.083 E23.43236
G1 X127.913 Y105.712 E23.44374
G1 X127.923 Y105.776 E23.44489
G1 X128.001 Y106.412 E23.45628
G1 X128.007 Y106.476 E23.45742
G1 X128.046 Y107.115 E23.4688
G1 X128.048 Y107.181 E23.46997
G1 X128.047 Y107.839 E23.48167
G1 X128.045 Y107.903 E23.48281
G1 X128.005 Y108.542 E23.49419
G1 X127.999 Y108.606 E23.49533
G1 X127.92 Y109.241 E23.50671
G1 X127.91 Y109.302 E23.50781
G1 X127.793 Y109.933 E23.51921
G1 X127.779 Y110 E23.52043
G1 X127.622 Y110.619 E23.53178
G1 X127.605 Y110.677 E23.53286
G1 X127.412 Y111.289 E23.54426
G1 X127.391 Y111.351 E23.54543
G1 X127.16 Y111.95 E23.55684
G1 X127.136 Y112.006 E23.55792
G1 X126.879 Y112.572 E23.56897
G1 X126.849 Y112.632 E23.57016
G1 X126.539 Y113.213 E23.58187
G1 X126.509 Y113.266 E23.58295
G1 X126.185 Y113.797 E23.59401
G1 X126.148 Y113.854 E23.59522
G1 X125.769 Y114.393 E23.60693
G1 X125.732 Y114.442 E23.60802
G1 X125.345 Y114.929 E23.61908
G1 X125.304 Y114.978 E23.62022
G1 X124.864 Y115.467 E23.63191
G1 X124.82 Y115.513 E23.63304
G1 X124.377 Y115.95 E23.6441
G1 X124.329 Y115.994 E23.64526
G1 X123.832 Y116.426 E23.65697
G1 X123.78 Y116.468 E23.65815
G1 X123.272 Y116.856 E23.66952
G1 X123.222 Y116.892 E23.67061
G1 X122.69 Y117.251 E23.68202
G1 X122.636 Y117.285 E23.68315
G1 X122.085 Y117.61 E23.69453
G1 X122.03 Y117.641 E23.69565
G1 X121.474 Y117.925 E23.70675
G1 X121.414 Y117.953 E23.70792
G1 X120.811 Y118.215 E23.71961
G1 X120.753 Y118.238 E23.72072
G1 X120.167 Y118.452 E23.73181
G1 X120.105 Y118.473 E23.73297
G1 X119.474 Y118.66 E23.74467
G1 X119.413 Y118.676 E23.74579
G1 X118.792 Y118.82 E23.75712
G1 X118.728 Y118.833 E23.75829
G1 X118.095 Y118.939 E23.76969
G1 X118.032 Y118.947 E23.77082
G1 X117.395 Y119.014 E23.78221
G1 X117.333 Y119.019 E23.78331
G1 X116.693 Y119.048 E23.7947
G1 X116.627 Y119.049 E23.79588
G1 X115.988 Y119.038 E23.80724
G1 X115.924 Y119.035 E23.80838
G1 X115.286 Y118.985 E23.81975
G1 X115.224 Y118.978 E23.82086
G1 X114.589 Y118.89 E23.83226
G1 X114.524 Y118.879 E23.83343
G1 X113.894 Y118.751 E23.84486
G1 X113.832 Y118.736 E23.84599
G1 X113.215 Y118.571 E23.85734
G1 X113.154 Y118.553 E23.85847
G1 X112.547 Y118.351 E23.86984
G1 X112.485 Y118.328 E23.87102
G1 X111.889 Y118.087 E23.88245
G1 X111.833 Y118.062 E23.88354
G1 X111.197 Y117.759 E23.89606
G1 X110.637 Y117.449 E23.90744
G1 X110.584 Y117.417 E23.90854
G1 X110.043 Y117.074 E23.91993
G1 X109.99 Y117.038 E23.92107
G1 X109.485 Y116.673 E23.93214
G1 X109.434 Y116.634 E23.93328
G1 X108.939 Y116.228 E23.94466
G1 X108.892 Y116.187 E23.94577
G1 X108.422 Y115.752 E23.95716
G1 X108.376 Y115.707 E23.9583
G1 X107.932 Y115.243 E23.96972
G1 X107.889 Y115.195 E23.97086
G1 X107.476 Y114.706 E23.98224
G1 X107.435 Y114.654 E23.98342
G1 X107.053 Y114.14 E23.9948
G1 X107.016 Y114.087 E23.99595
G1 X106.657 Y113.536 E24.00764
G1 X106.625 Y113.484 E24.00872
G1 X106.308 Y112.929 E24.02009
G1 X106.277 Y112.87 E24.02127
G1 X105.995 Y112.294 E24.03267
G1 X105.969 Y112.236 E24.0338
G1 X105.723 Y111.646 E24.04516
G1 X105.7 Y111.587 E24.04629
G1 X105.489 Y110.98 E24.05771
G1 X105.469 Y110.917 E24.05889
G1 X105.298 Y110.303 E24.07022
G1 X105.149 Y109.615 E24.08273
G1 X105.137 Y109.553 E24.08385
G1 X105.04 Y108.919 E24.09525
G1 X105.032 Y108.854 E24.09642
G1 X104.976 Y108.233 E24.1075
G1 X104.953 Y107.534 E24.11993
G1 X104.953 Y107.468 E24.12111
G1 X104.976 Y106.766 E24.13359
G1 X105.034 Y106.128 E24.14498
G1 X105.042 Y106.063 E24.14615
G1 X105.14 Y105.429 E24.15755
G1 X105.152 Y105.368 E24.15865
G1 X105.287 Y104.741 E24.17006
G1 X105.303 Y104.676 E24.17125
G1 X105.477 Y104.062 E24.18259
G1 X105.495 Y104.004 E24.18367
G1 X105.705 Y103.398 E24.19507
G1 X105.729 Y103.335 E24.19627
G1 X105.977 Y102.745 E24.20764
G1 X106.003 Y102.688 E24.20876
G1 X106.286 Y102.113 E24.22015
G1 X106.318 Y102.054 E24.22134
G1 X106.645 Y101.485 E24.23301
G1 X106.677 Y101.433 E24.23409
G1 X107.028 Y100.897 E24.24548
G1 X107.064 Y100.845 E24.24661
G1 X107.436 Y100.345 E24.25769
G1 X107.477 Y100.294 E24.25885
G1 X107.902 Y99.792 E24.27054
G1 X107.946 Y99.743 E24.27171
M204 S625
M205 X6 Y6
G0 F4285.7 X108.222 Y100.063
M204 S500
M205 X5 Y5
G1 F1200 X108.707 Y99.558 E24.28416
G1 X109.19 Y99.111 E24.29586
G1 X109.731 Y98.667 E24.3083
G1 X110.25 Y98.292 E24.31968
G1 X110.824 Y97.929 E24.33175
G1 X110.856 Y97.91 E24.33241
G1 X111.418 Y97.6 E24.34382
G1 X112.064 Y97.295 E24.35652
G1 X112.697 Y97.041 E24.36865
G1 X113.304 Y96.84 E24.38001
G1 X113.341 Y96.829 E24.3807
G1 X113.959 Y96.666 E24.39206
G1 X114.625 Y96.53 E24.40414
G1 X114.664 Y96.523 E24.40485
G1 X115.299 Y96.436 E24.41624
G1 X115.337 Y96.432 E24.41692
G1 X116.013 Y96.381 E24.42897
G1 X116.652 Y96.371 E24.44033
G1 X117.331 Y96.402 E24.45241
G1 X118.006 Y96.473 E24.46448
G1 X118.043 Y96.478 E24.46514
G1 X118.676 Y96.584 E24.47655
G1 X118.717 Y96.592 E24.47729
G1 X119.39 Y96.752 E24.48959
G1 X119.987 Y96.93 E24.50066
G1 X120.023 Y96.942 E24.50134
G1 X120.625 Y97.162 E24.51273
G1 X121.283 Y97.449 E24.52549
G1 X121.854 Y97.741 E24.53689
G1 X122.439 Y98.086 E24.54897
G1 X122.471 Y98.106 E24.54964
G1 X123.001 Y98.465 E24.56102
G1 X123.583 Y98.913 E24.57407
G1 X124.053 Y99.322 E24.58515
G1 X124.082 Y99.349 E24.58585
G1 X124.575 Y99.838 E24.59819
G1 X124.991 Y100.302 E24.60927
G1 X125.425 Y100.848 E24.62167
G1 X125.804 Y101.388 E24.6334
G1 X125.826 Y101.422 E24.63412
G1 X126.185 Y102.014 E24.64642
G1 X126.497 Y102.602 E24.65826
G1 X126.761 Y103.184 E24.66962
G1 X127.005 Y103.816 E24.68166
G1 X127.018 Y103.853 E24.68236
G1 X127.21 Y104.465 E24.69376
G1 X127.375 Y105.122 E24.7058
G1 X127.5 Y105.789 E24.71786
G1 X127.506 Y105.827 E24.71855
G1 X127.588 Y106.502 E24.73063
G1 X127.627 Y107.141 E24.74201
G1 X127.627 Y107.838 E24.7544
G1 X127.626 Y107.876 E24.75508
G1 X127.586 Y108.515 E24.76646
G1 X127.503 Y109.189 E24.77853
G1 X127.372 Y109.897 E24.79133
G1 X127.215 Y110.516 E24.80268
G1 X127.012 Y111.162 E24.81472
G1 X126.999 Y111.2 E24.81543
G1 X126.768 Y111.799 E24.82685
G1 X126.497 Y112.398 E24.83853
G1 X126.479 Y112.435 E24.83926
G1 X126.169 Y113.016 E24.85097
G1 X125.827 Y113.578 E24.86266
G1 X125.403 Y114.181 E24.87577
G1 X125.016 Y114.668 E24.88682
G1 X124.525 Y115.214 E24.89988
G1 X124.082 Y115.651 E24.91094
G1 X123.525 Y116.135 E24.92406
G1 X123.017 Y116.523 E24.93542
G1 X122.423 Y116.924 E24.94816
G1 X121.872 Y117.249 E24.95953
G1 X121.283 Y117.551 E24.9713
G1 X121.247 Y117.568 E24.972
