;START_OF_HEADER
;HEADER_VERSION:0.1
;FLAVOR:Griffin
;GENERATOR.NAME:Cura_SteamEngine
;GENERATOR.VERSION:4.7.1
;GENERATOR.BUILD_DATE:2020-09-02
;TARGET_MACHINE.NAME:Ultimaker 3
;EXTRUDER_TRAIN.0.INITIAL_TEMPERATURE:205
;EXTRUDER_TRAIN.0.MATERIAL.VOLUME_USED:1351
;EXTRUDER_TRAIN.0.MATERIAL.GUID:506c9f0d-e3aa-4bd4-b2d2-23e2425b1aa9
;EXTRUDER_TRAIN.0.NOZZLE.DIAMETER:0.4
;EXTRUDER_TRAIN.0.NOZZLE.NAME:AA 0.4
;BUILD_PLATE.TYPE:glass
;BUILD_PLATE.INITIAL_TEMPERATURE:60
;PRINT.TIME:969
;PRINT.GROUPS:1
;PRINT.SIZE.MIN.X:9
;PRINT.SIZE.MIN.Y:6
;PRINT.SIZE.MIN.Z:0.27
;PRINT.SIZE.MAX.X:136.93
;PRINT.SIZE.MAX.Y:121.93
;PRINT.SIZE.MAX.Z:11.97
;END_OF_HEADER
;Generated with Cura_SteamEngine 4.7.1
T0
M82 ;absolute extrusion mode

G92 E0
M109 S205
G0 F15000 X9 Y6 Z2
G280
G1 F1500 E-6.5
;LAYER_COUNT:79
;LAYER:0
M107
M204 S625
M205 X6 Y6
G1 F600 Z2.27
G0 F3750 X99.322 Y96.222 Z2.27
M204 S500
M205 X5 Y5
;TYPE:SKIRT
G1 F600 Z0.27
G1 F1500 E0
G1 F1200 X99.767 Y95.823 E0.01062
G1 X100.372 Y95.325 E0.02455
G1 X100.971 Y94.883 E0.03779
G1 X101.502 Y94.567 E0.04877
G1 X102.196 Y94.195 E0.06277
G1 X102.87 Y93.879 E0.076
G1 X103.468 Y93.668 E0.08727
G1 X104.217 Y93.442 E0.10118
G1 X104.94 Y93.266 E0.11441
G1 X105.54 Y93.18 E0.12518
G1 X106.322 Y93.103 E0.13915
G1 X107.001 Y93.07 E0.15123
G1 X126.025 Y93.071 E0.4894
G1 X126.718 Y93.106 E0.50174
G1 X127.474 Y93.182 E0.51524
G1 X128.21 Y93.296 E0.52848
G1 X128.783 Y93.442 E0.53899
G1 X129.532 Y93.668 E0.5529
G1 X130.232 Y93.921 E0.56613
G1 X130.804 Y94.195 E0.57741
G1 X131.498 Y94.567 E0.5914
G1 X132.134 Y94.953 E0.60463
G1 X132.626 Y95.323 E0.61557
G1 X133.229 Y95.819 E0.62945
G1 X133.778 Y96.322 E0.64269
G1 X134.177 Y96.767 E0.65331
G1 X134.675 Y97.372 E0.66724
G1 X135.117 Y97.971 E0.68047
G1 X135.433 Y98.502 E0.69146
G1 X135.805 Y99.196 E0.70545
G1 X136.121 Y99.87 E0.71869
G1 X136.331 Y100.466 E0.72992
G1 X136.557 Y101.214 E0.74381
G1 X136.734 Y101.937 E0.75704
G1 X136.82 Y102.538 E0.76783
G1 X136.897 Y103.319 E0.78178
G1 X136.93 Y103.999 E0.79389
G1 X136.93 Y115 E0.98944
G1 X136.89 Y115.743 E1.00267
G1 X136.771 Y116.478 E1.0159
G1 X136.573 Y117.196 E1.02914
G1 X136.3 Y117.888 E1.04236
G1 X135.954 Y118.547 E1.0556
G1 X135.539 Y119.165 E1.06883
G1 X135.06 Y119.735 E1.08206
G1 X134.523 Y120.25 E1.09529
G1 X133.934 Y120.705 E1.10852
G1 X133.3 Y121.094 E1.12174
G1 X132.627 Y121.413 E1.13498
G1 X131.924 Y121.658 E1.14821
G1 X131.199 Y121.826 E1.16144
G1 X130.46 Y121.915 E1.17467
G1 X130 Y121.93 E1.18286
G1 X103 Y121.93 E1.66281
G1 X102.257 Y121.89 E1.67603
G1 X101.522 Y121.771 E1.68927
G1 X100.804 Y121.573 E1.70251
G1 X100.112 Y121.3 E1.71573
G1 X99.453 Y120.954 E1.72896
G1 X98.835 Y120.539 E1.7422
G1 X98.265 Y120.06 E1.75543
G1 X97.75 Y119.523 E1.76866
G1 X97.295 Y118.934 E1.78189
G1 X96.906 Y118.3 E1.79511
G1 X96.587 Y117.627 E1.80835
G1 X96.342 Y116.924 E1.82158
G1 X96.174 Y116.199 E1.83481
G1 X96.085 Y115.46 E1.84804
G1 X96.07 Y114.999 E1.85624
G1 X96.071 Y103.974 E2.05222
G1 X96.106 Y103.283 E2.06452
G1 X96.182 Y102.526 E2.07804
G1 X96.296 Y101.79 E2.09128
G1 X96.443 Y101.214 E2.10185
G1 X96.669 Y100.466 E2.11574
G1 X96.922 Y99.766 E2.12897
G1 X97.195 Y99.196 E2.14021
G1 X97.567 Y98.502 E2.1542
G1 X97.953 Y97.866 E2.16743
G1 X98.323 Y97.374 E2.17837
G1 X98.819 Y96.771 E2.19225
G1 X99.322 Y96.222 E2.20549
M204 S625
M205 X6 Y6
G0 F3750 X99.632 Y96.507
M204 S500
M205 X5 Y5
G1 F1200 X100.034 Y96.147 E2.21508
G1 X100.639 Y95.649 E2.22901
G1 X101.22 Y95.222 E2.24183
G1 X101.7 Y94.937 E2.25175
G1 X102.394 Y94.565 E2.26575
G1 X103.048 Y94.26 E2.27857
G1 X103.589 Y94.071 E2.28876
G1 X104.338 Y93.845 E2.30267
G1 X105.04 Y93.675 E2.31551
G1 X105.581 Y93.598 E2.32522
G1 X106.363 Y93.521 E2.33919
G1 X107.001 Y93.49 E2.35054
G1 X126.025 Y93.491 E2.68871
G1 X126.676 Y93.524 E2.7003
G1 X127.432 Y93.6 E2.71381
G1 X128.145 Y93.711 E2.72663
G1 X128.662 Y93.845 E2.73613
G1 X129.411 Y94.071 E2.75003
G1 X130.089 Y94.317 E2.76285
G1 X130.606 Y94.565 E2.77305
G1 X131.3 Y94.937 E2.78704
G1 X131.915 Y95.313 E2.79986
G1 X132.36 Y95.647 E2.80975
G1 X132.963 Y96.143 E2.82363
G1 X133.493 Y96.632 E2.83645
G1 X133.853 Y97.034 E2.84604
G1 X134.351 Y97.639 E2.85997
G1 X134.778 Y98.22 E2.87279
G1 X135.063 Y98.7 E2.88271
G1 X135.435 Y99.394 E2.89671
G1 X135.74 Y100.048 E2.90953
G1 X135.929 Y100.587 E2.91969
G1 X136.155 Y101.335 E2.93358
G1 X136.325 Y102.036 E2.9464
G1 X136.402 Y102.579 E2.95615
G1 X136.479 Y103.36 E2.9701
G1 X136.51 Y103.999 E2.98147
G1 X136.51 Y115 E3.17702
G1 X136.47 Y115.72 E3.18984
G1 X136.351 Y116.432 E3.20267
G1 X136.153 Y117.126 E3.2155
G1 X135.88 Y117.793 E3.22831
G1 X135.535 Y118.427 E3.24114
G1 X135.122 Y119.018 E3.25396
G1 X134.646 Y119.56 E3.26678
G1 X134.113 Y120.046 E3.27961
G1 X133.529 Y120.47 E3.29243
G1 X132.902 Y120.827 E3.30526
G1 X132.24 Y121.113 E3.31808
G1 X131.55 Y121.323 E3.3309
G1 X130.841 Y121.455 E3.34372
G1 X130 Y121.51 E3.3587
G1 X103 Y121.51 E3.83865
G1 X102.28 Y121.47 E3.85147
G1 X101.568 Y121.351 E3.8643
G1 X100.874 Y121.153 E3.87713
G1 X100.207 Y120.88 E3.88994
G1 X99.573 Y120.535 E3.90277
G1 X98.982 Y120.122 E3.91559
G1 X98.44 Y119.646 E3.92841
G1 X97.954 Y119.113 E3.94123
G1 X97.53 Y118.529 E3.95406
G1 X97.173 Y117.902 E3.96689
G1 X96.887 Y117.24 E3.97971
G1 X96.677 Y116.55 E3.99253
G1 X96.545 Y115.841 E4.00535
G1 X96.49 Y114.999 E4.02035
G1 X96.491 Y103.974 E4.21633
G1 X96.524 Y103.325 E4.22788
G1 X96.6 Y102.568 E4.2414
G1 X96.711 Y101.855 E4.25423
G1 X96.845 Y101.335 E4.26378
G1 X97.071 Y100.587 E4.27767
G1 X97.318 Y99.909 E4.29049
G1 X97.565 Y99.394 E4.30065
G1 X97.937 Y98.7 E4.31464
G1 X98.313 Y98.085 E4.32746
G1 X98.647 Y97.64 E4.33735
G1 X99.143 Y97.037 E4.35123
G1 X99.632 Y96.507 E4.36405
M204 S625
M205 X6 Y6
G0 F3750 X99.941 Y96.792
M204 S500
M205 X5 Y5
G1 F1200 X100.301 Y96.471 E4.37262
G1 X100.906 Y95.973 E4.38655
G1 X101.469 Y95.561 E4.39895
G1 X101.899 Y95.307 E4.40783
G1 X102.593 Y94.935 E4.42182
G1 X103.226 Y94.642 E4.43422
G1 X103.711 Y94.473 E4.44335
G1 X104.46 Y94.247 E4.45726
G1 X105.138 Y94.084 E4.46966
G1 X105.622 Y94.016 E4.47834
G1 X106.404 Y93.939 E4.49231
G1 X107.001 Y93.91 E4.50294
G1 X126.025 Y93.911 E4.84111
G1 X126.634 Y93.942 E4.85195
G1 X127.39 Y94.018 E4.86545
G1 X128.079 Y94.127 E4.87785
G1 X128.54 Y94.247 E4.88632
G1 X129.289 Y94.473 E4.90023
G1 X129.945 Y94.712 E4.91264
G1 X130.407 Y94.935 E4.92176
G1 X131.101 Y95.307 E4.93575
G1 X131.696 Y95.672 E4.94816
G1 X132.093 Y95.972 E4.95701
G1 X132.696 Y96.468 E4.97089
G1 X133.208 Y96.941 E4.98328
G1 X133.529 Y97.301 E4.99185
G1 X134.027 Y97.906 E5.00578
G1 X134.439 Y98.469 E5.01818
G1 X134.693 Y98.899 E5.02706
G1 X135.065 Y99.593 E5.04106
G1 X135.358 Y100.226 E5.05346
G1 X135.527 Y100.709 E5.06255
G1 X135.753 Y101.457 E5.07644
G1 X135.916 Y102.135 E5.08884
G1 X135.984 Y102.62 E5.09754
G1 X136.061 Y103.401 E5.11149
G1 X136.09 Y103.999 E5.12214
G1 X136.09 Y115 E5.31769
G1 X136.05 Y115.697 E5.3301
G1 X135.931 Y116.384 E5.34249
G1 X135.733 Y117.053 E5.3549
G1 X135.461 Y117.696 E5.36731
G1 X135.117 Y118.302 E5.37969
G1 X134.705 Y118.866 E5.39211
G1 X134.232 Y119.379 E5.40451
G1 X133.704 Y119.834 E5.4169
G1 X133.127 Y120.226 E5.4293
G1 X132.508 Y120.549 E5.44171
G1 X131.857 Y120.8 E5.45412
G1 X131.181 Y120.974 E5.46653
G1 X130.49 Y121.07 E5.47893
G1 X130 Y121.09 E5.48764
G1 X103 Y121.09 E5.9676
G1 X102.303 Y121.05 E5.98001
G1 X101.616 Y120.931 E5.9924
G1 X100.947 Y120.733 E6.0048
G1 X100.304 Y120.461 E6.01721
G1 X99.698 Y120.117 E6.0296
G1 X99.134 Y119.705 E6.04201
G1 X98.621 Y119.232 E6.05442
G1 X98.166 Y118.704 E6.06681
G1 X97.774 Y118.127 E6.07921
G1 X97.451 Y117.508 E6.09162
G1 X97.2 Y116.857 E6.10402
G1 X97.026 Y116.181 E6.11643
G1 X96.93 Y115.49 E6.12883
G1 X96.91 Y114.999 E6.13757
G1 X96.911 Y103.974 E6.33355
G1 X96.941 Y103.367 E6.34435
G1 X97.017 Y102.61 E6.35787
G1 X97.127 Y101.921 E6.37028
G1 X97.247 Y101.457 E6.3788
G1 X97.473 Y100.709 E6.39269
G1 X97.713 Y100.053 E6.4051
G1 X97.935 Y99.593 E6.41418
G1 X98.307 Y98.899 E6.42818
G1 X98.672 Y98.304 E6.44059
G1 X98.972 Y97.907 E6.44943
G1 X99.468 Y97.304 E6.46331
G1 X99.941 Y96.792 E6.4757
M204 S625
M205 X6 Y6
G0 F3750 X100.25 Y97.077
M204 S500
M205 X5 Y5
G1 F1200 X100.568 Y96.795 E6.48326
G1 X101.173 Y96.297 E6.49719
G1 X101.717 Y95.901 E6.50915
G1 X102.097 Y95.678 E6.51698
G1 X102.791 Y95.306 E6.53098
G1 X103.402 Y95.023 E6.54295
G1 X103.832 Y94.875 E6.55103
G1 X104.581 Y94.649 E6.56494
G1 X105.236 Y94.493 E6.57691
G1 X105.663 Y94.434 E6.58457
G1 X106.445 Y94.357 E6.59854
G1 X107.001 Y94.33 E6.60843
G1 X126.025 Y94.331 E6.9466
G1 X126.592 Y94.359 E6.95669
G1 X127.348 Y94.435 E6.9702
G1 X128.013 Y94.542 E6.98217
G1 X128.419 Y94.649 E6.98964
G1 X129.168 Y94.875 E7.00354
G1 X129.8 Y95.107 E7.01551
G1 X130.209 Y95.306 E7.0236
G1 X130.903 Y95.678 E7.03759
G1 X131.476 Y96.03 E7.04955
G1 X131.826 Y96.296 E7.05736
G1 X132.429 Y96.792 E7.07124
G1 X132.923 Y97.25 E7.08322
G1 X133.205 Y97.568 E7.09077
G1 X133.703 Y98.173 E7.1047
G1 X134.099 Y98.717 E7.11666
G1 X134.322 Y99.097 E7.12449
G1 X134.694 Y99.791 E7.13849
G1 X134.977 Y100.402 E7.15046
G1 X135.125 Y100.83 E7.15851
G1 X135.351 Y101.578 E7.1724
G1 X135.507 Y102.233 E7.18437
G1 X135.566 Y102.662 E7.19207
G1 X135.643 Y103.443 E7.20602
G1 X135.67 Y103.999 E7.21591
G1 X135.67 Y115 E7.41147
G1 X135.63 Y115.672 E7.42343
G1 X135.511 Y116.335 E7.43541
G1 X135.314 Y116.978 E7.44736
G1 X135.042 Y117.594 E7.45933
G1 X134.699 Y118.173 E7.47129
G1 X134.29 Y118.708 E7.48326
G1 X133.82 Y119.19 E7.49523
G1 X133.296 Y119.613 E7.5072
G1 X132.726 Y119.972 E7.51918
G1 X132.118 Y120.26 E7.53114
G1 X131.48 Y120.474 E7.5431
G1 X130.82 Y120.61 E7.55508
G1 X130 Y120.67 E7.56969
G1 X103 Y120.67 E8.04964
G1 X102.328 Y120.63 E8.06161
G1 X101.665 Y120.511 E8.07358
G1 X101.022 Y120.314 E8.08554
G1 X100.406 Y120.042 E8.09751
G1 X99.827 Y119.699 E8.10947
G1 X99.292 Y119.29 E8.12144
G1 X98.81 Y118.82 E8.13341
G1 X98.387 Y118.296 E8.14538
G1 X98.028 Y117.726 E8.15735
G1 X97.74 Y117.118 E8.16931
G1 X97.526 Y116.48 E8.18128
G1 X97.39 Y115.82 E8.19325
G1 X97.33 Y114.999 E8.20789
G1 X97.331 Y103.974 E8.40387
G1 X97.359 Y103.409 E8.41392
G1 X97.435 Y102.652 E8.42745
G1 X97.542 Y101.987 E8.43942
G1 X97.649 Y101.578 E8.44693
G1 X97.875 Y100.83 E8.46082
G1 X98.108 Y100.198 E8.4728
G1 X98.306 Y99.791 E8.48084
G1 X98.678 Y99.097 E8.49484
G1 X99.03 Y98.524 E8.5068
G1 X99.296 Y98.174 E8.51461
G1 X99.792 Y97.571 E8.52849
G1 X100.25 Y97.077 E8.54046
M204 S625
M205 X6 Y6
G0 F3750 X100.558 Y97.364
M204 S500
M205 X5 Y5
G1 F1200 X100.834 Y97.12 E8.54701
G1 X101.439 Y96.622 E8.56094
G1 X101.964 Y96.242 E8.57246
G1 X102.296 Y96.048 E8.5793
G1 X102.99 Y95.676 E8.59329
G1 X103.578 Y95.406 E8.6048
G1 X103.953 Y95.277 E8.61184
G1 X104.702 Y95.051 E8.62575
G1 X105.333 Y94.902 E8.63728
G1 X105.705 Y94.852 E8.64395
G1 X106.487 Y94.775 E8.65792
G1 X107.001 Y94.75 E8.66707
G1 X126.025 Y94.751 E9.00524
G1 X126.55 Y94.777 E9.01458
G1 X127.306 Y94.853 E9.02809
G1 X127.945 Y94.958 E9.0396
G1 X128.298 Y95.051 E9.04609
G1 X129.047 Y95.277 E9.05999
G1 X129.654 Y95.502 E9.0715
G1 X130.01 Y95.676 E9.07854
G1 X130.704 Y96.048 E9.09254
G1 X131.255 Y96.388 E9.10405
G1 X131.559 Y96.62 E9.11085
G1 X132.162 Y97.116 E9.12473
G1 X132.636 Y97.558 E9.13625
G1 X132.88 Y97.834 E9.1428
G1 X133.378 Y98.439 E9.15673
G1 X133.758 Y98.964 E9.16825
G1 X133.952 Y99.296 E9.17508
G1 X134.324 Y99.99 E9.18908
G1 X134.594 Y100.578 E9.20058
G1 X134.723 Y100.952 E9.20761
G1 X134.949 Y101.7 E9.2215
G1 X135.097 Y102.33 E9.23301
G1 X135.148 Y102.703 E9.2397
G1 X135.225 Y103.484 E9.25365
G1 X135.25 Y103.999 E9.26281
G1 X135.25 Y115 E9.45837
G1 X135.21 Y115.647 E9.46989
G1 X135.091 Y116.283 E9.48139
G1 X134.894 Y116.9 E9.49291
G1 X134.623 Y117.489 E9.50443
G1 X134.281 Y118.039 E9.51594
G1 X133.874 Y118.543 E9.52746
G1 X133.408 Y118.993 E9.53897
G1 X132.891 Y119.382 E9.55048
G1 X132.329 Y119.705 E9.562
G1 X131.732 Y119.956 E9.57351
G1 X131.108 Y120.132 E9.58504
G1 X130.468 Y120.229 E9.59654
G1 X130 Y120.25 E9.60487
G1 X103 Y120.25 E10.08482
G1 X102.353 Y120.21 E10.09634
G1 X101.717 Y120.091 E10.10785
G1 X101.1 Y119.894 E10.11936
G1 X100.511 Y119.623 E10.13088
G1 X99.961 Y119.281 E10.1424
G1 X99.457 Y118.874 E10.15391
G1 X99.007 Y118.408 E10.16543
G1 X98.618 Y117.891 E10.17693
G1 X98.295 Y117.329 E10.18845
G1 X98.044 Y116.732 E10.19996
G1 X97.868 Y116.108 E10.21149
G1 X97.771 Y115.468 E10.22299
G1 X97.75 Y115 E10.23132
G1 X97.751 Y103.975 E10.4273
G1 X97.777 Y103.451 E10.43663
G1 X97.853 Y102.694 E10.45015
G1 X97.958 Y102.054 E10.46168
G1 X98.051 Y101.7 E10.46819
G1 X98.277 Y100.952 E10.48208
G1 X98.503 Y100.344 E10.49361
G1 X98.676 Y99.99 E10.50061
G1 X99.048 Y99.296 E10.51461
G1 X99.388 Y98.745 E10.52612
G1 X99.62 Y98.441 E10.53292
G1 X100.116 Y97.838 E10.54679
G1 X100.558 Y97.364 E10.55832
M204 S625
M205 X6 Y6
G0 F3750 X100.866 Y97.651
M204 S500
M205 X5 Y5
G1 F1200 X101.101 Y97.444 E10.56388
G1 X101.706 Y96.946 E10.57781
G1 X102.21 Y96.583 E10.58885
G1 X102.494 Y96.418 E10.59469
G1 X103.188 Y96.046 E10.60869
G1 X103.753 Y95.788 E10.61973
G1 X104.075 Y95.679 E10.62577
G1 X104.824 Y95.453 E10.63968
G1 X105.429 Y95.312 E10.65072
G1 X105.746 Y95.27 E10.65641
G1 X106.528 Y95.193 E10.67037
G1 X107.001 Y95.17 E10.67879
G1 X126.025 Y95.171 E11.01696
G1 X126.508 Y95.195 E11.02556
G1 X127.264 Y95.271 E11.03907
G1 X128.176 Y95.453 E11.0556
G1 X128.925 Y95.679 E11.0695
G1 X129.507 Y95.896 E11.08054
G1 X129.812 Y96.046 E11.08659
G1 X130.506 Y96.418 E11.10058
G1 X131.033 Y96.746 E11.11162
G1 X131.292 Y96.945 E11.11742
G1 X131.895 Y97.441 E11.1313
G1 X132.349 Y97.866 E11.14236
G1 X132.556 Y98.101 E11.14792
G1 X133.054 Y98.706 E11.16185
G1 X133.417 Y99.21 E11.17289
G1 X133.582 Y99.494 E11.17873
G1 X133.954 Y100.188 E11.19273
G1 X134.212 Y100.753 E11.20377
G1 X134.321 Y101.073 E11.20978
G1 X134.547 Y101.821 E11.22367
G1 X134.688 Y102.426 E11.23471
G1 X134.73 Y102.744 E11.24042
G1 X134.807 Y103.525 E11.25437
G1 X134.83 Y103.999 E11.2628
G1 X134.83 Y115 E11.45835
G1 X134.79 Y115.62 E11.4694
G1 X134.671 Y116.23 E11.48045
G1 X134.474 Y116.819 E11.49149
G1 X134.204 Y117.378 E11.50252
G1 X133.864 Y117.898 E11.51357
G1 X133.46 Y118.37 E11.52461
G1 X132.998 Y118.787 E11.53567
G1 X132.488 Y119.14 E11.5467
G1 X131.936 Y119.425 E11.55774
G1 X131.351 Y119.637 E11.5688
G1 X130.745 Y119.772 E11.57984
G1 X130 Y119.83 E11.59312
G1 X103 Y119.83 E12.07307
G1 X102.38 Y119.79 E12.08412
G1 X101.77 Y119.671 E12.09517
G1 X101.181 Y119.474 E12.10621
G1 X100.622 Y119.204 E12.11724
G1 X100.102 Y118.864 E12.12828
G1 X99.63 Y118.46 E12.13933
G1 X99.213 Y117.998 E12.15039
G1 X98.86 Y117.488 E12.16142
G1 X98.575 Y116.936 E12.17246
G1 X98.363 Y116.351 E12.18352
G1 X98.228 Y115.745 E12.19456
G1 X98.17 Y115 E12.20784
G1 X98.171 Y103.975 E12.40382
G1 X98.195 Y103.493 E12.4124
G1 X98.271 Y102.736 E12.42592
G1 X98.373 Y102.123 E12.43697
G1 X98.453 Y101.821 E12.44252
G1 X98.679 Y101.073 E12.45641
G1 X98.897 Y100.491 E12.46746
G1 X99.046 Y100.188 E12.47346
G1 X99.418 Y99.494 E12.48746
G1 X99.746 Y98.967 E12.49849
G1 X99.945 Y98.708 E12.5043
G1 X100.441 Y98.105 E12.51818
G1 X100.866 Y97.651 E12.52923
M204 S625
M205 X6 Y6
G0 F3750 X101.368 Y97.768
M204 S500
M205 X5 Y5
G1 F1200 X101.973 Y97.27 E12.54316
G1 X102.693 Y96.788 E12.55857
G1 X103.387 Y96.416 E12.57256
G1 X104.196 Y96.081 E12.58813
G1 X104.945 Y95.855 E12.60203
G1 X105.787 Y95.688 E12.61729
G1 X106.569 Y95.611 E12.63126
G1 X107.001 Y95.59 E12.63895
G1 X126.025 Y95.591 E12.97712
G1 X126.466 Y95.613 E12.98497
G1 X127.222 Y95.689 E12.99847
G1 X128.055 Y95.855 E13.01357
G1 X128.804 Y96.081 E13.02748
G1 X129.613 Y96.416 E13.04305
G1 X130.307 Y96.788 E13.05704
G1 X131.025 Y97.269 E13.0724
G1 X131.628 Y97.765 E13.08628
G1 X132.232 Y98.368 E13.10146
G1 X132.73 Y98.973 E13.11538
G1 X133.212 Y99.693 E13.13079
G1 X133.584 Y100.387 E13.14478
G1 X133.919 Y101.195 E13.16033
G1 X134.145 Y101.943 E13.17422
G1 X134.312 Y102.785 E13.18948
G1 X134.389 Y103.566 E13.20343
G1 X134.41 Y103.999 E13.21114
G1 X134.41 Y115 E13.40669
G1 X134.37 Y115.592 E13.41724
G1 X134.251 Y116.174 E13.4278
G1 X134.055 Y116.734 E13.43834
G1 X133.785 Y117.263 E13.4489
G1 X133.447 Y117.751 E13.45945
G1 X133.046 Y118.189 E13.47001
G1 X132.59 Y118.569 E13.48056
G1 X132.087 Y118.885 E13.49112
G1 X131.547 Y119.13 E13.50166
G1 X130.978 Y119.3 E13.51222
G1 X130.392 Y119.393 E13.52277
G1 X130 Y119.41 E13.52974
G1 X103 Y119.41 E14.00969
G1 X102.408 Y119.37 E14.02024
G1 X101.826 Y119.251 E14.0308
G1 X101.266 Y119.055 E14.04135
G1 X100.737 Y118.785 E14.0519
G1 X100.249 Y118.447 E14.06246
G1 X99.811 Y118.046 E14.07301
G1 X99.431 Y117.59 E14.08356
G1 X99.115 Y117.087 E14.09412
G1 X98.87 Y116.547 E14.10466
G1 X98.7 Y115.978 E14.11522
G1 X98.607 Y115.392 E14.12577
G1 X98.59 Y115 E14.13274
G1 X98.591 Y103.975 E14.32872
G1 X98.613 Y103.534 E14.33657
G1 X98.689 Y102.777 E14.35009
G1 X98.855 Y101.943 E14.36521
G1 X99.081 Y101.195 E14.3791
G1 X99.416 Y100.387 E14.39465
G1 X99.788 Y99.693 E14.40865
G1 X100.269 Y98.975 E14.42401
G1 X100.765 Y98.372 E14.43789
G1 X101.368 Y97.768 E14.45306
M204 S625
M205 X6 Y6
G0 F3750 X101.635 Y98.092
M204 S500
M205 X5 Y5
G1 F1200 X102.24 Y97.594 E14.46699
G1 X102.891 Y97.158 E14.48092
G1 X103.585 Y96.786 E14.49491
G1 X104.317 Y96.483 E14.509
G1 X105.066 Y96.257 E14.5229
G1 X105.828 Y96.106 E14.53671
G1 X106.61 Y96.029 E14.55068
G1 X107.001 Y96.01 E14.55764
G1 X126.025 Y96.011 E14.89581
G1 X126.424 Y96.031 E14.90291
G1 X127.18 Y96.107 E14.91642
G1 X127.934 Y96.257 E14.93008
G1 X128.683 Y96.483 E14.94399
G1 X129.415 Y96.786 E14.95807
G1 X130.109 Y97.158 E14.97207
G1 X130.759 Y97.594 E14.98598
G1 X131.362 Y98.09 E14.99986
G1 X131.908 Y98.635 E15.01357
G1 X132.406 Y99.24 E15.0275
G1 X132.842 Y99.891 E15.04143
G1 X133.214 Y100.585 E15.05543
G1 X133.516 Y101.316 E15.06949
G1 X133.742 Y102.064 E15.08338
G1 X133.894 Y102.827 E15.09721
G1 X133.971 Y103.608 E15.11116
G1 X133.99 Y103.999 E15.11812
G1 X133.99 Y115 E15.31367
G1 X133.95 Y115.563 E15.3237
G1 X133.831 Y116.115 E15.33374
G1 X133.635 Y116.645 E15.34379
G1 X133.367 Y117.141 E15.35381
G1 X133.031 Y117.595 E15.36385
G1 X132.634 Y117.997 E15.37389
G1 X132.185 Y118.339 E15.38392
G1 X131.691 Y118.614 E15.39397
G1 X131.164 Y118.816 E15.40401
G1 X130.614 Y118.942 E15.41404
G1 X130 Y118.99 E15.42498
G1 X103 Y118.99 E15.90494
G1 X102.437 Y118.95 E15.91497
G1 X101.885 Y118.831 E15.92501
G1 X101.355 Y118.635 E15.93505
G1 X100.859 Y118.367 E15.94507
G1 X100.405 Y118.031 E15.95511
G1 X100.003 Y117.634 E15.96516
G1 X99.661 Y117.185 E15.97519
G1 X99.386 Y116.691 E15.98524
G1 X99.184 Y116.164 E15.99527
G1 X99.058 Y115.614 E16.0053
G1 X99.01 Y115 E16.01625
G1 X99.011 Y103.975 E16.21223
G1 X99.031 Y103.576 E16.21933
G1 X99.107 Y102.819 E16.23286
G1 X99.258 Y102.064 E16.24654
G1 X99.484 Y101.316 E16.26043
G1 X99.786 Y100.585 E16.27449
G1 X100.158 Y99.891 E16.28849
G1 X100.594 Y99.241 E16.3024
G1 X101.09 Y98.638 E16.31628
G1 X101.635 Y98.092 E16.32999
M204 S625
M205 X6 Y6
G0 F3750 X101.902 Y98.417
M204 S500
M205 X5 Y5
G1 F1200 X102.507 Y97.919 E16.34392
G1 X103.089 Y97.529 E16.35638
G1 X103.783 Y97.157 E16.37037
G1 X104.439 Y96.885 E16.383
G1 X105.188 Y96.659 E16.39691
G1 X105.869 Y96.524 E16.40925
G1 X106.651 Y96.447 E16.42321
G1 X107.001 Y96.43 E16.42944
G1 X126.025 Y96.431 E16.76761
G1 X126.382 Y96.449 E16.77397
G1 X127.138 Y96.525 E16.78747
G1 X127.812 Y96.659 E16.79969
G1 X128.561 Y96.885 E16.8136
G1 X129.217 Y97.157 E16.82622
G1 X129.911 Y97.529 E16.84022
G1 X130.492 Y97.918 E16.85265
G1 X131.095 Y98.414 E16.86653
G1 X131.583 Y98.902 E16.87879
G1 X132.081 Y99.507 E16.89272
G1 X132.471 Y100.089 E16.90518
G1 X132.843 Y100.783 E16.91917
G1 X133.114 Y101.437 E16.93176
G1 X133.34 Y102.185 E16.94565
G1 X133.476 Y102.868 E16.95803
G1 X133.553 Y103.649 E16.97198
G1 X133.57 Y103.999 E16.97821
G1 X133.57 Y115 E17.17376
G1 X133.53 Y115.533 E17.18326
G1 X133.411 Y116.053 E17.19274
G1 X133.216 Y116.55 E17.20223
G1 X132.949 Y117.013 E17.21173
G1 X132.615 Y117.43 E17.22123
G1 X132.224 Y117.793 E17.23072
G1 X131.782 Y118.093 E17.24021
G1 X131.301 Y118.325 E17.2497
G1 X130.79 Y118.481 E17.2592
G1 X130 Y118.57 E17.27333
G1 X103 Y118.57 E17.75328
G1 X102.467 Y118.53 E17.76279
G1 X101.947 Y118.411 E17.77227
G1 X101.45 Y118.216 E17.78176
G1 X100.987 Y117.949 E17.79126
G1 X100.57 Y117.615 E17.80076
G1 X100.207 Y117.224 E17.81024
G1 X99.907 Y116.782 E17.81974
G1 X99.675 Y116.301 E17.82923
G1 X99.519 Y115.79 E17.83873
G1 X99.43 Y115 E17.85286
G1 X99.431 Y103.975 E18.04884
G1 X99.449 Y103.618 E18.05519
G1 X99.525 Y102.861 E18.06872
G1 X99.66 Y102.185 E18.08097
G1 X99.886 Y101.437 E18.09486
G1 X100.157 Y100.783 E18.10744
G1 X100.529 Y100.089 E18.12144
G1 X100.918 Y99.508 E18.13387
G1 X101.414 Y98.905 E18.14775
G1 X101.902 Y98.417 E18.16002
M204 S625
M205 X6 Y6
G0 F3750 X102.169 Y98.741
M204 S500
M205 X5 Y5
G1 F1200 X102.774 Y98.243 E18.17395
G1 X103.288 Y97.899 E18.18494
G1 X103.982 Y97.527 E18.19894
G1 X104.56 Y97.287 E18.21006
G1 X105.309 Y97.061 E18.22397
G1 X105.91 Y96.942 E18.23486
G1 X106.692 Y96.865 E18.24883
G1 X107.001 Y96.85 E18.25433
G1 X126.025 Y96.851 E18.5925
G1 X126.34 Y96.867 E18.59811
G1 X127.096 Y96.943 E18.61161
G1 X127.691 Y97.061 E18.62239
G1 X128.44 Y97.287 E18.6363
G1 X129.018 Y97.527 E18.64743
G1 X129.712 Y97.899 E18.66142
G1 X130.225 Y98.242 E18.67239
G1 X130.828 Y98.738 E18.68627
G1 X131.259 Y99.169 E18.69711
G1 X131.757 Y99.774 E18.71104
G1 X132.101 Y100.288 E18.72203
G1 X132.473 Y100.982 E18.73603
G1 X132.712 Y101.559 E18.74713
G1 X132.938 Y102.307 E18.76102
G1 X133.058 Y102.909 E18.77193
G1 X133.135 Y103.69 E18.78588
G1 X133.15 Y103.999 E18.79138
G1 X133.15 Y115 E18.98693
G1 X133.11 Y115.5 E18.99585
G1 X132.991 Y115.987 E19.00476
G1 X132.797 Y116.45 E19.01369
G1 X132.531 Y116.875 E19.0226
G1 X132.201 Y117.253 E19.03152
G1 X131.816 Y117.574 E19.04043
G1 X131.384 Y117.83 E19.04935
G1 X130.917 Y118.013 E19.05827
G1 X130.428 Y118.121 E19.06717
G1 X130 Y118.15 E19.0748
G1 X103 Y118.15 E19.55475
G1 X102.5 Y118.11 E19.56367
G1 X102.013 Y117.991 E19.57258
G1 X101.55 Y117.797 E19.5815
G1 X101.125 Y117.531 E19.59041
G1 X100.747 Y117.201 E19.59933
G1 X100.426 Y116.816 E19.60824
G1 X100.17 Y116.384 E19.61717
G1 X99.987 Y115.917 E19.62609
G1 X99.879 Y115.428 E19.63499
G1 X99.85 Y115 E19.64261
G1 X99.851 Y103.975 E19.83859
G1 X99.867 Y103.66 E19.8442
G1 X99.943 Y102.903 E19.85772
G1 X100.062 Y102.307 E19.86853
G1 X100.288 Y101.559 E19.88242
G1 X100.527 Y100.982 E19.89352
G1 X100.899 Y100.288 E19.90752
G1 X101.242 Y99.775 E19.91849
G1 X101.738 Y99.172 E19.93237
G1 X102.169 Y98.741 E19.9432
M204 S625
M205 X6 Y6
G0 F3750 X102.436 Y99.065
M204 S500
M205 X5 Y5
G1 F1200 X103.041 Y98.567 E19.95713
G1 X103.486 Y98.269 E19.96665
G1 X104.18 Y97.897 E19.98065
G1 X104.681 Y97.689 E19.99029
G1 X105.43 Y97.463 E20.0042
G1 X105.951 Y97.36 E20.01364
G1 X106.733 Y97.283 E20.02761
G1 X107.001 Y97.27 E20.03238
G1 X126.025 Y97.271 E20.37055
G1 X126.298 Y97.285 E20.3754
G1 X127.054 Y97.361 E20.38891
G1 X127.57 Y97.463 E20.39826
G1 X128.319 Y97.689 E20.41217
G1 X128.82 Y97.897 E20.42181
G1 X129.514 Y98.269 E20.43581
G1 X129.958 Y98.567 E20.44531
G1 X130.561 Y99.063 E20.45919
G1 X130.935 Y99.436 E20.46858
G1 X131.433 Y100.041 E20.48251
G1 X131.731 Y100.486 E20.49203
G1 X132.103 Y101.18 E20.50603
G1 X132.31 Y101.68 E20.51565
G1 X132.536 Y102.428 E20.52954
G1 X132.64 Y102.95 E20.539
G1 X132.717 Y103.731 E20.55295
G1 X132.73 Y103.999 E20.55772
G1 X132.73 Y115 E20.75327
G1 X132.69 Y115.465 E20.76157
G1 X132.571 Y115.917 E20.76988
G1 X132.378 Y116.342 E20.77818
G1 X132.114 Y116.727 E20.78647
G1 X131.789 Y117.062 E20.79477
G1 X131.411 Y117.337 E20.80308
G1 X130.993 Y117.543 E20.81136
G1 X130.545 Y117.675 E20.81967
G1 X130 Y117.73 E20.8294
G1 X103 Y117.73 E21.30935
G1 X102.535 Y117.69 E21.31765
G1 X102.083 Y117.571 E21.32596
G1 X101.658 Y117.378 E21.33426
G1 X101.273 Y117.114 E21.34255
G1 X100.938 Y116.789 E21.35085
G1 X100.663 Y116.411 E21.35916
G1 X100.457 Y115.993 E21.36744
G1 X100.325 Y115.545 E21.37575
G1 X100.27 Y115 E21.38548
G1 X100.271 Y103.975 E21.58146
G1 X100.285 Y103.702 E21.58632
G1 X100.361 Y102.945 E21.59985
G1 X100.464 Y102.428 E21.60922
G1 X100.69 Y101.68 E21.62311
G1 X100.897 Y101.18 E21.63273
G1 X101.269 Y100.486 E21.64672
G1 X101.567 Y100.042 E21.65623
G1 X102.063 Y99.439 E21.67011
G1 X102.436 Y99.065 E21.6795
M204 S625
M205 X6 Y6
G0 F3750 X102.703 Y99.39
M204 S500
M205 X5 Y5
G1 F1200 X103.308 Y98.892 E21.69343
G1 X103.685 Y98.639 E21.7015
G1 X104.379 Y98.267 E21.7155
G1 X104.803 Y98.091 E21.72366
G1 X105.552 Y97.865 E21.73756
G1 X105.993 Y97.778 E21.74555
G1 X106.775 Y97.701 E21.75952
G1 X107.001 Y97.69 E21.76354
G1 X126.025 Y97.691 E22.10171
G1 X126.256 Y97.703 E22.10583
G1 X127.012 Y97.779 E22.11933
G1 X127.448 Y97.865 E22.12723
G1 X128.197 Y98.091 E22.14114
G1 X128.621 Y98.267 E22.1493
G1 X129.315 Y98.639 E22.1633
G1 X129.691 Y98.891 E22.17134
G1 X130.294 Y99.387 E22.18522
G1 X130.61 Y99.703 E22.19317
G1 X131.108 Y100.308 E22.20709
G1 X131.361 Y100.685 E22.21517
G1 X131.733 Y101.379 E22.22916
G1 X131.908 Y101.802 E22.2373
G1 X132.134 Y102.55 E22.25119
G1 X132.222 Y102.991 E22.25918
G1 X132.299 Y103.772 E22.27313
G1 X132.31 Y103.999 E22.27717
G1 X132.31 Y115 E22.47273
G1 X132.27 Y115.428 E22.48037
G1 X132.152 Y115.84 E22.48799
G1 X131.959 Y116.224 E22.49563
G1 X131.699 Y116.566 E22.50326
G1 X131.379 Y116.853 E22.5109
G1 X131.013 Y117.076 E22.51852
G1 X130.611 Y117.228 E22.52616
G1 X130 Y117.31 E22.53712
G1 X103 Y117.31 E23.01707
G1 X102.572 Y117.27 E23.02471
G1 X102.16 Y117.152 E23.03233
G1 X101.776 Y116.959 E23.03997
G1 X101.434 Y116.699 E23.04761
G1 X101.147 Y116.379 E23.05525
G1 X100.924 Y116.013 E23.06287
G1 X100.772 Y115.611 E23.07051
G1 X100.69 Y115 E23.08147
G1 X100.691 Y103.975 E23.27745
G1 X100.703 Y103.744 E23.28156
G1 X100.779 Y102.987 E23.29508
G1 X100.866 Y102.55 E23.303
G1 X101.092 Y101.802 E23.31689
G1 X101.267 Y101.379 E23.32503
G1 X101.639 Y100.685 E23.33903
G1 X101.891 Y100.309 E23.34707
G1 X102.387 Y99.706 E23.36095
G1 X102.703 Y99.39 E23.3689
M204 S625
M205 X6 Y6
G0 F3750 X102.97 Y99.714
M204 S500
M205 X5 Y5
G1 F1200 X103.575 Y99.216 E23.38282
G1 X103.883 Y99.009 E23.38942
G1 X104.577 Y98.637 E23.40342
G1 X104.924 Y98.494 E23.41009
G1 X105.673 Y98.268 E23.424
G1 X106.034 Y98.196 E23.43054
G1 X106.816 Y98.119 E23.44451
G1 X107.001 Y98.11 E23.4478
G1 X126.025 Y98.111 E23.78597
G1 X126.214 Y98.12 E23.78933
G1 X126.97 Y98.196 E23.80284
G1 X127.327 Y98.268 E23.80931
G1 X128.076 Y98.494 E23.82322
G1 X128.423 Y98.637 E23.82989
G1 X129.117 Y99.009 E23.84389
G1 X129.425 Y99.215 E23.85048
G1 X130.028 Y99.711 E23.86436
G1 X130.286 Y99.97 E23.87085
G1 X130.784 Y100.575 E23.88478
G1 X130.991 Y100.883 E23.89138
G1 X131.363 Y101.577 E23.90538
G1 X131.506 Y101.923 E23.91203
G1 X131.732 Y102.671 E23.92592
G1 X131.804 Y103.033 E23.93248
G1 X131.881 Y103.814 E23.94643
G1 X131.89 Y103.999 E23.94973
G1 X131.89 Y115 E24.14528
G1 X131.85 Y115.386 E24.15218
G1 X131.732 Y115.756 E24.15908
G1 X131.541 Y116.094 E24.16598
G1 X131.285 Y116.386 E24.17289
G1 X130.974 Y116.619 E24.17979
G1 X130.623 Y116.784 E24.18669
G1 X130.245 Y116.874 E24.1936
G1 X130 Y116.89 E24.19796
G1 X103 Y116.89 E24.67791
G1 X102.614 Y116.85 E24.68481
G1 X102.244 Y116.732 E24.69171
G1 X101.906 Y116.541 E24.69861
G1 X101.614 Y116.285 E24.70552
G1 X101.381 Y115.974 E24.71242
G1 X101.216 Y115.623 E24.71932
G1 X101.126 Y115.245 E24.72623
G1 X101.11 Y115 E24.73059
G1 X101.111 Y103.975 E24.92657
G1 X101.12 Y103.786 E24.92993
G1 X101.196 Y103.029 E24.94346
G1 X101.268 Y102.671 E24.94995
G1 X101.494 Y101.923 E24.96384
G1 X101.637 Y101.577 E24.97049
G1 X102.009 Y100.883 E24.98449
G1 X102.215 Y100.575 E24.99108
G1 X102.711 Y99.972 E25.00496
G1 X102.97 Y99.714 E25.01146
M204 S625
M205 X6 Y6
G0 F3750 X103.237 Y100.038
M204 S500
M205 X5 Y5
G1 F1200 X103.842 Y99.54 E25.02539
G1 X104.082 Y99.379 E25.03052
G1 X104.776 Y99.007 E25.04452
G1 X105.045 Y98.896 E25.04969
G1 X105.794 Y98.67 E25.0636
G1 X106.075 Y98.614 E25.06869
G1 X106.857 Y98.537 E25.08266
G1 X107.001 Y98.53 E25.08522
G1 X126.025 Y98.531 E25.42339
G1 X126.172 Y98.538 E25.42601
G1 X126.928 Y98.614 E25.43952
G1 X127.206 Y98.67 E25.44456
G1 X127.955 Y98.896 E25.45846
G1 X128.224 Y99.007 E25.46364
G1 X128.918 Y99.379 E25.47763
G1 X129.158 Y99.54 E25.48277
G1 X129.761 Y100.036 E25.49665
G1 X129.962 Y100.237 E25.5017
G1 X130.46 Y100.842 E25.51563
G1 X130.621 Y101.082 E25.52077
G1 X130.993 Y101.776 E25.53477
G1 X131.104 Y102.045 E25.53994
G1 X131.33 Y102.793 E25.55383
G1 X131.386 Y103.074 E25.55892
G1 X131.463 Y103.855 E25.57287
G1 X131.47 Y103.999 E25.57544
G1 X131.47 Y115 E25.77099
G1 X131.43 Y115.34 E25.77708
G1 X131.313 Y115.662 E25.78317
G1 X131.124 Y115.947 E25.78924
G1 X130.874 Y116.182 E25.79534
G1 X130.577 Y116.352 E25.80143
G1 X130.249 Y116.449 E25.80751
G1 X130 Y116.47 E25.81195
G1 X103 Y116.47 E26.2919
G1 X102.66 Y116.43 E26.29799
G1 X102.338 Y116.313 E26.30408
G1 X102.053 Y116.124 E26.31015
G1 X101.818 Y115.874 E26.31625
G1 X101.648 Y115.577 E26.32234
G1 X101.551 Y115.249 E26.32842
G1 X101.53 Y115 E26.33286
G1 X101.531 Y103.975 E26.52884
G1 X101.538 Y103.828 E26.53146
G1 X101.614 Y103.071 E26.54498
G1 X101.67 Y102.793 E26.55002
G1 X101.896 Y102.045 E26.56391
G1 X102.007 Y101.776 E26.56908
G1 X102.379 Y101.082 E26.58308
G1 X102.54 Y100.842 E26.58822
G1 X103.036 Y100.239 E26.6021
G1 X103.237 Y100.038 E26.60715
M204 S625
M205 X6 Y6
G0 F3750 X103.504 Y100.362
M204 S500
M205 X5 Y5
G1 F1200 X104.109 Y99.864 E26.62108
G1 X104.28 Y99.75 E26.62473
G1 X104.974 Y99.378 E26.63873
G1 X105.167 Y99.298 E26.64244
G1 X105.916 Y99.072 E26.65635
G1 X106.116 Y99.032 E26.65998
G1 X106.898 Y98.955 E26.67394
G1 X107.001 Y98.95 E26.67578
G1 X126.025 Y98.951 E27.01395
G1 X126.13 Y98.956 E27.01582
G1 X126.886 Y99.032 E27.02932
G1 X127.084 Y99.072 E27.03291
G1 X127.833 Y99.298 E27.04682
G1 X128.026 Y99.378 E27.05053
G1 X128.72 Y99.75 E27.06453
G1 X128.891 Y99.864 E27.06818
G1 X129.494 Y100.36 E27.08206
G1 X129.638 Y100.504 E27.08568
G1 X130.136 Y101.109 E27.09961
G1 X130.25 Y101.28 E27.10327
G1 X130.622 Y101.974 E27.11726
G1 X130.702 Y102.166 E27.12096
G1 X130.928 Y102.914 E27.13485
G1 X130.968 Y103.115 E27.13849
G1 X131.045 Y103.896 E27.15244
G1 X131.05 Y103.999 E27.15428
G1 X131.05 Y115 E27.34983
G1 X131.01 Y115.286 E27.35496
G1 X130.894 Y115.551 E27.36011
G1 X130.71 Y115.774 E27.36524
G1 X130.472 Y115.938 E27.37038
G1 X130.198 Y116.031 E27.37553
G1 X130 Y116.05 E27.37906
G1 X103 Y116.05 E27.85901
G1 X102.714 Y116.01 E27.86415
G1 X102.449 Y115.894 E27.86929
G1 X102.226 Y115.71 E27.87443
G1 X102.062 Y115.472 E27.87957
G1 X101.969 Y115.198 E27.88471
G1 X101.95 Y115 E27.88825
G1 X101.951 Y103.975 E28.08423
G1 X101.956 Y103.87 E28.08609
G1 X102.032 Y103.113 E28.09962
G1 X102.072 Y102.914 E28.10323
G1 X102.298 Y102.166 E28.11712
G1 X102.378 Y101.974 E28.12081
G1 X102.75 Y101.28 E28.13481
G1 X102.864 Y101.109 E28.13846
G1 X103.36 Y100.506 E28.15234
G1 X103.504 Y100.362 E28.15596
M204 S625
M205 X6 Y6
G0 F3750 X103.771 Y100.687
M204 S500
M205 X5 Y5
G1 F1200 X104.376 Y100.189 E28.16989
G1 X104.478 Y100.12 E28.17208
G1 X105.172 Y99.748 E28.18608
G1 X105.288 Y99.7 E28.18831
G1 X106.037 Y99.474 E28.20222
G1 X106.157 Y99.45 E28.20439
G1 X106.939 Y99.373 E28.21836
G1 X107.001 Y99.37 E28.21946
G1 X126.025 Y99.371 E28.55763
G1 X126.088 Y99.374 E28.55876
G1 X126.844 Y99.45 E28.57226
G1 X126.963 Y99.474 E28.57442
G1 X127.712 Y99.7 E28.58833
G1 X127.828 Y99.748 E28.59056
G1 X128.522 Y100.12 E28.60456
G1 X128.624 Y100.188 E28.60673
G1 X129.227 Y100.684 E28.62061
G1 X129.313 Y100.771 E28.62279
G1 X129.811 Y101.376 E28.63672
G1 X129.88 Y101.478 E28.63891
G1 X130.252 Y102.172 E28.6529
G1 X130.3 Y102.288 E28.65514
G1 X130.526 Y103.036 E28.66903
G1 X130.55 Y103.156 E28.6712
G1 X130.627 Y103.937 E28.68515
G1 X130.63 Y103.999 E28.68625
G1 X130.63 Y115 E28.88181
G1 X130.59 Y115.22 E28.88578
G1 X130.476 Y115.412 E28.88975
G1 X130.302 Y115.553 E28.89373
G1 X130 Y115.63 E28.89927
G1 X103 Y115.63 E29.37922
G1 X102.78 Y115.59 E29.3832
G1 X102.588 Y115.476 E29.38717
G1 X102.447 Y115.302 E29.39115
G1 X102.37 Y115 E29.39669
G1 X102.371 Y103.975 E29.59267
G1 X102.374 Y103.912 E29.59379
G1 X102.45 Y103.155 E29.60732
G1 X102.474 Y103.036 E29.60947
G1 X102.7 Y102.288 E29.62336
G1 X102.748 Y102.172 E29.62559
G1 X103.12 Y101.478 E29.63959
G1 X103.188 Y101.376 E29.64177
G1 X103.684 Y100.773 E29.65565
G1 X103.771 Y100.687 E29.65782
M204 S625
M205 X6 Y6
G0 F3750 X104.038 Y101.011
M204 S500
M205 X5 Y5
G1 F1200 X104.643 Y100.513 E29.67175
G1 X104.677 Y100.49 E29.67248
G1 X105.371 Y100.118 E29.68648
G1 X105.409 Y100.102 E29.68721
G1 X106.158 Y99.876 E29.70112
G1 X106.198 Y99.868 E29.70185
G1 X106.98 Y99.791 E29.71581
G1 X107.001 Y99.79 E29.71619
G1 X126.046 Y99.792 E30.05473
G1 X126.802 Y99.868 E30.06824
G1 X126.842 Y99.876 E30.06896
G1 X127.591 Y100.102 E30.08287
G1 X127.629 Y100.118 E30.0836
G1 X128.323 Y100.49 E30.0976
G1 X128.357 Y100.513 E30.09833
G1 X128.96 Y101.009 E30.11221
G1 X128.989 Y101.038 E30.11294
G1 X129.487 Y101.643 E30.12687
G1 X129.51 Y101.677 E30.1276
G1 X129.882 Y102.371 E30.14159
G1 X129.898 Y102.409 E30.14233
G1 X130.124 Y103.157 E30.15622
G1 X130.132 Y103.197 E30.15694
G1 X130.209 Y103.978 E30.17089
G1 X130.21 Y115 E30.36682
G1 X130.171 Y115.122 E30.3691
G1 X130 Y115.21 E30.37251
G1 X103 Y115.21 E30.85247
G1 X102.878 Y115.171 E30.85474
G1 X102.79 Y115 E30.85816
G1 X102.792 Y103.954 E31.05451
G1 X102.868 Y103.197 E31.06804
G1 X102.876 Y103.157 E31.06876
G1 X103.102 Y102.409 E31.08265
G1 X103.118 Y102.371 E31.08339
G1 X103.49 Y101.677 E31.09738
G1 X103.513 Y101.643 E31.09811
G1 X104.009 Y101.04 E31.11199
G1 X104.038 Y101.011 E31.11272
M204 S625
M205 X6 Y6
G1 F1500 E24.61272
;MESH:OLED holder.stl
G0 F3750 X105.708 Y100.878
G0 X125.991 Y100.7
G0 X126.015 Y100.211
M204 S500
M205 X5 Y5
;TYPE:WALL-OUTER
G1 F1500 E31.11272
G1 F1200 X126.739 Y100.284 E31.12566
G1 X127.451 Y100.499 E31.13888
G1 X128.106 Y100.85 E31.15209
G1 X128.679 Y101.321 E31.16527
G1 X129.15 Y101.894 E31.17846
G1 X129.501 Y102.549 E31.19167
G1 X129.716 Y103.261 E31.20489
G1 X129.79 Y104.011 E31.21828
G1 X129.79 Y114.79 E31.40989
G1 X103.42 Y114.79 E31.87864
G1 X103.21 Y114.79 E31.88238
G1 X103.21 Y114.58 E31.88479
G1 X103.211 Y103.985 E32.07313
G1 X103.284 Y103.261 E32.08607
G1 X103.499 Y102.549 E32.09929
G1 X103.85 Y101.894 E32.1125
G1 X104.321 Y101.321 E32.12568
G1 X104.894 Y100.85 E32.13887
G1 X105.549 Y100.499 E32.15208
G1 X106.261 Y100.284 E32.1653
G1 X107.011 Y100.21 E32.17869
G1 X126.015 Y100.211 E32.51651
M204 S625
M205 X6 Y6
G0 F3750 X126.214 Y100.231
G0 X126.167 Y100.691
G0 X126.164 Y100.717
G0 X106.937 Y101.262
G0 X105.574 Y101.655
G0 X104.993 Y102.126
G0 X104.562 Y102.738
G0 X104.311 Y103.442
G0 X104.342 Y104.872
G0 X104.821 Y104.774
M204 S500
M205 X5 Y5
G1 F1200 X105.111 Y105.333 E32.5277
G1 X105.541 Y105.793 E32.5389
G1 X106.079 Y106.12 E32.55009
G1 X106.678 Y106.288 E32.56115
G1 X106.993 Y106.31 E32.56676
G1 X126.034 Y106.309 E32.90523
G1 X126.625 Y106.226 E32.91584
G1 X127.201 Y105.975 E32.92701
G1 X127.69 Y105.578 E32.93821
G1 X128.053 Y105.063 E32.94941
G1 X128.264 Y104.47 E32.9606
G1 X128.306 Y103.843 E32.97177
G1 X128.179 Y103.226 E32.98296
G1 X127.889 Y102.667 E32.99416
G1 X127.459 Y102.207 E33.00535
G1 X126.921 Y101.88 E33.01654
G1 X126.322 Y101.712 E33.0276
G1 X126.007 Y101.69 E33.03321
G1 X106.966 Y101.691 E33.37169
G1 X106.375 Y101.774 E33.3823
G1 X105.799 Y102.025 E33.39346
G1 X105.31 Y102.422 E33.40466
G1 X104.947 Y102.937 E33.41586
G1 X104.736 Y103.53 E33.42705
G1 X104.694 Y104.157 E33.43822
G1 X104.821 Y104.774 E33.44942
M204 S625
M205 X6 Y6
G0 F3750 X104.913 Y104.951
G0 X104.45 Y104.906
M204 S500
M205 X5 Y5
;TYPE:WALL-INNER
G1 F1200 X104.789 Y105.56 E33.46064
G1 X105.293 Y106.098 E33.47187
G1 X105.922 Y106.481 E33.48309
G1 X106.611 Y106.674 E33.494
G1 X106.979 Y106.7 E33.49962
G1 X126.061 Y106.699 E33.79036
G1 X126.732 Y106.605 E33.80068
G1 X127.406 Y106.311 E33.81189
G1 X127.978 Y105.847 E33.82311
G1 X128.403 Y105.244 E33.83435
G1 X128.65 Y104.55 E33.84558
G1 X128.699 Y103.816 E33.85678
G1 X128.55 Y103.094 E33.86802
G1 X128.211 Y102.44 E33.87924
G1 X127.707 Y101.902 E33.89047
G1 X127.078 Y101.519 E33.90169
G1 X126.389 Y101.326 E33.9126
G1 X126.021 Y101.3 E33.91822
G1 X106.939 Y101.301 E34.20896
G1 X106.268 Y101.395 E34.21928
G1 X105.594 Y101.689 E34.23049
G1 X105.022 Y102.153 E34.24171
G1 X104.597 Y102.756 E34.25295
G1 X104.35 Y103.45 E34.26417
G1 X104.301 Y104.184 E34.27538
G1 X104.45 Y104.906 E34.28662
M204 S625
M205 X6 Y6
G0 F3750 X104.356 Y104.939
G0 X104.262 Y104.186
G0 X104.311 Y103.442
G0 X104.562 Y102.738
G0 X104.993 Y102.126
G0 X105.574 Y101.655
G0 X106.258 Y101.357
G0 X125.991 Y100.7
G0 X125.996 Y100.601
M204 S500
M205 X5 Y5
G1 F1200 X126.663 Y100.668 E34.29683
G1 X127.299 Y100.86 E34.30695
G1 X127.888 Y101.176 E34.31714
G1 X128.402 Y101.598 E34.32727
G1 X128.824 Y102.112 E34.3374
G1 X129.14 Y102.701 E34.34759
G1 X129.332 Y103.337 E34.35771
G1 X129.4 Y104.024 E34.36823
G1 X129.4 Y114.4 E34.52632
G1 X103.779 Y114.4 E34.9167
G1 X103.6 Y114.4 E34.91942
G1 X103.6 Y114.221 E34.92119
G1 X103.601 Y104.004 E35.07686
G1 X103.668 Y103.337 E35.08707
G1 X103.86 Y102.701 E35.0972
G1 X104.176 Y102.112 E35.10738
G1 X104.598 Y101.598 E35.11751
G1 X105.112 Y101.176 E35.12765
G1 X105.701 Y100.86 E35.13783
G1 X106.337 Y100.668 E35.14795
G1 X107.029 Y100.6 E35.15855
G1 X125.996 Y100.601 E35.44754
M204 S625
M205 X6 Y6
G0 F3750 X125.991 Y100.7
G0 X127.732 Y101.871
G0 X128.243 Y102.417
G0 X129.04 Y104.109
M204 S500
M205 X5 Y5
G1 F1200 X129.04 Y104.624 E35.45539
G1 X129.04 Y105.411 E35.46738
G1 X129.04 Y105.481 E35.46844
G1 X129.04 Y114.04 E35.59885
G1 X103.96 Y114.04 E35.98099
G1 X103.96 Y105.461 E36.1117
G1 X103.96 Y105.027 E36.11831
G1 X103.961 Y104.316 E36.12915
G1 X104.107 Y105.027 E36.13154
G1 X104.306 Y105.412 E36.13625
G1 X104.492 Y105.77 E36.14239
G1 X105.064 Y106.38 E36.15513
G1 X105.777 Y106.814 E36.16785
G1 X106.549 Y107.031 E36.18007
G1 X106.966 Y107.06 E36.18644
G1 X126.086 Y107.059 E36.47776
G1 X126.831 Y106.955 E36.48922
G1 X127.595 Y106.621 E36.50193
G1 X128.244 Y106.095 E36.51466
G1 X128.686 Y105.468 E36.52634
G1 X128.726 Y105.411 E36.52734
G1 X129.006 Y104.624 E36.53379
G1 X129.04 Y104.109 E36.53418
M204 S625
M205 X6 Y6
G0 F3750 X128.66 Y106.164
M204 S500
M205 X5 Y5
;TYPE:SKIN
G1 F1200 X128.66 Y113.66 E36.66743
G1 X104.34 Y113.66 E37.09974
G1 X104.341 Y106.165 E37.23297
G1 X104.822 Y106.678 E37.24547
G1 X105.625 Y107.166 E37.26218
G1 X106.484 Y107.407 E37.27803
G1 X106.953 Y107.44 E37.28639
G1 X126.113 Y107.439 E37.62698
G1 X126.935 Y107.324 E37.64173
G1 X127.794 Y106.948 E37.6584
G1 X128.524 Y106.357 E37.6751
G1 X128.66 Y106.164 E37.6793
M204 S625
M205 X6 Y6
G0 F3750 X128.204 Y106.821
M204 S500
M205 X5 Y5
G1 F1200 X128.498 Y107.115 E37.68669
M204 S625
M205 X6 Y6
G0 F3750 X128.498 Y107.709
M204 S500
M205 X5 Y5
G1 F1200 X127.876 Y107.087 E37.70232
M204 S625
M205 X6 Y6
G0 F3750 X127.463 Y107.268
M204 S500
M205 X5 Y5
G1 F1200 X128.498 Y108.303 E37.72834
M204 S625
M205 X6 Y6
G0 F3750 X128.498 Y108.897
M204 S500
M205 X5 Y5
G1 F1200 X127.05 Y107.449 E37.76474
M204 S625
M205 X6 Y6
G0 F3750 X126.547 Y107.54
M204 S500
M205 X5 Y5
G1 F1200 X128.498 Y109.491 E37.81379
M204 S625
M205 X6 Y6
G0 F3750 X128.498 Y110.085
M204 S500
M205 X5 Y5
G1 F1200 X126.013 Y107.6 E37.87626
M204 S625
M205 X6 Y6
G0 F3750 X125.419 Y107.6
M204 S500
M205 X5 Y5
G1 F1200 X128.498 Y110.679 E37.95366
M204 S625
M205 X6 Y6
G0 F3750 X128.498 Y111.273
M204 S500
M205 X5 Y5
G1 F1200 X124.825 Y107.6 E38.046
M204 S625
M205 X6 Y6
G0 F3750 X124.231 Y107.6
M204 S500
M205 X5 Y5
G1 F1200 X128.498 Y111.867 E38.15327
M204 S625
M205 X6 Y6
G0 F3750 X128.498 Y112.461
M204 S500
M205 X5 Y5
G1 F1200 X123.637 Y107.6 E38.27547
M204 S625
M205 X6 Y6
G0 F3750 X123.043 Y107.6
M204 S500
M205 X5 Y5
G1 F1200 X128.498 Y113.055 E38.4126
M204 S625
M205 X6 Y6
G0 F3750 X128.347 Y113.498
M204 S500
M205 X5 Y5
G1 F1200 X122.449 Y107.6 E38.56087
M204 S625
M205 X6 Y6
G0 F3750 X121.855 Y107.6
M204 S500
M205 X5 Y5
G1 F1200 X127.753 Y113.498 E38.70914
M204 S625
M205 X6 Y6
G0 F3750 X127.159 Y113.498
M204 S500
M205 X5 Y5
G1 F1200 X121.261 Y107.6 E38.85741
M204 S625
M205 X6 Y6
G0 F3750 X120.667 Y107.6
M204 S500
M205 X5 Y5
G1 F1200 X126.565 Y113.498 E39.00568
M204 S625
M205 X6 Y6
G0 F3750 X125.971 Y113.498
M204 S500
M205 X5 Y5
G1 F1200 X120.073 Y107.6 E39.15395
M204 S625
M205 X6 Y6
G0 F3750 X119.479 Y107.6
M204 S500
M205 X5 Y5
G1 F1200 X125.377 Y113.498 E39.30222
M204 S625
M205 X6 Y6
G0 F3750 X124.783 Y113.498
M204 S500
M205 X5 Y5
G1 F1200 X118.885 Y107.6 E39.45049
M204 S625
M205 X6 Y6
G0 F3750 X118.291 Y107.6
M204 S500
M205 X5 Y5
G1 F1200 X124.189 Y113.498 E39.59876
M204 S625
M205 X6 Y6
G0 F3750 X123.595 Y113.498
M204 S500
M205 X5 Y5
G1 F1200 X117.697 Y107.6 E39.74703
M204 S625
M205 X6 Y6
G0 F3750 X117.103 Y107.6
M204 S500
M205 X5 Y5
G1 F1200 X123.001 Y113.498 E39.8953
M204 S625
M205 X6 Y6
G0 F3750 X122.407 Y113.498
M204 S500
M205 X5 Y5
G1 F1200 X116.509 Y107.6 E40.04357
M204 S625
M205 X6 Y6
G0 F3750 X115.916 Y107.6
M204 S500
M205 X5 Y5
G1 F1200 X121.813 Y113.498 E40.19183
M204 S625
M205 X6 Y6
G0 F3750 X121.22 Y113.498
M204 S500
M205 X5 Y5
G1 F1200 X115.322 Y107.6 E40.3401
M204 S625
M205 X6 Y6
G0 F3750 X114.728 Y107.6
M204 S500
M205 X5 Y5
G1 F1200 X120.626 Y113.498 E40.48837
M204 S625
M205 X6 Y6
G0 F3750 X120.032 Y113.498
M204 S500
M205 X5 Y5
G1 F1200 X114.134 Y107.6 E40.63664
M204 S625
M205 X6 Y6
G0 F3750 X113.54 Y107.6
M204 S500
M205 X5 Y5
G1 F1200 X119.438 Y113.498 E40.78491
M204 S625
M205 X6 Y6
G0 F3750 X118.844 Y113.498
M204 S500
M205 X5 Y5
G1 F1200 X112.946 Y107.6 E40.93318
M204 S625
M205 X6 Y6
G0 F3750 X112.352 Y107.6
M204 S500
M205 X5 Y5
G1 F1200 X118.25 Y113.498 E41.08145
M204 S625
M205 X6 Y6
G0 F3750 X117.656 Y113.498
M204 S500
M205 X5 Y5
G1 F1200 X111.758 Y107.6 E41.22972
M204 S625
M205 X6 Y6
G0 F3750 X111.164 Y107.6
M204 S500
M205 X5 Y5
G1 F1200 X117.062 Y113.498 E41.37799
M204 S625
M205 X6 Y6
G0 F3750 X116.468 Y113.498
M204 S500
M205 X5 Y5
G1 F1200 X110.57 Y107.6 E41.52626
M204 S625
M205 X6 Y6
G0 F3750 X109.976 Y107.6
M204 S500
M205 X5 Y5
G1 F1200 X115.874 Y113.498 E41.67453
M204 S625
M205 X6 Y6
G0 F3750 X115.28 Y113.498
M204 S500
M205 X5 Y5
G1 F1200 X109.382 Y107.6 E41.8228
M204 S625
M205 X6 Y6
G0 F3750 X108.788 Y107.6
M204 S500
M205 X5 Y5
G1 F1200 X114.686 Y113.498 E41.97107
M204 S625
M205 X6 Y6
G0 F3750 X114.092 Y113.498
M204 S500
M205 X5 Y5
G1 F1200 X108.194 Y107.6 E42.11934
M204 S625
M205 X6 Y6
G0 F3750 X107.6 Y107.6
M204 S500
M205 X5 Y5
G1 F1200 X113.498 Y113.498 E42.26761
M204 S625
M205 X6 Y6
G0 F3750 X112.904 Y113.498
M204 S500
M205 X5 Y5
G1 F1200 X107.006 Y107.6 E42.41588
M204 S625
M205 X6 Y6
G0 F3750 X106.347 Y107.535
M204 S500
M205 X5 Y5
G1 F1200 X112.31 Y113.498 E42.56578
M204 S625
M205 X6 Y6
G0 F3750 X111.716 Y113.498
M204 S500
M205 X5 Y5
G1 F1200 X105.489 Y107.271 E42.72232
M204 S625
M205 X6 Y6
G0 F3750 X104.501 Y107.471
M204 S500
M205 X5 Y5
G1 F1200 X110.528 Y113.498 E42.87384
M204 S625
M205 X6 Y6
G0 F3750 X109.934 Y113.498
M204 S500
M205 X5 Y5
G1 F1200 X104.501 Y108.065 E43.01042
M204 S625
M205 X6 Y6
G0 F3750 X104.501 Y108.658
M204 S500
M205 X5 Y5
G1 F1200 X109.34 Y113.498 E43.13208
M204 S625
M205 X6 Y6
G0 F3750 X108.746 Y113.498
M204 S500
M205 X5 Y5
G1 F1200 X104.501 Y109.252 E43.2388
M204 S625
M205 X6 Y6
G0 F3750 X104.501 Y109.846
M204 S500
M205 X5 Y5
G1 F1200 X108.152 Y113.498 E43.3306
M204 S625
M205 X6 Y6
G0 F3750 X107.558 Y113.498
M204 S500
M205 X5 Y5
G1 F1200 X104.501 Y110.44 E43.40746
M204 S625
M205 X6 Y6
G0 F3750 X104.501 Y111.034
M204 S500
M205 X5 Y5
G1 F1200 X106.964 Y113.498 E43.46939
M204 S625
M205 X6 Y6
G0 F3750 X106.37 Y113.498
M204 S500
M205 X5 Y5
G1 F1200 X104.501 Y111.628 E43.51639
M204 S625
M205 X6 Y6
G0 F3750 X104.501 Y112.222
M204 S500
M205 X5 Y5
G1 F1200 X105.776 Y113.498 E43.54845
M204 S625
M205 X6 Y6
G0 F3750 X105.182 Y113.498
M204 S500
M205 X5 Y5
G1 F1200 X104.501 Y112.816 E43.56559
M204 S625
M205 X6 Y6
G0 F3750 X104.501 Y113.41
M204 S500
M205 X5 Y5
G1 F1200 X104.588 Y113.498 E43.56779
M204 S625
M205 X6 Y6
G0 F3750 X111.122 Y113.498
M204 S500
M205 X5 Y5
G1 F1200 X104.501 Y106.877 E43.73423
M204 S625
M205 X6 Y6
G0 F3750 X104.156 Y104.156
G0 X103.963 Y103.963
M104 S200
M204 S500
M205 X5 Y5
;TYPE:SKIN
G1 F1200 X103.982 Y103.734 E43.73826
G1 X104.158 Y102.921 E43.75285
G1 X104.608 Y102.133 E43.76876
G1 X105.238 Y101.525 E43.78412
G1 X106.055 Y101.106 E43.80022
G1 X106.905 Y100.965 E43.81533
G1 X110.354 Y100.95 E43.87581
G1 X125.698 Y100.95 E44.1449
G1 X126.519 Y101.028 E44.15936
G1 X126.828 Y101.09 E44.16489
G1 X127.3 Y101.314 E44.17405
M204 S625
M205 X6 Y6
G0 F3750 X127.748 Y101.267
M204 S500
M205 X5 Y5
G1 F1200 X128.732 Y102.251 E44.18436
M204 S625
M205 X6 Y6
G0 F3750 X128.641 Y102.655
M204 S500
M205 X5 Y5
G1 F1200 X128.89 Y103.152 E44.19728
G1 X129.009 Y103.765 E44.21179
G1 X128.906 Y103.91 E44.21593
M204 S625
M205 X6 Y6
G0 F3750 X128.971 Y103.975
G0 X129.01 Y102.776
M204 S500
M205 X5 Y5
G1 F1200 X127.224 Y100.99 E44.23464
M204 S625
M205 X6 Y6
G0 F3750 X106.937 Y101.262
G0 X105.574 Y101.655
G0 X104.993 Y102.126
G0 X103.937 Y104.185
M204 S500
M205 X5 Y5
G1 F1200 X103.748 Y103.995 E44.23662
M204 S625
M205 X6 Y6
G0 F3750 X103.952 Y104.016
;MESH:NONMESH
G0 F600 X103.952 Y104.016 Z0.42
G0 F3750 X104.562 Y102.738
G0 X104.993 Y102.126
G0 X105.574 Y101.655
G0 X106.258 Y101.357
G0 X126.423 Y101.128
;TIME_ELAPSED:139.448534
;LAYER:1
M106 S85
M204 S750
M205 X7.5 Y7.5
;TYPE:WALL-INNER
;MESH:OLED holder.stl
G1 F1800 X126.029 Y101.1 E44.23941
G1 X106.945 Y101.1 E44.37402
G1 X106.214 Y101.2 E44.37923
G1 X106.006 Y101.29 E44.38083
G1 X105.731 Y101.411 E44.38295
G1 X105.49 Y101.516 E44.3848
G1 X104.929 Y101.971 E44.3899
G1 X104.875 Y102.015 E44.39039
G1 X104.71 Y102.249 E44.39241
G1 X104.539 Y102.491 E44.3945
G1 X104.418 Y102.663 E44.39598
G1 X104.153 Y103.409 E44.40157
G1 X104.132 Y103.729 E44.40383
G1 X104.1 Y104.198 E44.40714
G1 X104.261 Y104.973 E44.41273
G1 X104.625 Y105.677 E44.41832
G1 X105.166 Y106.256 E44.42391
G1 X105.841 Y106.667 E44.42948
G1 X106.577 Y106.872 E44.43487
G1 X106.971 Y106.9 E44.43766
G1 X126.055 Y106.9 E44.57228
G1 X126.786 Y106.8 E44.57748
G1 X127.51 Y106.484 E44.58305
G1 X128.125 Y105.985 E44.58864
G1 X128.582 Y105.337 E44.59423
G1 X128.847 Y104.591 E44.59982
G1 X128.891 Y103.945 E44.60438
G1 X128.9 Y103.802 E44.60539
G1 X128.739 Y103.027 E44.61098
G1 X128.395 Y102.36 E44.61627
G1 X128.375 Y102.323 E44.61657
G1 X128.185 Y102.12 E44.61853
G1 X127.968 Y101.888 E44.62077
G1 X127.834 Y101.744 E44.62216
G1 X127.159 Y101.333 E44.62773
G1 X127.149 Y101.331 E44.6278
G1 X126.423 Y101.128 E44.63312
M204 S2812
M205 X18 Y18
G0 F9375 X126.372 Y101.425
M204 S750
M205 X7.5 Y7.5
G1 F1800 X126.018 Y101.4 E44.63563
G1 X106.966 Y101.4 E44.77002
G1 X106.296 Y101.492 E44.77479
G1 X105.647 Y101.775 E44.77978
G1 X105.096 Y102.222 E44.78479
G1 X104.687 Y102.802 E44.78979
G1 X104.45 Y103.47 E44.79479
G1 X104.402 Y104.177 E44.79979
G1 X104.546 Y104.872 E44.8048
G1 X104.872 Y105.502 E44.8098
G1 X105.357 Y106.021 E44.81481
G1 X105.962 Y106.389 E44.81981
G1 X106.628 Y106.575 E44.82469
G1 X106.982 Y106.6 E44.82719
G1 X126.034 Y106.6 E44.96158
G1 X126.704 Y106.508 E44.96635
G1 X127.353 Y106.225 E44.97135
G1 X127.904 Y105.778 E44.97635
G1 X128.313 Y105.198 E44.98136
G1 X128.55 Y104.53 E44.98636
G1 X128.598 Y103.823 E44.99136
G1 X128.454 Y103.128 E44.99636
G1 X128.128 Y102.498 E45.00137
G1 X127.643 Y101.979 E45.00638
G1 X127.038 Y101.611 E45.01137
G1 X126.372 Y101.425 E45.01625
M204 S2812
M205 X18 Y18
G0 F9375 X126.316 Y101.747
M204 S500
M205 X5 Y5
;TYPE:WALL-OUTER
G1 F1500 X126.006 Y101.725 E45.01881
G1 X106.988 Y101.725 E45.17532
G1 X106.385 Y101.808 E45.18033
G1 X105.817 Y102.055 E45.18542
G1 X105.336 Y102.446 E45.19053
G1 X104.978 Y102.953 E45.19563
G1 X104.771 Y103.537 E45.20073
G1 X104.729 Y104.155 E45.20583
G1 X104.855 Y104.762 E45.21093
G1 X105.14 Y105.313 E45.21604
G1 X105.564 Y105.766 E45.22114
G1 X106.093 Y106.088 E45.22624
G1 X106.684 Y106.253 E45.23129
G1 X106.994 Y106.275 E45.23385
G1 X126.012 Y106.275 E45.39036
G1 X126.615 Y106.192 E45.39537
G1 X127.183 Y105.945 E45.40047
G1 X127.664 Y105.554 E45.40557
G1 X128.022 Y105.047 E45.41067
G1 X128.229 Y104.463 E45.41577
G1 X128.271 Y103.845 E45.42087
G1 X128.145 Y103.238 E45.42597
G1 X127.86 Y102.687 E45.43108
G1 X127.436 Y102.234 E45.43618
G1 X126.907 Y101.912 E45.44128
G1 X126.316 Y101.747 E45.44633
M204 S2812
M205 X18 Y18
G0 F9375 X126.116 Y101.733
G0 X126.144 Y101.348
G0 X126.621 Y100.865
M204 S750
M205 X7.5 Y7.5
;TYPE:WALL-INNER
G1 F1800 X127.227 Y101.049 E45.4508
G1 X127.292 Y101.083 E45.4513
G1 X127.776 Y101.343 E45.45518
G1 X128.007 Y101.532 E45.45728
G1 X128.159 Y101.657 E45.45861
G1 X128.26 Y101.74 E45.45953
G1 X128.415 Y101.929 E45.46126
G1 X128.592 Y102.144 E45.46316
G1 X128.657 Y102.224 E45.46387
G1 X128.951 Y102.773 E45.46827
G1 X129.003 Y102.946 E45.46954
G1 X129.135 Y103.379 E45.47273
G1 X129.174 Y103.775 E45.47554
G1 X129.188 Y103.918 E45.47651
G1 X129.2 Y104.039 E45.47737
G1 X129.2 Y114.2 E45.54905
G1 X103.8 Y114.2 E45.72822
G1 X103.8 Y104.039 E45.79989
G1 X103.834 Y103.698 E45.80231
G1 X103.865 Y103.379 E45.80453
G1 X103.88 Y103.327 E45.80491
G1 X104.049 Y102.773 E45.80899
G1 X104.177 Y102.534 E45.8109
G1 X104.276 Y102.348 E45.81233
G1 X104.343 Y102.224 E45.81332
G1 X104.477 Y102.06 E45.81481
G1 X104.659 Y101.839 E45.81676
G1 X104.74 Y101.74 E45.81764
G1 X105.224 Y101.343 E45.82206
G1 X105.358 Y101.271 E45.82313
G1 X105.59 Y101.147 E45.82492
G1 X105.773 Y101.049 E45.82638
G1 X105.917 Y101.005 E45.82745
G1 X106.134 Y100.94 E45.82897
G1 X106.379 Y100.865 E45.83078
G1 X106.916 Y100.813 E45.83458
G1 X107.039 Y100.8 E45.83546
G1 X125.961 Y100.8 E45.96893
G1 X126.057 Y100.809 E45.96961
G1 X126.45 Y100.848 E45.97228
G1 X126.621 Y100.865 E45.97349
M204 S2812
M205 X18 Y18
G0 F9375 X126.677 Y100.569
M204 S750
M205 X7.5 Y7.5
G1 F1800 X127.342 Y100.77 E45.97839
G1 X127.944 Y101.093 E45.98321
G1 X128.473 Y101.527 E45.98804
G1 X128.907 Y102.056 E45.99287
G1 X129.23 Y102.658 E45.99769
G1 X129.421 Y103.292 E46.00236
G1 X129.431 Y103.323 E46.00259
G1 X129.5 Y104.019 E46.00752
G1 X129.5 Y114.5 E46.08145
G1 X103.5 Y114.5 E46.26486
G1 X103.5 Y104.019 E46.33879
G1 X103.569 Y103.323 E46.34372
G1 X103.77 Y102.658 E46.34862
G1 X104.093 Y102.056 E46.35344
G1 X104.527 Y101.527 E46.35827
G1 X105.056 Y101.093 E46.36309
G1 X105.658 Y100.77 E46.36791
G1 X106.292 Y100.579 E46.37258
G1 X106.323 Y100.569 E46.37281
G1 X107.019 Y100.5 E46.37775
G1 X125.981 Y100.5 E46.5115
G1 X126.677 Y100.569 E46.51644
M204 S2812
M205 X18 Y18
G0 F9375 X126.742 Y100.249
M204 S500
M205 X5 Y5
;TYPE:WALL-OUTER
G1 F1500 X127.467 Y100.468 E46.52267
G1 X128.125 Y100.821 E46.52882
G1 X128.704 Y101.296 E46.53498
G1 X129.179 Y101.875 E46.54114
G1 X129.532 Y102.533 E46.54729
G1 X129.751 Y103.258 E46.55352
G1 X129.825 Y104.007 E46.55971
G1 X129.825 Y114.825 E46.64874
G1 X103.175 Y114.825 E46.86806
G1 X103.175 Y104.007 E46.95709
G1 X103.249 Y103.258 E46.96328
G1 X103.468 Y102.533 E46.96952
G1 X103.821 Y101.875 E46.97566
G1 X104.296 Y101.296 E46.98183
G1 X104.875 Y100.821 E46.98799
G1 X105.533 Y100.468 E46.99413
G1 X106.258 Y100.249 E47.00037
G1 X107.007 Y100.175 E47.00656
G1 X125.993 Y100.175 E47.16281
G1 X126.742 Y100.249 E47.169
M204 S2812
M205 X18 Y18
G0 F9375 X126.933 Y100.306
G0 X126.821 Y100.674
G0 X126.81 Y100.712
G0 X128.16 Y102.475
G0 X128.491 Y103.115
G0 X128.885 Y105.425
M204 S500
M205 X5 Y5
;TYPE:SKIN
G1 F1500 X128.885 Y113.885 E47.23862
G1 X104.115 Y113.885 E47.44247
G1 X104.115 Y105.377 E47.51249
G1 X104.365 Y105.86 E47.51697
G1 X104.965 Y106.502 E47.5242
G1 X105.715 Y106.959 E47.53142
G1 X106.523 Y107.184 E47.53833
G1 X106.96 Y107.215 E47.54193
G1 X126.076 Y107.215 E47.69925
G1 X126.872 Y107.106 E47.70586
G1 X127.676 Y106.755 E47.71308
G1 X128.358 Y106.202 E47.72031
G1 X128.864 Y105.484 E47.72754
G1 X128.885 Y105.425 E47.72805
M204 S2812
M205 X18 Y18
G0 F9375 X128.758 Y113.284
M204 S500
M205 X5 Y5
G1 F1500 X128.283 Y113.759 E47.73358
M204 S2812
M205 X18 Y18
G0 F9375 X127.788 Y113.759
M204 S500
M205 X5 Y5
G1 F1500 X128.758 Y112.789 E47.74487
M204 S2812
M205 X18 Y18
G0 F9375 X128.758 Y112.294
M204 S500
M205 X5 Y5
G1 F1500 X127.293 Y113.759 E47.76192
M204 S2812
M205 X18 Y18
G0 F9375 X126.798 Y113.759
M204 S500
M205 X5 Y5
G1 F1500 X128.758 Y111.799 E47.78473
M204 S2812
M205 X18 Y18
G0 F9375 X128.758 Y111.304
M204 S500
M205 X5 Y5
G1 F1500 X126.303 Y113.759 E47.8133
M204 S2812
M205 X18 Y18
G0 F9375 X125.808 Y113.759
M204 S500
M205 X5 Y5
G1 F1500 X128.758 Y110.809 E47.84764
M204 S2812
M205 X18 Y18
G0 F9375 X128.758 Y110.314
M204 S500
M205 X5 Y5
G1 F1500 X125.313 Y113.759 E47.88773
M204 S2812
M205 X18 Y18
G0 F9375 X124.818 Y113.759
M204 S500
M205 X5 Y5
G1 F1500 X128.758 Y109.819 E47.93359
M204 S2812
M205 X18 Y18
G0 F9375 X128.758 Y109.324
M204 S500
M205 X5 Y5
G1 F1500 X124.323 Y113.759 E47.9852
M204 S2812
M205 X18 Y18
G0 F9375 X123.828 Y113.759
M204 S500
M205 X5 Y5
G1 F1500 X128.758 Y108.829 E48.04258
M204 S2812
M205 X18 Y18
G0 F9375 X128.758 Y108.334
M204 S500
M205 X5 Y5
G1 F1500 X123.333 Y113.759 E48.10572
M204 S2812
M205 X18 Y18
G0 F9375 X122.838 Y113.759
M204 S500
M205 X5 Y5
G1 F1500 X128.758 Y107.839 E48.17462
M204 S2812
M205 X18 Y18
G0 F9375 X128.758 Y107.344
M204 S500
M205 X5 Y5
G1 F1500 X122.343 Y113.759 E48.24928
M204 S2812
M205 X18 Y18
G0 F9375 X121.848 Y113.759
M204 S500
M205 X5 Y5
G1 F1500 X128.758 Y106.849 E48.3297
M204 S2812
M205 X18 Y18
G0 F9375 X128.758 Y106.354
M204 S500
M205 X5 Y5
G1 F1500 X121.353 Y113.759 E48.41588
M204 S2812
M205 X18 Y18
G0 F9375 X120.858 Y113.759
M204 S500
M205 X5 Y5
G1 F1500 X127.809 Y106.808 E48.49678
M204 S2812
M205 X18 Y18
G0 F9375 X126.893 Y107.229
M204 S500
M205 X5 Y5
G1 F1500 X120.363 Y113.759 E48.57278
M204 S2812
M205 X18 Y18
G0 F9375 X119.868 Y113.759
M204 S500
M205 X5 Y5
G1 F1500 X126.32 Y107.307 E48.64787
M204 S2812
M205 X18 Y18
G0 F9375 X125.792 Y107.34
M204 S500
M205 X5 Y5
G1 F1500 X119.373 Y113.759 E48.72258
M204 S2812
M205 X18 Y18
G0 F9375 X118.878 Y113.759
M204 S500
M205 X5 Y5
G1 F1500 X125.297 Y107.34 E48.79729
M204 S2812
M205 X18 Y18
G0 F9375 X124.802 Y107.34
M204 S500
M205 X5 Y5
G1 F1500 X118.383 Y113.759 E48.87199
M204 S2812
M205 X18 Y18
G0 F9375 X117.888 Y113.759
M204 S500
M205 X5 Y5
G1 F1500 X124.307 Y107.34 E48.9467
M204 S2812
M205 X18 Y18
G0 F9375 X123.812 Y107.34
M204 S500
M205 X5 Y5
G1 F1500 X117.393 Y113.759 E49.02141
M204 S2812
M205 X18 Y18
G0 F9375 X116.898 Y113.759
M204 S500
M205 X5 Y5
G1 F1500 X123.318 Y107.34 E49.09612
M204 S2812
M205 X18 Y18
G0 F9375 X122.823 Y107.34
M204 S500
M205 X5 Y5
G1 F1500 X116.403 Y113.759 E49.17083
M204 S2812
M205 X18 Y18
G0 F9375 X115.908 Y113.759
M204 S500
M205 X5 Y5
G1 F1500 X122.328 Y107.34 E49.24555
M204 S2812
M205 X18 Y18
G0 F9375 X121.833 Y107.34
M204 S500
M205 X5 Y5
G1 F1500 X115.413 Y113.759 E49.32026
M204 S2812
M205 X18 Y18
G0 F9375 X114.918 Y113.759
M204 S500
M205 X5 Y5
G1 F1500 X121.338 Y107.34 E49.39497
M204 S2812
M205 X18 Y18
G0 F9375 X120.843 Y107.34
M204 S500
M205 X5 Y5
G1 F1500 X114.424 Y113.759 E49.46968
M204 S2812
M205 X18 Y18
G0 F9375 X113.929 Y113.759
M204 S500
M205 X5 Y5
G1 F1500 X120.348 Y107.34 E49.54439
M204 S2812
M205 X18 Y18
G0 F9375 X119.853 Y107.34
M204 S500
M205 X5 Y5
G1 F1500 X113.434 Y113.759 E49.61909
M204 S2812
M205 X18 Y18
G0 F9375 X112.939 Y113.759
M204 S500
M205 X5 Y5
G1 F1500 X119.358 Y107.34 E49.6938
M204 S2812
M205 X18 Y18
G0 F9375 X118.863 Y107.34
M204 S500
M205 X5 Y5
G1 F1500 X112.444 Y113.759 E49.76851
M204 S2812
M205 X18 Y18
G0 F9375 X111.949 Y113.759
M204 S500
M205 X5 Y5
G1 F1500 X118.368 Y107.34 E49.84322
M204 S2812
M205 X18 Y18
G0 F9375 X117.873 Y107.34
M204 S500
M205 X5 Y5
G1 F1500 X111.454 Y113.759 E49.91792
M204 S2812
M205 X18 Y18
G0 F9375 X110.959 Y113.759
M204 S500
M205 X5 Y5
G1 F1500 X117.378 Y107.34 E49.99263
M204 S2812
M205 X18 Y18
G0 F9375 X116.883 Y107.34
M204 S500
M205 X5 Y5
G1 F1500 X110.464 Y113.759 E50.06734
M204 S2812
M205 X18 Y18
G0 F9375 X109.969 Y113.759
M204 S500
M205 X5 Y5
G1 F1500 X116.388 Y107.34 E50.14204
M204 S2812
M205 X18 Y18
G0 F9375 X115.893 Y107.34
M204 S500
M205 X5 Y5
G1 F1500 X109.474 Y113.759 E50.21675
M204 S2812
M205 X18 Y18
G0 F9375 X108.979 Y113.759
M204 S500
M205 X5 Y5
G1 F1500 X115.398 Y107.34 E50.29146
M204 S2812
M205 X18 Y18
G0 F9375 X114.903 Y107.34
M204 S500
M205 X5 Y5
G1 F1500 X108.484 Y113.759 E50.36617
M204 S2812
M205 X18 Y18
G0 F9375 X107.989 Y113.759
M204 S500
M205 X5 Y5
G1 F1500 X114.408 Y107.34 E50.44087
M204 S2812
M205 X18 Y18
G0 F9375 X113.913 Y107.34
M204 S500
M205 X5 Y5
G1 F1500 X107.494 Y113.759 E50.51558
M204 S2812
M205 X18 Y18
G0 F9375 X106.999 Y113.759
M204 S500
M205 X5 Y5
G1 F1500 X113.418 Y107.34 E50.59029
M204 S2812
M205 X18 Y18
G0 F9375 X112.923 Y107.34
M204 S500
M205 X5 Y5
G1 F1500 X106.504 Y113.759 E50.66499
M204 S2812
M205 X18 Y18
G0 F9375 X106.009 Y113.759
M204 S500
M205 X5 Y5
G1 F1500 X112.428 Y107.34 E50.7397
M204 S2812
M205 X18 Y18
G0 F9375 X111.933 Y107.34
M204 S500
M205 X5 Y5
G1 F1500 X105.514 Y113.759 E50.81441
M204 S2812
M205 X18 Y18
G0 F9375 X105.019 Y113.759
M204 S500
M205 X5 Y5
G1 F1500 X111.438 Y107.34 E50.88912
M204 S2812
M205 X18 Y18
G0 F9375 X110.943 Y107.34
M204 S500
M205 X5 Y5
G1 F1500 X104.524 Y113.759 E50.96382
M204 S2812
M205 X18 Y18
G0 F9375 X104.24 Y113.547
M204 S500
M205 X5 Y5
G1 F1500 X110.448 Y107.34 E51.03607
M204 S2812
M205 X18 Y18
G0 F9375 X109.953 Y107.34
M204 S500
M205 X5 Y5
G1 F1500 X104.24 Y113.052 E51.10255
M204 S2812
M205 X18 Y18
G0 F9375 X104.24 Y112.557
M204 S500
M205 X5 Y5
G1 F1500 X109.458 Y107.34 E51.16328
M204 S2812
M205 X18 Y18
G0 F9375 X108.963 Y107.34
M204 S500
M205 X5 Y5
G1 F1500 X104.24 Y112.062 E51.21824
M204 S2812
M205 X18 Y18
G0 F9375 X104.24 Y111.568
M204 S500
M205 X5 Y5
G1 F1500 X108.468 Y107.34 E51.26745
M204 S2812
M205 X18 Y18
G0 F9375 X107.973 Y107.34
M204 S500
M205 X5 Y5
G1 F1500 X104.24 Y111.073 E51.31089
M204 S2812
M205 X18 Y18
G0 F9375 X104.24 Y110.578
M204 S500
M205 X5 Y5
G1 F1500 X107.478 Y107.34 E51.34858
M204 S2812
M205 X18 Y18
G0 F9375 X106.983 Y107.34
M204 S500
M205 X5 Y5
G1 F1500 X104.24 Y110.083 E51.3805
M204 S2812
M205 X18 Y18
G0 F9375 X104.24 Y109.588
M204 S500
M205 X5 Y5
G1 F1500 X106.52 Y107.308 E51.40704
M204 S2812
M205 X18 Y18
G0 F9375 X106.129 Y107.204
M204 S500
M205 X5 Y5
G1 F1500 X104.24 Y109.093 E51.42902
M204 S2812
M205 X18 Y18
G0 F9375 X104.24 Y108.598
M204 S500
M205 X5 Y5
G1 F1500 X105.742 Y107.096 E51.4465
M204 S2812
M205 X18 Y18
G0 F9375 X105.419 Y106.925
M204 S500
M205 X5 Y5
G1 F1500 X104.24 Y108.103 E51.46022
M204 S2812
M205 X18 Y18
G0 F9375 X104.24 Y107.608
M204 S500
M205 X5 Y5
G1 F1500 X105.111 Y106.737 E51.47036
M204 S2812
M205 X18 Y18
G0 F9375 X104.82 Y106.533
M204 S500
M205 X5 Y5
G1 F1500 X104.24 Y107.113 E51.47711
M204 S2812
M205 X18 Y18
G0 F9375 X104.24 Y106.618
M204 S500
M205 X5 Y5
G1 F1500 X104.581 Y106.277 E51.48108
M204 S2812
M205 X18 Y18
G0 F9375 X104.342 Y106.021
M204 S500
M205 X5 Y5
G1 F1500 X104.24 Y106.123 E51.48226
M204 S2812
M205 X18 Y18
;MESH:NONMESH
G0 F600 X104.24 Y106.123 Z0.57
G0 F9375 X104.411 Y103.462
G0 X104.652 Y102.784
G0 X105.067 Y102.195
G0 X105.627 Y101.741
G0 X106.286 Y101.454
G0 X126.423 Y101.128
;TIME_ELAPSED:178.621324
;LAYER:2
M106 S170
M204 S1000
M205 X10 Y10
;TYPE:WALL-INNER
;MESH:OLED holder.stl
G1 F2400 X126.029 Y101.1 E51.48505
G1 X106.945 Y101.1 E51.61967
G1 X106.214 Y101.2 E51.62487
G1 X106.006 Y101.29 E51.62647
G1 X105.731 Y101.411 E51.62859
G1 X105.49 Y101.516 E51.63044
G1 X104.929 Y101.971 E51.63554
G1 X104.875 Y102.015 E51.63603
G1 X104.71 Y102.249 E51.63805
G1 X104.539 Y102.491 E51.64014
G1 X104.418 Y102.663 E51.64162
G1 X104.153 Y103.409 E51.64721
G1 X104.132 Y103.729 E51.64947
G1 X104.1 Y104.198 E51.65279
G1 X104.261 Y104.973 E51.65837
G1 X104.625 Y105.677 E51.66396
G1 X105.166 Y106.256 E51.66955
G1 X105.841 Y106.667 E51.67512
G1 X106.577 Y106.872 E51.68051
G1 X106.971 Y106.9 E51.6833
G1 X126.055 Y106.9 E51.81792
G1 X126.786 Y106.8 E51.82312
G1 X127.51 Y106.484 E51.82869
G1 X128.125 Y105.985 E51.83428
G1 X128.582 Y105.337 E51.83987
G1 X128.847 Y104.591 E51.84546
G1 X128.891 Y103.945 E51.85003
G1 X128.9 Y103.802 E51.85104
G1 X128.739 Y103.027 E51.85662
G1 X128.395 Y102.36 E51.86191
G1 X128.375 Y102.323 E51.86221
G1 X128.185 Y102.12 E51.86417
G1 X127.968 Y101.888 E51.86641
G1 X127.834 Y101.744 E51.8678
G1 X127.159 Y101.333 E51.87338
G1 X127.149 Y101.331 E51.87345
G1 X126.423 Y101.128 E51.87876
M204 S5000
M205 X30 Y30
G0 F15000 X126.372 Y101.425
M204 S1000
M205 X10 Y10
G1 F2400 X126.018 Y101.4 E51.88127
G1 X106.966 Y101.4 E52.01566
G1 X106.296 Y101.492 E52.02043
G1 X105.647 Y101.775 E52.02542
G1 X105.096 Y102.222 E52.03043
G1 X104.687 Y102.802 E52.03544
G1 X104.45 Y103.47 E52.04044
G1 X104.402 Y104.177 E52.04543
G1 X104.546 Y104.872 E52.05044
G1 X104.872 Y105.502 E52.05544
G1 X105.357 Y106.021 E52.06046
G1 X105.962 Y106.389 E52.06545
G1 X106.628 Y106.575 E52.07033
G1 X106.982 Y106.6 E52.07283
G1 X126.034 Y106.6 E52.20722
G1 X126.704 Y106.508 E52.21199
G1 X127.353 Y106.225 E52.21699
G1 X127.904 Y105.778 E52.22199
G1 X128.313 Y105.198 E52.227
G1 X128.55 Y104.53 E52.232
G1 X128.598 Y103.823 E52.237
G1 X128.454 Y103.128 E52.242
G1 X128.128 Y102.498 E52.24701
G1 X127.643 Y101.979 E52.25202
G1 X127.038 Y101.611 E52.25701
G1 X126.372 Y101.425 E52.26189
M204 S5000
M205 X30 Y30
G0 F15000 X126.316 Y101.747
M204 S500
M205 X5 Y5
;TYPE:WALL-OUTER
G1 F1800 X126.006 Y101.725 E52.26445
G1 X106.988 Y101.725 E52.42096
G1 X106.385 Y101.808 E52.42597
G1 X105.817 Y102.055 E52.43107
G1 X105.336 Y102.446 E52.43617
G1 X104.978 Y102.953 E52.44128
G1 X104.771 Y103.537 E52.44638
G1 X104.729 Y104.155 E52.45147
G1 X104.855 Y104.762 E52.45657
G1 X105.14 Y105.313 E52.46168
G1 X105.564 Y105.766 E52.46679
G1 X106.093 Y106.088 E52.47188
G1 X106.684 Y106.253 E52.47693
G1 X106.994 Y106.275 E52.47949
G1 X126.012 Y106.275 E52.636
G1 X126.615 Y106.192 E52.64101
G1 X127.183 Y105.945 E52.64611
G1 X127.664 Y105.554 E52.65121
G1 X128.022 Y105.047 E52.65632
G1 X128.229 Y104.463 E52.66142
G1 X128.271 Y103.845 E52.66651
G1 X128.145 Y103.238 E52.67161
G1 X127.86 Y102.687 E52.67672
G1 X127.436 Y102.234 E52.68183
G1 X126.907 Y101.912 E52.68692
G1 X126.316 Y101.747 E52.69197
M204 S5000
M205 X30 Y30
G0 F15000 X126.116 Y101.733
G0 X126.144 Y101.348
G0 X126.621 Y100.865
M204 S1000
M205 X10 Y10
;TYPE:WALL-INNER
G1 F2400 X127.227 Y101.049 E52.69644
G1 X127.292 Y101.083 E52.69695
G1 X127.776 Y101.343 E52.70082
G1 X128.007 Y101.532 E52.70293
G1 X128.159 Y101.657 E52.70425
G1 X128.26 Y101.74 E52.70518
G1 X128.415 Y101.929 E52.7069
G1 X128.592 Y102.144 E52.70881
G1 X128.657 Y102.224 E52.70951
G1 X128.951 Y102.773 E52.71391
G1 X129.003 Y102.946 E52.71518
G1 X129.135 Y103.379 E52.71838
G1 X129.174 Y103.775 E52.72118
G1 X129.188 Y103.918 E52.72216
G1 X129.2 Y104.039 E52.72301
G1 X129.2 Y114.2 E52.79469
G1 X103.8 Y114.2 E52.97386
G1 X103.8 Y104.039 E53.04553
G1 X103.834 Y103.698 E53.04795
G1 X103.865 Y103.379 E53.05017
G1 X103.88 Y103.327 E53.05055
G1 X104.049 Y102.773 E53.05463
G1 X104.177 Y102.534 E53.05655
G1 X104.276 Y102.348 E53.05797
G1 X104.343 Y102.224 E53.05896
G1 X104.477 Y102.06 E53.06046
G1 X104.659 Y101.839 E53.06241
G1 X104.74 Y101.74 E53.06328
G1 X105.224 Y101.343 E53.0677
G1 X105.358 Y101.271 E53.06877
G1 X105.59 Y101.147 E53.07056
G1 X105.773 Y101.049 E53.07203
G1 X105.917 Y101.005 E53.07309
G1 X106.134 Y100.94 E53.07461
G1 X106.379 Y100.865 E53.07642
G1 X106.916 Y100.813 E53.08023
G1 X107.039 Y100.8 E53.0811
G1 X125.961 Y100.8 E53.21457
G1 X126.057 Y100.809 E53.21525
G1 X126.45 Y100.848 E53.21792
G1 X126.621 Y100.865 E53.21914
M204 S5000
M205 X30 Y30
G0 F15000 X126.677 Y100.569
M204 S1000
M205 X10 Y10
G1 F2400 X127.342 Y100.77 E53.22404
G1 X127.944 Y101.093 E53.22886
G1 X128.473 Y101.527 E53.23368
G1 X128.907 Y102.056 E53.23851
G1 X129.23 Y102.658 E53.24333
G1 X129.421 Y103.292 E53.248
G1 X129.431 Y103.323 E53.24823
G1 X129.5 Y104.019 E53.25316
G1 X129.5 Y114.5 E53.32709
G1 X103.5 Y114.5 E53.5105
G1 X103.5 Y104.019 E53.58443
G1 X103.569 Y103.323 E53.58936
G1 X103.77 Y102.658 E53.59426
G1 X104.093 Y102.056 E53.59908
G1 X104.527 Y101.527 E53.60391
G1 X105.056 Y101.093 E53.60874
G1 X105.658 Y100.77 E53.61356
G1 X106.292 Y100.579 E53.61823
G1 X106.323 Y100.569 E53.61846
G1 X107.019 Y100.5 E53.62339
G1 X125.981 Y100.5 E53.75715
G1 X126.677 Y100.569 E53.76208
M204 S5000
M205 X30 Y30
G0 F15000 X126.742 Y100.249
M204 S500
M205 X5 Y5
;TYPE:WALL-OUTER
G1 F1800 X127.467 Y100.468 E53.76831
G1 X128.125 Y100.821 E53.77446
G1 X128.704 Y101.296 E53.78062
G1 X129.179 Y101.875 E53.78679
G1 X129.532 Y102.533 E53.79293
G1 X129.751 Y103.258 E53.79916
G1 X129.825 Y104.007 E53.80536
G1 X129.825 Y114.825 E53.89438
G1 X103.175 Y114.825 E54.1137
G1 X103.175 Y104.007 E54.20273
G1 X103.249 Y103.258 E54.20893
G1 X103.468 Y102.533 E54.21516
G1 X103.821 Y101.875 E54.2213
G1 X104.296 Y101.296 E54.22747
G1 X104.875 Y100.821 E54.23363
G1 X105.533 Y100.468 E54.23978
G1 X106.258 Y100.249 E54.24601
G1 X107.007 Y100.175 E54.2522
G1 X125.993 Y100.175 E54.40845
G1 X126.742 Y100.249 E54.41464
M204 S5000
M205 X30 Y30
G0 F15000 X126.933 Y100.306
G0 X126.821 Y100.674
G0 X126.81 Y100.712
G0 X128.16 Y102.475
G0 X128.491 Y103.115
G0 X128.885 Y105.425
M204 S500
M205 X5 Y5
;TYPE:SKIN
G1 F1800 X128.885 Y113.885 E54.48427
G1 X104.115 Y113.885 E54.68811
G1 X104.115 Y105.377 E54.75813
G1 X104.365 Y105.86 E54.76261
G1 X104.965 Y106.502 E54.76984
G1 X105.715 Y106.959 E54.77707
G1 X106.523 Y107.184 E54.78397
G1 X106.96 Y107.215 E54.78757
G1 X126.076 Y107.215 E54.94489
G1 X126.872 Y107.106 E54.9515
G1 X127.676 Y106.755 E54.95872
G1 X128.358 Y106.202 E54.96595
G1 X128.864 Y105.484 E54.97318
G1 X128.885 Y105.425 E54.97369
M204 S5000
M205 X30 Y30
G0 F15000 X128.496 Y106.222
M204 S500
M205 X5 Y5
G1 F1800 X128.758 Y106.484 E54.97674
M204 S5000
M205 X30 Y30
G0 F15000 X128.758 Y106.979
M204 S500
M205 X5 Y5
G1 F1800 X128.239 Y106.46 E54.98278
M204 S5000
M205 X30 Y30
G0 F15000 X127.965 Y106.681
M204 S500
M205 X5 Y5
G1 F1800 X128.758 Y107.474 E54.99201
M204 S5000
M205 X30 Y30
G0 F15000 X128.758 Y107.969
M204 S500
M205 X5 Y5
G1 F1800 X127.679 Y106.89 E55.00457
M204 S5000
M205 X30 Y30
G0 F15000 X127.335 Y107.041
M204 S500
M205 X5 Y5
G1 F1800 X128.758 Y108.464 E55.02113
M204 S5000
M205 X30 Y30
G0 F15000 X128.758 Y108.959
M204 S500
M205 X5 Y5
G1 F1800 X126.99 Y107.191 E55.04171
M204 S5000
M205 X30 Y30
G0 F15000 X126.577 Y107.273
M204 S500
M205 X5 Y5
G1 F1800 X128.758 Y109.454 E55.06709
M204 S5000
M205 X30 Y30
G0 F15000 X128.758 Y109.949
M204 S500
M205 X5 Y5
G1 F1800 X126.142 Y107.333 E55.09754
M204 S5000
M205 X30 Y30
G0 F15000 X125.654 Y107.34
M204 S500
M205 X5 Y5
G1 F1800 X128.758 Y110.444 E55.13366
M204 S5000
M205 X30 Y30
G0 F15000 X128.758 Y110.939
M204 S500
M205 X5 Y5
G1 F1800 X125.16 Y107.34 E55.17555
M204 S5000
M205 X30 Y30
G0 F15000 X124.665 Y107.34
M204 S500
M205 X5 Y5
G1 F1800 X128.758 Y111.434 E55.22319
M204 S5000
M205 X30 Y30
G0 F15000 X128.758 Y111.929
M204 S500
M205 X5 Y5
G1 F1800 X124.17 Y107.34 E55.27659
M204 S5000
M205 X30 Y30
G0 F15000 X123.675 Y107.34
M204 S500
M205 X5 Y5
G1 F1800 X128.758 Y112.424 E55.33575
M204 S5000
M205 X30 Y30
G0 F15000 X128.758 Y112.919
M204 S500
M205 X5 Y5
G1 F1800 X123.18 Y107.34 E55.40068
M204 S5000
M205 X30 Y30
G0 F15000 X122.685 Y107.34
M204 S500
M205 X5 Y5
G1 F1800 X128.758 Y113.414 E55.47137
M204 S5000
M205 X30 Y30
G0 F15000 X128.607 Y113.758
M204 S500
M205 X5 Y5
G1 F1800 X122.19 Y107.34 E55.54605
M204 S5000
M205 X30 Y30
G0 F15000 X121.695 Y107.34
M204 S500
M205 X5 Y5
G1 F1800 X128.112 Y113.758 E55.62074
M204 S5000
M205 X30 Y30
G0 F15000 X127.617 Y113.758
M204 S500
M205 X5 Y5
G1 F1800 X121.2 Y107.34 E55.69543
M204 S5000
M205 X30 Y30
G0 F15000 X120.705 Y107.34
M204 S500
M205 X5 Y5
G1 F1800 X127.122 Y113.758 E55.77012
M204 S5000
M205 X30 Y30
G0 F15000 X126.627 Y113.758
M204 S500
M205 X5 Y5
G1 F1800 X120.21 Y107.34 E55.84481
M204 S5000
M205 X30 Y30
G0 F15000 X119.715 Y107.34
M204 S500
M205 X5 Y5
G1 F1800 X126.133 Y113.758 E55.91951
M204 S5000
M205 X30 Y30
G0 F15000 X125.638 Y113.758
M204 S500
M205 X5 Y5
G1 F1800 X119.22 Y107.34 E55.9942
M204 S5000
M205 X30 Y30
G0 F15000 X118.725 Y107.34
M204 S500
M205 X5 Y5
G1 F1800 X125.143 Y113.758 E56.0689
M204 S5000
M205 X30 Y30
G0 F15000 X124.648 Y113.758
M204 S500
M205 X5 Y5
G1 F1800 X118.23 Y107.34 E56.1436
M204 S5000
M205 X30 Y30
G0 F15000 X117.735 Y107.34
M204 S500
M205 X5 Y5
G1 F1800 X124.153 Y113.758 E56.21829
M204 S5000
M205 X30 Y30
G0 F15000 X123.658 Y113.758
M204 S500
M205 X5 Y5
G1 F1800 X117.24 Y107.34 E56.29299
M204 S5000
M205 X30 Y30
G0 F15000 X116.745 Y107.34
M204 S500
M205 X5 Y5
G1 F1800 X123.163 Y113.758 E56.36768
M204 S5000
M205 X30 Y30
G0 F15000 X122.668 Y113.758
M204 S500
M205 X5 Y5
G1 F1800 X116.25 Y107.34 E56.44238
M204 S5000
M205 X30 Y30
G0 F15000 X115.755 Y107.34
M204 S500
M205 X5 Y5
G1 F1800 X122.173 Y113.758 E56.51707
M204 S5000
M205 X30 Y30
G0 F15000 X121.678 Y113.758
M204 S500
M205 X5 Y5
G1 F1800 X115.26 Y107.34 E56.59177
M204 S5000
M205 X30 Y30
G0 F15000 X114.765 Y107.34
M204 S500
M205 X5 Y5
G1 F1800 X121.183 Y113.758 E56.66646
M204 S5000
M205 X30 Y30
G0 F15000 X120.688 Y113.758
M204 S500
M205 X5 Y5
G1 F1800 X114.27 Y107.34 E56.74116
M204 S5000
M205 X30 Y30
G0 F15000 X113.775 Y107.34
M204 S500
M205 X5 Y5
G1 F1800 X120.193 Y113.758 E56.81585
M204 S5000
M205 X30 Y30
G0 F15000 X119.698 Y113.758
M204 S500
M205 X5 Y5
G1 F1800 X113.28 Y107.34 E56.89055
M204 S5000
M205 X30 Y30
G0 F15000 X112.785 Y107.34
M204 S500
M205 X5 Y5
G1 F1800 X119.203 Y113.758 E56.96525
M204 S5000
M205 X30 Y30
G0 F15000 X118.708 Y113.758
M204 S500
M205 X5 Y5
G1 F1800 X112.29 Y107.34 E57.03994
M204 S5000
M205 X30 Y30
G0 F15000 X111.795 Y107.34
M204 S500
M205 X5 Y5
G1 F1800 X118.213 Y113.758 E57.11464
M204 S5000
M205 X30 Y30
G0 F15000 X117.718 Y113.758
M204 S500
M205 X5 Y5
G1 F1800 X111.3 Y107.34 E57.18933
M204 S5000
M205 X30 Y30
G0 F15000 X110.805 Y107.34
M204 S500
M205 X5 Y5
G1 F1800 X117.223 Y113.758 E57.26403
M204 S5000
M205 X30 Y30
G0 F15000 X116.728 Y113.758
M204 S500
M205 X5 Y5
G1 F1800 X110.31 Y107.34 E57.33872
M204 S5000
M205 X30 Y30
G0 F15000 X109.815 Y107.34
M204 S500
M205 X5 Y5
G1 F1800 X116.233 Y113.758 E57.41342
M204 S5000
M205 X30 Y30
G0 F15000 X115.738 Y113.758
M204 S500
M205 X5 Y5
G1 F1800 X109.32 Y107.34 E57.48811
M204 S5000
M205 X30 Y30
G0 F15000 X108.825 Y107.34
M204 S500
M205 X5 Y5
G1 F1800 X115.243 Y113.758 E57.56281
M204 S5000
M205 X30 Y30
G0 F15000 X114.748 Y113.758
M204 S500
M205 X5 Y5
G1 F1800 X108.33 Y107.34 E57.63751
M204 S5000
M205 X30 Y30
G0 F15000 X107.835 Y107.34
M204 S500
M205 X5 Y5
G1 F1800 X114.253 Y113.758 E57.7122
M204 S5000
M205 X30 Y30
G0 F15000 X113.758 Y113.758
M204 S500
M205 X5 Y5
G1 F1800 X107.34 Y107.34 E57.7869
M204 S5000
M205 X30 Y30
G0 F15000 X106.836 Y107.331
M204 S500
M205 X5 Y5
G1 F1800 X113.263 Y113.758 E57.8617
M204 S5000
M205 X30 Y30
G0 F15000 X112.768 Y113.758
M204 S500
M205 X5 Y5
G1 F1800 X106.247 Y107.237 E57.93759
M204 S5000
M205 X30 Y30
G0 F15000 X105.474 Y106.959
M204 S500
M205 X5 Y5
G1 F1800 X112.273 Y113.758 E58.01672
M204 S5000
M205 X30 Y30
G0 F15000 X111.778 Y113.758
M204 S500
M205 X5 Y5
G1 F1800 X104.24 Y106.22 E58.10445
M204 S5000
M205 X30 Y30
G0 F15000 X104.24 Y106.715
M204 S500
M205 X5 Y5
G1 F1800 X111.283 Y113.758 E58.18642
M204 S5000
M205 X30 Y30
G0 F15000 X110.788 Y113.758
M204 S500
M205 X5 Y5
G1 F1800 X104.24 Y107.21 E58.26263
M204 S5000
M205 X30 Y30
G0 F15000 X104.24 Y107.705
M204 S500
M205 X5 Y5
G1 F1800 X110.293 Y113.758 E58.33308
M204 S5000
M205 X30 Y30
G0 F15000 X109.798 Y113.758
M204 S500
M205 X5 Y5
G1 F1800 X104.24 Y108.2 E58.39776
M204 S5000
M205 X30 Y30
G0 F15000 X104.24 Y108.695
M204 S500
M205 X5 Y5
G1 F1800 X109.303 Y113.758 E58.45669
M204 S5000
M205 X30 Y30
G0 F15000 X108.808 Y113.758
M204 S500
M205 X5 Y5
G1 F1800 X104.24 Y109.19 E58.50985
M204 S5000
M205 X30 Y30
G0 F15000 X104.24 Y109.685
M204 S500
M205 X5 Y5
G1 F1800 X108.313 Y113.758 E58.55726
M204 S5000
M205 X30 Y30
G0 F15000 X107.818 Y113.758
M204 S500
M205 X5 Y5
G1 F1800 X104.24 Y110.18 E58.5989
M204 S5000
M205 X30 Y30
G0 F15000 X104.24 Y110.675
M204 S500
M205 X5 Y5
G1 F1800 X107.323 Y113.758 E58.63478
M204 S5000
M205 X30 Y30
G0 F15000 X106.828 Y113.758
M204 S500
M205 X5 Y5
G1 F1800 X104.24 Y111.17 E58.6649
M204 S5000
M205 X30 Y30
G0 F15000 X104.24 Y111.665
M204 S500
M205 X5 Y5
G1 F1800 X106.334 Y113.758 E58.68927
M204 S5000
M205 X30 Y30
G0 F15000 X105.839 Y113.758
M204 S500
M205 X5 Y5
G1 F1800 X104.24 Y112.16 E58.70787
M204 S5000
M205 X30 Y30
G0 F15000 X104.24 Y112.655
M204 S500
M205 X5 Y5
G1 F1800 X105.344 Y113.758 E58.72071
M204 S5000
M205 X30 Y30
G0 F15000 X104.849 Y113.758
M204 S500
M205 X5 Y5
G1 F1800 X104.24 Y113.15 E58.72779
M204 S5000
M205 X30 Y30
G0 F15000 X104.24 Y113.645
M204 S500
M205 X5 Y5
G1 F1800 X104.354 Y113.758 E58.72912
M204 S5000
M205 X30 Y30
;MESH:NONMESH
G0 F600 X104.354 Y113.758 Z0.72
G0 F15000 X126.714 Y106.546
G0 X127.373 Y106.259
G0 X127.933 Y105.805
G0 X128.348 Y105.216
G0 X128.589 Y104.538
G0 X128.637 Y103.821
G0 X128.491 Y103.115
G0 X128.16 Y102.475
G0 X126.389 Y101.126
;TIME_ELAPSED:211.094551
;LAYER:3
M106 S255
M204 S1000
M205 X10 Y10
;TYPE:WALL-INNER
;MESH:OLED holder.stl
G1 F2400 X126.029 Y101.1 E58.73166
G1 X106.945 Y101.1 E58.86628
G1 X106.214 Y101.2 E58.87148
G1 X106.07 Y101.263 E58.87259
G1 X105.697 Y101.426 E58.87546
G1 X105.49 Y101.516 E58.87706
G1 X105.389 Y101.597 E58.87797
G1 X105.042 Y101.879 E58.88112
G1 X104.875 Y102.015 E58.88264
G1 X104.832 Y102.077 E58.88317
G1 X104.808 Y102.112 E58.88347
G1 X104.528 Y102.507 E58.88689
G1 X104.418 Y102.663 E58.88824
G1 X104.153 Y103.409 E58.89382
G1 X104.143 Y103.569 E58.89495
G1 X104.1 Y104.198 E58.8994
G1 X104.261 Y104.973 E58.90498
G1 X104.625 Y105.677 E58.91057
G1 X105.166 Y106.256 E58.91616
G1 X105.841 Y106.667 E58.92174
G1 X106.577 Y106.872 E58.92713
G1 X106.971 Y106.9 E58.92991
G1 X126.055 Y106.9 E59.06453
G1 X126.786 Y106.8 E59.06973
G1 X127.51 Y106.484 E59.07531
G1 X128.125 Y105.985 E59.08089
G1 X128.582 Y105.337 E59.08649
G1 X128.847 Y104.591 E59.09207
G1 X128.894 Y103.895 E59.09699
G1 X128.9 Y103.802 E59.09765
G1 X128.739 Y103.027 E59.10323
G1 X128.375 Y102.323 E59.10882
G1 X127.878 Y101.791 E59.11396
G1 X127.834 Y101.744 E59.11441
G1 X127.159 Y101.333 E59.11999
G1 X127.012 Y101.292 E59.12106
G1 X126.609 Y101.18 E59.12401
G1 X126.423 Y101.128 E59.12538
G1 X126.389 Y101.126 E59.12562
M204 S5000
M205 X30 Y30
G0 F15000 X126.372 Y101.425
M204 S1000
M205 X10 Y10
G1 F2400 X126.018 Y101.4 E59.12812
G1 X106.966 Y101.4 E59.26251
G1 X106.296 Y101.492 E59.26728
G1 X105.647 Y101.775 E59.27228
G1 X105.096 Y102.222 E59.27728
G1 X104.687 Y102.802 E59.28229
G1 X104.45 Y103.47 E59.28729
G1 X104.402 Y104.177 E59.29229
G1 X104.546 Y104.872 E59.29729
G1 X104.872 Y105.502 E59.3023
G1 X105.357 Y106.021 E59.30731
G1 X105.962 Y106.389 E59.3123
G1 X106.628 Y106.575 E59.31718
G1 X106.982 Y106.6 E59.31968
G1 X126.034 Y106.6 E59.45408
G1 X126.704 Y106.508 E59.45885
G1 X127.353 Y106.225 E59.46384
G1 X127.904 Y105.778 E59.46885
G1 X128.313 Y105.198 E59.47385
G1 X128.55 Y104.53 E59.47885
G1 X128.598 Y103.823 E59.48385
G1 X128.454 Y103.128 E59.48886
G1 X128.128 Y102.498 E59.49386
G1 X127.643 Y101.979 E59.49887
G1 X127.038 Y101.611 E59.50387
G1 X126.372 Y101.425 E59.50874
M204 S5000
M205 X30 Y30
G0 F15000 X126.316 Y101.747
M204 S500
M205 X5 Y5
;TYPE:WALL-OUTER
G1 F1800 X126.006 Y101.725 E59.5113
G1 X106.988 Y101.725 E59.66781
G1 X106.385 Y101.808 E59.67282
G1 X105.817 Y102.055 E59.67792
G1 X105.336 Y102.446 E59.68302
G1 X104.978 Y102.953 E59.68813
G1 X104.771 Y103.537 E59.69323
G1 X104.729 Y104.155 E59.69833
G1 X104.855 Y104.762 E59.70343
G1 X105.14 Y105.313 E59.70853
G1 X105.564 Y105.766 E59.71364
G1 X106.093 Y106.088 E59.71874
G1 X106.684 Y106.253 E59.72378
G1 X106.994 Y106.275 E59.72634
G1 X126.012 Y106.275 E59.88285
G1 X126.615 Y106.192 E59.88786
G1 X127.183 Y105.945 E59.89296
G1 X127.664 Y105.554 E59.89806
G1 X128.022 Y105.047 E59.90317
G1 X128.229 Y104.463 E59.90827
G1 X128.271 Y103.845 E59.91337
G1 X128.145 Y103.238 E59.91847
G1 X127.86 Y102.687 E59.92357
G1 X127.436 Y102.234 E59.92868
G1 X126.907 Y101.912 E59.93378
G1 X126.316 Y101.747 E59.93883
M204 S5000
M205 X30 Y30
G0 F15000 X126.116 Y101.733
G0 X126.144 Y101.348
G0 X126.409 Y100.832
M204 S1000
M205 X10 Y10
;TYPE:WALL-INNER
G1 F2400 X126.481 Y100.847 E59.93933
G1 X126.671 Y100.886 E59.94067
G1 X126.938 Y100.942 E59.9426
G1 X127.119 Y101.012 E59.94396
G1 X127.261 Y101.067 E59.94501
G1 X127.308 Y101.085 E59.94537
G1 X127.779 Y101.343 E59.94915
G1 X128.007 Y101.52 E59.95119
G1 X128.094 Y101.588 E59.95195
G1 X128.477 Y101.977 E59.9558
G1 X128.606 Y102.16 E59.95738
G1 X128.708 Y102.306 E59.95864
G1 X128.958 Y102.784 E59.96244
G1 X129.008 Y102.938 E59.96358
G1 X129.081 Y103.158 E59.96522
G1 X129.184 Y103.696 E59.96908
G1 X129.188 Y103.788 E59.96973
G1 X129.192 Y103.882 E59.97039
G1 X129.2 Y104.03 E59.97143
G1 X129.2 Y114.2 E60.04317
G1 X103.8 Y114.2 E60.22234
G1 X103.8 Y104.03 E60.29408
G1 X103.832 Y103.591 E60.29718
G1 X103.849 Y103.511 E60.29776
G1 X103.881 Y103.353 E60.29886
G1 X103.942 Y103.062 E60.30095
G1 X104.085 Y102.692 E60.30375
G1 X104.174 Y102.53 E60.30506
G1 X104.265 Y102.363 E60.30635
G1 X104.343 Y102.221 E60.30749
G1 X104.562 Y101.939 E60.31001
G1 X104.588 Y101.906 E60.31031
G1 X104.679 Y101.817 E60.31118
G1 X104.832 Y101.666 E60.31264
G1 X104.977 Y101.523 E60.31408
G1 X105.2 Y101.366 E60.316
G1 X105.306 Y101.292 E60.3169
G1 X105.358 Y101.265 E60.31731
G1 X105.558 Y101.161 E60.31886
G1 X105.784 Y101.042 E60.32066
G1 X105.975 Y100.979 E60.32208
G1 X106.125 Y100.93 E60.32317
G1 X106.158 Y100.919 E60.32341
G1 X106.696 Y100.816 E60.32728
G1 X106.931 Y100.805 E60.32894
G1 X107.037 Y100.8 E60.32968
G1 X125.968 Y100.8 E60.46322
G1 X126.05 Y100.805 E60.4638
G1 X126.409 Y100.832 E60.4663
M204 S5000
M205 X30 Y30
G0 F15000 X126.454 Y100.535
M204 S1000
M205 X10 Y10
G1 F2400 X127.022 Y100.653 E60.4704
G1 X127.433 Y100.811 E60.4735
G1 X127.945 Y101.092 E60.47762
G1 X128.293 Y101.362 E60.48073
G1 X128.708 Y101.785 E60.48491
G1 X128.966 Y102.151 E60.48807
G1 X129.235 Y102.667 E60.49217
G1 X129.373 Y103.084 E60.49527
G1 X129.483 Y103.661 E60.49941
G1 X129.5 Y104.016 E60.50192
G1 X129.5 Y114.5 E60.57588
G1 X103.5 Y114.5 E60.75928
G1 X103.5 Y104.024 E60.83318
G1 X103.535 Y103.546 E60.83656
G1 X103.653 Y102.978 E60.84065
G1 X103.811 Y102.567 E60.84375
G1 X104.092 Y102.055 E60.84787
G1 X104.362 Y101.707 E60.85098
G1 X104.785 Y101.292 E60.85516
G1 X105.151 Y101.034 E60.85832
G1 X105.667 Y100.765 E60.86242
G1 X106.084 Y100.627 E60.86552
G1 X106.661 Y100.517 E60.86967
G1 X107.023 Y100.5 E60.87222
G1 X125.976 Y100.5 E61.00592
G1 X126.454 Y100.535 E61.0093
M204 S5000
M205 X30 Y30
G0 F15000 X126.498 Y100.213
M204 S500
M205 X5 Y5
;TYPE:WALL-OUTER
G1 F1800 X127.112 Y100.34 E61.01446
G1 X127.573 Y100.517 E61.01852
G1 X128.125 Y100.82 E61.0237
G1 X128.511 Y101.12 E61.02773
G1 X128.958 Y101.576 E61.03298
G1 X129.242 Y101.979 E61.03704
G1 X129.534 Y102.538 E61.04223
G1 X129.689 Y103.005 E61.04628
G1 X129.807 Y103.627 E61.05149
G1 X129.825 Y104 E61.05456
G1 X129.825 Y114.825 E61.14365
G1 X103.175 Y114.825 E61.36297
G1 X103.175 Y104.013 E61.45195
G1 X103.213 Y103.502 E61.45616
G1 X103.34 Y102.888 E61.46132
G1 X103.517 Y102.427 E61.46539
G1 X103.82 Y101.875 E61.47057
G1 X104.12 Y101.489 E61.47459
G1 X104.576 Y101.042 E61.47985
G1 X104.979 Y100.758 E61.4839
G1 X105.538 Y100.466 E61.48909
G1 X106.005 Y100.311 E61.49314
G1 X106.627 Y100.193 E61.49835
G1 X107.008 Y100.175 E61.50149
G1 X125.987 Y100.175 E61.65768
G1 X126.498 Y100.213 E61.6619
M204 S5000
M205 X30 Y30
G0 F15000 X126.694 Y100.253
G0 X126.615 Y100.63
G0 X126.607 Y100.667
G0 X128.16 Y102.475
G0 X128.491 Y103.115
G0 X128.885 Y105.425
M204 S500
M205 X5 Y5
;TYPE:SKIN
G1 F1800 X128.885 Y113.885 E61.73152
G1 X104.115 Y113.885 E61.93537
G1 X104.115 Y105.377 E62.00539
G1 X104.365 Y105.86 E62.00986
G1 X104.965 Y106.502 E62.01709
G1 X105.715 Y106.959 E62.02432
G1 X106.523 Y107.184 E62.03123
G1 X106.96 Y107.215 E62.03483
G1 X126.076 Y107.215 E62.19215
G1 X126.872 Y107.106 E62.19876
G1 X127.676 Y106.755 E62.20598
G1 X128.358 Y106.202 E62.21321
G1 X128.864 Y105.484 E62.22043
G1 X128.885 Y105.425 E62.22095
M204 S5000
M205 X30 Y30
G0 F15000 X128.758 Y113.284
M204 S500
M205 X5 Y5
G1 F1800 X128.283 Y113.759 E62.22648
M204 S5000
M205 X30 Y30
G0 F15000 X127.788 Y113.759
M204 S500
M205 X5 Y5
G1 F1800 X128.758 Y112.789 E62.23777
M204 S5000
M205 X30 Y30
G0 F15000 X128.758 Y112.294
M204 S500
M205 X5 Y5
G1 F1800 X127.293 Y113.759 E62.25482
M204 S5000
M205 X30 Y30
G0 F15000 X126.798 Y113.759
M204 S500
M205 X5 Y5
G1 F1800 X128.758 Y111.799 E62.27763
M204 S5000
M205 X30 Y30
G0 F15000 X128.758 Y111.304
M204 S500
M205 X5 Y5
G1 F1800 X126.303 Y113.759 E62.3062
M204 S5000
M205 X30 Y30
G0 F15000 X125.808 Y113.759
M204 S500
M205 X5 Y5
G1 F1800 X128.758 Y110.809 E62.34053
M204 S5000
M205 X30 Y30
G0 F15000 X128.758 Y110.314
M204 S500
M205 X5 Y5
G1 F1800 X125.313 Y113.759 E62.38063
M204 S5000
M205 X30 Y30
G0 F15000 X124.818 Y113.759
M204 S500
M205 X5 Y5
G1 F1800 X128.758 Y109.819 E62.42648
M204 S5000
M205 X30 Y30
G0 F15000 X128.758 Y109.324
M204 S500
M205 X5 Y5
G1 F1800 X124.323 Y113.759 E62.4781
M204 S5000
M205 X30 Y30
G0 F15000 X123.828 Y113.759
M204 S500
M205 X5 Y5
G1 F1800 X128.758 Y108.829 E62.53548
M204 S5000
M205 X30 Y30
G0 F15000 X128.758 Y108.334
M204 S500
M205 X5 Y5
G1 F1800 X123.333 Y113.759 E62.59862
M204 S5000
M205 X30 Y30
G0 F15000 X122.838 Y113.759
M204 S500
M205 X5 Y5
G1 F1800 X128.758 Y107.839 E62.66752
M204 S5000
M205 X30 Y30
G0 F15000 X128.758 Y107.344
M204 S500
M205 X5 Y5
G1 F1800 X122.343 Y113.759 E62.74218
M204 S5000
M205 X30 Y30
G0 F15000 X121.848 Y113.759
M204 S500
M205 X5 Y5
G1 F1800 X128.758 Y106.849 E62.8226
M204 S5000
M205 X30 Y30
G0 F15000 X128.758 Y106.354
M204 S500
M205 X5 Y5
G1 F1800 X121.353 Y113.759 E62.90878
M204 S5000
M205 X30 Y30
G0 F15000 X120.858 Y113.759
M204 S500
M205 X5 Y5
G1 F1800 X127.809 Y106.808 E62.98968
M204 S5000
M205 X30 Y30
G0 F15000 X126.893 Y107.229
M204 S500
M205 X5 Y5
G1 F1800 X120.363 Y113.759 E63.06568
M204 S5000
M205 X30 Y30
G0 F15000 X119.868 Y113.759
M204 S500
M205 X5 Y5
G1 F1800 X126.32 Y107.307 E63.14077
M204 S5000
M205 X30 Y30
G0 F15000 X125.792 Y107.34
M204 S500
M205 X5 Y5
G1 F1800 X119.373 Y113.759 E63.21548
M204 S5000
M205 X30 Y30
G0 F15000 X118.878 Y113.759
M204 S500
M205 X5 Y5
G1 F1800 X125.297 Y107.34 E63.29018
M204 S5000
M205 X30 Y30
G0 F15000 X124.802 Y107.34
M204 S500
M205 X5 Y5
G1 F1800 X118.383 Y113.759 E63.36489
M204 S5000
M205 X30 Y30
G0 F15000 X117.888 Y113.759
M204 S500
M205 X5 Y5
G1 F1800 X124.307 Y107.34 E63.4396
M204 S5000
M205 X30 Y30
G0 F15000 X123.812 Y107.34
M204 S500
M205 X5 Y5
G1 F1800 X117.393 Y113.759 E63.51431
M204 S5000
M205 X30 Y30
G0 F15000 X116.898 Y113.759
M204 S500
M205 X5 Y5
G1 F1800 X123.318 Y107.34 E63.58902
M204 S5000
M205 X30 Y30
G0 F15000 X122.823 Y107.34
M204 S500
M205 X5 Y5
G1 F1800 X116.403 Y113.759 E63.66373
M204 S5000
M205 X30 Y30
G0 F15000 X115.908 Y113.759
M204 S500
M205 X5 Y5
G1 F1800 X122.328 Y107.34 E63.73844
M204 S5000
M205 X30 Y30
G0 F15000 X121.833 Y107.34
M204 S500
M205 X5 Y5
G1 F1800 X115.413 Y113.759 E63.81316
M204 S5000
M205 X30 Y30
G0 F15000 X114.918 Y113.759
M204 S500
M205 X5 Y5
G1 F1800 X121.338 Y107.34 E63.88787
M204 S5000
M205 X30 Y30
G0 F15000 X120.843 Y107.34
M204 S500
M205 X5 Y5
G1 F1800 X114.424 Y113.759 E63.96258
M204 S5000
M205 X30 Y30
G0 F15000 X113.929 Y113.759
M204 S500
M205 X5 Y5
G1 F1800 X120.348 Y107.34 E64.03728
M204 S5000
M205 X30 Y30
G0 F15000 X119.853 Y107.34
M204 S500
M205 X5 Y5
G1 F1800 X113.434 Y113.759 E64.11199
M204 S5000
M205 X30 Y30
G0 F15000 X112.939 Y113.759
M204 S500
M205 X5 Y5
G1 F1800 X119.358 Y107.34 E64.1867
M204 S5000
M205 X30 Y30
G0 F15000 X118.863 Y107.34
M204 S500
M205 X5 Y5
G1 F1800 X112.444 Y113.759 E64.26141
M204 S5000
M205 X30 Y30
G0 F15000 X111.949 Y113.759
M204 S500
M205 X5 Y5
G1 F1800 X118.368 Y107.34 E64.33611
M204 S5000
M205 X30 Y30
G0 F15000 X117.873 Y107.34
M204 S500
M205 X5 Y5
G1 F1800 X111.454 Y113.759 E64.41082
M204 S5000
M205 X30 Y30
G0 F15000 X110.959 Y113.759
M204 S500
M205 X5 Y5
G1 F1800 X117.378 Y107.34 E64.48553
M204 S5000
M205 X30 Y30
G0 F15000 X116.883 Y107.34
M204 S500
M205 X5 Y5
G1 F1800 X110.464 Y113.759 E64.56023
M204 S5000
M205 X30 Y30
G0 F15000 X109.969 Y113.759
M204 S500
M205 X5 Y5
G1 F1800 X116.388 Y107.34 E64.63494
M204 S5000
M205 X30 Y30
G0 F15000 X115.893 Y107.34
M204 S500
M205 X5 Y5
G1 F1800 X109.474 Y113.759 E64.70965
M204 S5000
M205 X30 Y30
G0 F15000 X108.979 Y113.759
M204 S500
M205 X5 Y5
G1 F1800 X115.398 Y107.34 E64.78436
M204 S5000
M205 X30 Y30
G0 F15000 X114.903 Y107.34
M204 S500
M205 X5 Y5
G1 F1800 X108.484 Y113.759 E64.85906
M204 S5000
M205 X30 Y30
G0 F15000 X107.989 Y113.759
M204 S500
M205 X5 Y5
G1 F1800 X114.408 Y107.34 E64.93377
M204 S5000
M205 X30 Y30
G0 F15000 X113.913 Y107.34
M204 S500
M205 X5 Y5
G1 F1800 X107.494 Y113.759 E65.00848
M204 S5000
M205 X30 Y30
G0 F15000 X106.999 Y113.759
M204 S500
M205 X5 Y5
G1 F1800 X113.418 Y107.34 E65.08318
M204 S5000
M205 X30 Y30
G0 F15000 X112.923 Y107.34
M204 S500
M205 X5 Y5
G1 F1800 X106.504 Y113.759 E65.15789
M204 S5000
M205 X30 Y30
G0 F15000 X106.009 Y113.759
M204 S500
M205 X5 Y5
G1 F1800 X112.428 Y107.34 E65.2326
M204 S5000
M205 X30 Y30
G0 F15000 X111.933 Y107.34
M204 S500
M205 X5 Y5
G1 F1800 X105.514 Y113.759 E65.30731
M204 S5000
M205 X30 Y30
G0 F15000 X105.019 Y113.759
M204 S500
M205 X5 Y5
G1 F1800 X111.438 Y107.34 E65.38201
M204 S5000
M205 X30 Y30
G0 F15000 X110.943 Y107.34
M204 S500
M205 X5 Y5
G1 F1800 X104.524 Y113.759 E65.45672
M204 S5000
M205 X30 Y30
G0 F15000 X104.24 Y113.547
M204 S500
M205 X5 Y5
G1 F1800 X110.448 Y107.34 E65.52897
M204 S5000
M205 X30 Y30
G0 F15000 X109.953 Y107.34
M204 S500
M205 X5 Y5
G1 F1800 X104.24 Y113.052 E65.59545
M204 S5000
M205 X30 Y30
G0 F15000 X104.24 Y112.557
M204 S500
M205 X5 Y5
G1 F1800 X109.458 Y107.34 E65.65617
M204 S5000
M205 X30 Y30
G0 F15000 X108.963 Y107.34
M204 S500
M205 X5 Y5
G1 F1800 X104.24 Y112.062 E65.71114
M204 S5000
M205 X30 Y30
G0 F15000 X104.24 Y111.568
M204 S500
M205 X5 Y5
G1 F1800 X108.468 Y107.34 E65.76034
M204 S5000
M205 X30 Y30
G0 F15000 X107.973 Y107.34
M204 S500
M205 X5 Y5
G1 F1800 X104.24 Y111.073 E65.80379
M204 S5000
M205 X30 Y30
G0 F15000 X104.24 Y110.578
M204 S500
M205 X5 Y5
G1 F1800 X107.478 Y107.34 E65.84148
M204 S5000
M205 X30 Y30
G0 F15000 X106.983 Y107.34
M204 S500
M205 X5 Y5
G1 F1800 X104.24 Y110.083 E65.8734
M204 S5000
M205 X30 Y30
G0 F15000 X104.24 Y109.588
M204 S500
M205 X5 Y5
G1 F1800 X106.52 Y107.308 E65.89994
M204 S5000
M205 X30 Y30
G0 F15000 X106.129 Y107.204
M204 S500
M205 X5 Y5
G1 F1800 X104.24 Y109.093 E65.92192
M204 S5000
M205 X30 Y30
G0 F15000 X104.24 Y108.598
M204 S500
M205 X5 Y5
G1 F1800 X105.742 Y107.096 E65.9394
M204 S5000
M205 X30 Y30
G0 F15000 X105.419 Y106.925
M204 S500
M205 X5 Y5
G1 F1800 X104.24 Y108.103 E65.95312
M204 S5000
M205 X30 Y30
G0 F15000 X104.24 Y107.608
M204 S500
M205 X5 Y5
G1 F1800 X105.111 Y106.737 E65.96325
M204 S5000
M205 X30 Y30
G0 F15000 X104.82 Y106.533
M204 S500
M205 X5 Y5
G1 F1800 X104.24 Y107.113 E65.97
M204 S5000
M205 X30 Y30
G0 F15000 X104.24 Y106.618
M204 S500
M205 X5 Y5
G1 F1800 X104.581 Y106.277 E65.97397
M204 S5000
M205 X30 Y30
G0 F15000 X104.342 Y106.021
M204 S500
M205 X5 Y5
G1 F1800 X104.24 Y106.123 E65.97516
M204 S5000
M205 X30 Y30
;MESH:NONMESH
G0 F600 X104.24 Y106.123 Z0.87
G0 F15000 X104.411 Y103.462
G0 X104.652 Y102.784
G0 X105.067 Y102.195
G0 X105.627 Y101.741
G0 X106.286 Y101.454
G0 X126.412 Y101.128
;TIME_ELAPSED:243.569626
;LAYER:4
M204 S1000
M205 X10 Y10
;TYPE:WALL-INNER
;MESH:OLED holder.stl
G1 F2400 X126.029 Y101.1 E65.97787
G1 X106.945 Y101.1 E66.11249
G1 X106.214 Y101.2 E66.11769
G1 X106.064 Y101.265 E66.11884
G1 X105.689 Y101.43 E66.12173
G1 X105.49 Y101.516 E66.12326
G1 X104.875 Y102.015 E66.12885
G1 X104.849 Y102.052 E66.12917
G1 X104.777 Y102.155 E66.13006
G1 X104.52 Y102.519 E66.1332
G1 X104.418 Y102.663 E66.13444
G1 X104.153 Y103.409 E66.14003
G1 X104.143 Y103.559 E66.14109
G1 X104.1 Y104.198 E66.14561
G1 X104.261 Y104.973 E66.15119
G1 X104.625 Y105.677 E66.15678
G1 X105.166 Y106.256 E66.16237
G1 X105.841 Y106.667 E66.16794
G1 X106.577 Y106.872 E66.17333
G1 X106.971 Y106.9 E66.17612
G1 X126.055 Y106.9 E66.31074
G1 X126.786 Y106.8 E66.31594
G1 X127.51 Y106.484 E66.32151
G1 X128.125 Y105.985 E66.3271
G1 X128.582 Y105.337 E66.33269
G1 X128.847 Y104.591 E66.33828
G1 X128.894 Y103.895 E66.3432
G1 X128.9 Y103.802 E66.34386
G1 X128.892 Y103.759 E66.34417
G1 X128.739 Y103.027 E66.34944
G1 X128.375 Y102.323 E66.35503
G1 X127.899 Y101.813 E66.35995
G1 X127.834 Y101.744 E66.36062
G1 X127.183 Y101.348 E66.366
G1 X127.159 Y101.333 E66.3662
G1 X127.002 Y101.29 E66.36734
G1 X126.577 Y101.17 E66.37046
G1 X126.423 Y101.128 E66.37159
G1 X126.412 Y101.128 E66.37166
M204 S5000
M205 X30 Y30
G0 F15000 X126.372 Y101.425
M204 S1000
M205 X10 Y10
G1 F2400 X126.018 Y101.4 E66.37417
G1 X106.966 Y101.4 E66.50856
G1 X106.296 Y101.492 E66.51333
G1 X105.647 Y101.775 E66.51832
G1 X105.096 Y102.222 E66.52333
G1 X104.687 Y102.802 E66.52833
G1 X104.45 Y103.47 E66.53333
G1 X104.402 Y104.177 E66.53833
G1 X104.546 Y104.872 E66.54334
G1 X104.872 Y105.502 E66.54834
G1 X105.357 Y106.021 E66.55335
G1 X105.962 Y106.389 E66.55835
G1 X106.628 Y106.575 E66.56323
G1 X106.982 Y106.6 E66.56573
G1 X126.034 Y106.6 E66.70012
G1 X126.704 Y106.508 E66.70489
G1 X127.353 Y106.225 E66.70989
G1 X127.904 Y105.778 E66.71489
G1 X128.313 Y105.198 E66.7199
G1 X128.55 Y104.53 E66.7249
G1 X128.598 Y103.823 E66.7299
G1 X128.454 Y103.128 E66.7349
G1 X128.128 Y102.498 E66.73991
G1 X127.643 Y101.979 E66.74492
G1 X127.038 Y101.611 E66.74991
G1 X126.372 Y101.425 E66.75479
M204 S5000
M205 X30 Y30
G0 F15000 X126.316 Y101.747
M204 S500
M205 X5 Y5
;TYPE:WALL-OUTER
G1 F1800 X126.006 Y101.725 E66.75735
G1 X106.988 Y101.725 E66.91386
G1 X106.385 Y101.808 E66.91887
G1 X105.817 Y102.055 E66.92397
G1 X105.336 Y102.446 E66.92907
G1 X104.978 Y102.953 E66.93417
G1 X104.771 Y103.537 E66.93927
G1 X104.729 Y104.155 E66.94437
G1 X104.855 Y104.762 E66.94947
G1 X105.14 Y105.313 E66.95458
G1 X105.564 Y105.766 E66.95968
G1 X106.093 Y106.088 E66.96478
G1 X106.684 Y106.253 E66.96983
G1 X106.994 Y106.275 E66.97239
G1 X126.012 Y106.275 E67.1289
G1 X126.615 Y106.192 E67.13391
G1 X127.183 Y105.945 E67.13901
G1 X127.664 Y105.554 E67.14411
G1 X128.022 Y105.047 E67.14921
G1 X128.229 Y104.463 E67.15431
G1 X128.271 Y103.845 E67.15941
G1 X128.145 Y103.238 E67.16451
G1 X127.86 Y102.687 E67.16962
G1 X127.436 Y102.234 E67.17472
G1 X126.907 Y101.912 E67.17982
G1 X126.316 Y101.747 E67.18487
M204 S5000
M205 X30 Y30
G0 F15000 X126.116 Y101.733
G0 X126.144 Y101.348
G0 X126.432 Y100.835
M204 S1000
M205 X10 Y10
;TYPE:WALL-INNER
G1 F2400 X126.482 Y100.845 E67.18522
G1 X126.638 Y100.878 E67.18633
G1 X126.929 Y100.94 E67.18843
G1 X127.109 Y101.01 E67.18979
G1 X127.261 Y101.069 E67.19091
G1 X127.334 Y101.098 E67.19145
G1 X127.777 Y101.341 E67.19502
G1 X128.008 Y101.523 E67.19709
G1 X128.116 Y101.609 E67.19804
G1 X128.478 Y101.978 E67.20168
G1 X128.606 Y102.162 E67.20326
G1 X128.718 Y102.323 E67.20465
G1 X128.957 Y102.782 E67.2083
G1 X129.008 Y102.938 E67.20946
G1 X129.088 Y103.181 E67.21126
G1 X129.184 Y103.698 E67.21497
G1 X129.188 Y103.788 E67.2156
G1 X129.192 Y103.882 E67.21625
G1 X129.2 Y104.031 E67.2173
G1 X129.2 Y114.2 E67.28903
G1 X103.8 Y114.2 E67.4682
G1 X103.8 Y104.016 E67.54004
G1 X103.835 Y103.568 E67.54321
G1 X103.85 Y103.5 E67.5437
G1 X103.88 Y103.352 E67.54473
G1 X103.94 Y103.071 E67.54676
G1 X104.098 Y102.666 E67.54982
G1 X104.173 Y102.529 E67.55093
G1 X104.258 Y102.374 E67.55213
G1 X104.341 Y102.223 E67.55335
G1 X104.531 Y101.982 E67.55551
G1 X104.609 Y101.884 E67.55638
G1 X104.679 Y101.816 E67.55705
G1 X104.978 Y101.522 E67.56001
G1 X105.326 Y101.28 E67.563
G1 X105.358 Y101.264 E67.56325
G1 X105.55 Y101.164 E67.56474
G1 X105.782 Y101.043 E67.56659
G1 X105.969 Y100.982 E67.56797
G1 X106.125 Y100.931 E67.5691
G1 X106.181 Y100.912 E67.56952
G1 X106.698 Y100.816 E67.57323
G1 X106.931 Y100.805 E67.57487
G1 X107.037 Y100.8 E67.57562
G1 X125.978 Y100.8 E67.70923
G1 X126.051 Y100.805 E67.70975
G1 X126.432 Y100.835 E67.7124
M204 S5000
M205 X30 Y30
G0 F15000 X126.472 Y100.537
M204 S1000
M205 X10 Y10
G1 F2400 X127.015 Y100.652 E67.71631
G1 X127.463 Y100.827 E67.71971
G1 X127.946 Y101.092 E67.72359
G1 X128.318 Y101.385 E67.72693
G1 X128.706 Y101.782 E67.73085
G1 X128.723 Y101.807 E67.73106
G1 X128.979 Y102.174 E67.73422
G1 X129.234 Y102.663 E67.73811
G1 X129.38 Y103.109 E67.74142
G1 X129.483 Y103.665 E67.74541
G1 X129.5 Y104.016 E67.74789
G1 X129.5 Y114.5 E67.82184
G1 X103.5 Y114.5 E68.00524
G1 X103.5 Y104.012 E68.07922
G1 X103.537 Y103.528 E68.08265
G1 X103.652 Y102.985 E68.08656
G1 X103.827 Y102.537 E68.08996
G1 X104.092 Y102.054 E68.09384
G1 X104.385 Y101.682 E68.09718
G1 X104.782 Y101.294 E68.1011
G1 X104.807 Y101.277 E68.10131
G1 X105.174 Y101.021 E68.10447
G1 X105.663 Y100.766 E68.10836
G1 X106.109 Y100.62 E68.11167
G1 X106.665 Y100.517 E68.11566
G1 X107.023 Y100.5 E68.11819
G1 X125.988 Y100.5 E68.25196
G1 X126.472 Y100.537 E68.25539
M204 S5000
M205 X30 Y30
G0 F15000 X126.519 Y100.215
M204 S500
M205 X5 Y5
;TYPE:WALL-OUTER
G1 F1800 X127.109 Y100.34 E68.26035
G1 X127.602 Y100.532 E68.26471
G1 X128.122 Y100.818 E68.26959
G1 X128.539 Y101.146 E68.27396
G1 X128.954 Y101.571 E68.27884
G1 X129.258 Y102.006 E68.28321
G1 X129.535 Y102.539 E68.28815
G1 X129.696 Y103.03 E68.29241
G1 X129.807 Y103.627 E68.2974
G1 X129.825 Y104 E68.30048
G1 X129.825 Y114.825 E68.38956
G1 X103.175 Y114.825 E68.60888
G1 X103.175 Y104 E68.69797
G1 X103.215 Y103.481 E68.70225
G1 X103.34 Y102.891 E68.70722
G1 X103.532 Y102.398 E68.71157
G1 X103.818 Y101.878 E68.71645
G1 X104.146 Y101.461 E68.72082
G1 X104.571 Y101.046 E68.72571
G1 X105.006 Y100.742 E68.73008
G1 X105.539 Y100.465 E68.73502
G1 X106.03 Y100.304 E68.73927
G1 X106.627 Y100.193 E68.74427
G1 X107.008 Y100.175 E68.74741
G1 X126 Y100.175 E68.9037
G1 X126.519 Y100.215 E68.90799
M204 S5000
M205 X30 Y30
G0 F15000 X126.714 Y100.256
G0 X126.634 Y100.632
G0 X126.626 Y100.67
G0 X128.16 Y102.475
G0 X128.491 Y103.115
G0 X128.885 Y105.425
M204 S500
M205 X5 Y5
;TYPE:SKIN
G1 F1800 X128.885 Y113.885 E68.97761
G1 X104.115 Y113.885 E69.18146
G1 X104.115 Y105.377 E69.25148
G1 X104.365 Y105.86 E69.25595
G1 X104.965 Y106.502 E69.26318
G1 X105.715 Y106.959 E69.27041
G1 X106.523 Y107.184 E69.27731
G1 X106.96 Y107.215 E69.28092
G1 X126.076 Y107.215 E69.43824
G1 X126.872 Y107.106 E69.44485
G1 X127.676 Y106.755 E69.45207
G1 X128.358 Y106.202 E69.45929
G1 X128.864 Y105.484 E69.46652
G1 X128.885 Y105.425 E69.46704
M204 S5000
M205 X30 Y30
G0 F15000 X128.496 Y106.222
M204 S500
M205 X5 Y5
G1 F1800 X128.758 Y106.484 E69.47009
M204 S5000
M205 X30 Y30
G0 F15000 X128.758 Y106.979
M204 S500
M205 X5 Y5
G1 F1800 X128.239 Y106.46 E69.47613
M204 S5000
M205 X30 Y30
G0 F15000 X127.965 Y106.681
M204 S500
M205 X5 Y5
G1 F1800 X128.758 Y107.474 E69.48536
M204 S5000
M205 X30 Y30
G0 F15000 X128.758 Y107.969
M204 S500
M205 X5 Y5
G1 F1800 X127.679 Y106.89 E69.49791
M204 S5000
M205 X30 Y30
G0 F15000 X127.335 Y107.041
M204 S500
M205 X5 Y5
G1 F1800 X128.758 Y108.464 E69.51448
M204 S5000
M205 X30 Y30
G0 F15000 X128.758 Y108.959
M204 S500
M205 X5 Y5
G1 F1800 X126.99 Y107.191 E69.53505
M204 S5000
M205 X30 Y30
G0 F15000 X126.577 Y107.273
M204 S500
M205 X5 Y5
G1 F1800 X128.758 Y109.454 E69.56044
M204 S5000
M205 X30 Y30
G0 F15000 X128.758 Y109.949
M204 S500
M205 X5 Y5
G1 F1800 X126.142 Y107.333 E69.59088
M204 S5000
M205 X30 Y30
G0 F15000 X125.654 Y107.34
M204 S500
M205 X5 Y5
G1 F1800 X128.758 Y110.444 E69.62701
M204 S5000
M205 X30 Y30
G0 F15000 X128.758 Y110.939
M204 S500
M205 X5 Y5
G1 F1800 X125.16 Y107.34 E69.66889
M204 S5000
M205 X30 Y30
G0 F15000 X124.665 Y107.34
M204 S500
M205 X5 Y5
G1 F1800 X128.758 Y111.434 E69.71653
M204 S5000
M205 X30 Y30
G0 F15000 X128.758 Y111.929
M204 S500
M205 X5 Y5
G1 F1800 X124.17 Y107.34 E69.76993
M204 S5000
M205 X30 Y30
G0 F15000 X123.675 Y107.34
M204 S500
M205 X5 Y5
G1 F1800 X128.758 Y112.424 E69.8291
M204 S5000
M205 X30 Y30
G0 F15000 X128.758 Y112.919
M204 S500
M205 X5 Y5
G1 F1800 X123.18 Y107.34 E69.89402
M204 S5000
M205 X30 Y30
G0 F15000 X122.685 Y107.34
M204 S500
M205 X5 Y5
G1 F1800 X128.758 Y113.414 E69.96471
M204 S5000
M205 X30 Y30
G0 F15000 X128.607 Y113.758
M204 S500
M205 X5 Y5
G1 F1800 X122.19 Y107.34 E70.0394
M204 S5000
M205 X30 Y30
G0 F15000 X121.695 Y107.34
M204 S500
M205 X5 Y5
G1 F1800 X128.112 Y113.758 E70.11409
M204 S5000
M205 X30 Y30
G0 F15000 X127.617 Y113.758
M204 S500
M205 X5 Y5
G1 F1800 X121.2 Y107.34 E70.18878
M204 S5000
M205 X30 Y30
G0 F15000 X120.705 Y107.34
M204 S500
M205 X5 Y5
