;START_OF_HEADER
;HEADER_VERSION:0.1
;FLAVOR:Griffin
;GENERATOR.NAME:Cura_SteamEngine
;GENERATOR.VERSION:4.7.1
;GENERATOR.BUILD_DATE:2020-09-02
;TARGET_MACHINE.NAME:Ultimaker 3
;EXTRUDER_TRAIN.0.INITIAL_TEMPERATURE:200
;EXTRUDER_TRAIN.0.MATERIAL.VOLUME_USED:327
;EXTRUDER_TRAIN.0.MATERIAL.GUID:506c9f0d-e3aa-4bd4-b2d2-23e2425b1aa9
;EXTRUDER_TRAIN.0.NOZZLE.DIAMETER:0.4
;EXTRUDER_TRAIN.0.NOZZLE.NAME:AA 0.4
;BUILD_PLATE.TYPE:glass
;BUILD_PLATE.INITIAL_TEMPERATURE:60
;PRINT.TIME:505
;PRINT.GROUPS:1
;PRINT.SIZE.MIN.X:9
;PRINT.SIZE.MIN.Y:6
;PRINT.SIZE.MIN.Z:0.27
;PRINT.SIZE.MAX.X:139.224
;PRINT.SIZE.MAX.Y:116.516
;PRINT.SIZE.MAX.Z:4.95
;END_OF_HEADER
;Generated with Cura_SteamEngine 4.7.1
T0
M82 ;absolute extrusion mode

G92 E0
M109 S200
G0 F15000 X9 Y6 Z2
G280
G1 F1500 E-6.5
;LAYER_COUNT:79
;LAYER:0
M107
M204 S625
M205 X6 Y6
G1 F600 Z2.27
G0 F5000 X96.479 Y103.193 Z2.27
M204 S500
M205 X5 Y5
;TYPE:SKIRT
G1 F600 Z0.27
G1 F1500 E0
G1 F1200 X97.071 Y102.742 E0.01323
G1 X97.708 Y102.357 E0.02646
G1 X98.383 Y102.043 E0.03969
G1 X99.087 Y101.802 E0.05292
G1 X99.813 Y101.639 E0.06615
G1 X100.553 Y101.555 E0.07939
G1 X101.297 Y101.55 E0.09261
G1 X101.431 Y101.563 E0.095
G1 X102.393 Y101.165 E0.11351
G1 X102.622 Y101.075 E0.11788
G1 X103.671 Y100.684 E0.13779
G1 X103.901 Y100.603 E0.14212
G1 X104.961 Y100.25 E0.16198
G1 X105.197 Y100.176 E0.16638
G1 X106.238 Y99.87 E0.18566
G1 X106.478 Y99.804 E0.19009
G1 X107.559 Y99.528 E0.20992
G1 X107.797 Y99.472 E0.21427
G1 X108.889 Y99.234 E0.23413
G1 X109.13 Y99.186 E0.2385
G1 X110.229 Y98.987 E0.25836
G1 X110.478 Y98.947 E0.26284
G1 X111.584 Y98.788 E0.2827
G1 X111.826 Y98.757 E0.28704
G1 X112.937 Y98.637 E0.3069
G1 X113.184 Y98.615 E0.31131
G1 X114.297 Y98.535 E0.33115
G1 X114.552 Y98.521 E0.33569
G1 X115.668 Y98.482 E0.35554
G1 X115.916 Y98.478 E0.35994
G1 X117.063 Y98.479 E0.38033
G1 X117.305 Y98.483 E0.38464
G1 X118.421 Y98.523 E0.40449
G1 X118.676 Y98.537 E0.40903
G1 X119.79 Y98.618 E0.42888
G1 X120.039 Y98.641 E0.43333
G1 X121.148 Y98.762 E0.45316
G1 X121.387 Y98.792 E0.45744
G1 X122.494 Y98.952 E0.47732
G1 X122.745 Y98.993 E0.48184
G1 X123.843 Y99.193 E0.50168
G1 X124.078 Y99.24 E0.50594
G1 X125.169 Y99.478 E0.52579
G1 X125.418 Y99.537 E0.53034
G1 X126.472 Y99.808 E0.54968
G1 X126.697 Y99.87 E0.55383
G1 X127.767 Y100.184 E0.57366
G1 X128.015 Y100.262 E0.57828
G1 X129.073 Y100.616 E0.59811
G1 X129.296 Y100.695 E0.60231
G1 X130.344 Y101.086 E0.6222
G1 X130.582 Y101.18 E0.62675
G1 X131.506 Y101.564 E0.64453
G1 X132.179 Y101.548 E0.6565
G1 X132.921 Y101.61 E0.66974
G1 X133.651 Y101.751 E0.68295
G1 X134.363 Y101.969 E0.69619
G1 X135.047 Y102.263 E0.70942
G1 X135.695 Y102.628 E0.72264
G1 X136.254 Y103.018 E0.73476
G1 X136.832 Y103.488 E0.748
G1 X137.356 Y104.016 E0.76123
G1 X137.82 Y104.598 E0.77446
G1 X138.373 Y105.514 E0.79348
G1 X138.487 Y105.741 E0.79799
G1 X138.785 Y106.423 E0.81122
G1 X139.008 Y107.133 E0.82445
G1 X139.153 Y107.863 E0.83768
G1 X139.224 Y108.933 E0.85674
G1 X139.221 Y109.186 E0.86124
G1 X139.172 Y109.929 E0.87448
G1 X139.044 Y110.662 E0.8877
G1 X138.838 Y111.377 E0.90093
G1 X138.406 Y112.365 E0.9201
G1 X138.286 Y112.59 E0.92463
G1 X137.901 Y113.227 E0.93786
G1 X137.45 Y113.819 E0.95109
G1 X136.938 Y114.359 E0.96432
G1 X136.371 Y114.842 E0.97756
G1 X135.812 Y115.231 E0.98967
G1 X135.173 Y115.611 E1.00288
G1 X134.496 Y115.921 E1.01612
G1 X133.79 Y116.156 E1.02934
G1 X132.993 Y116.325 E1.04383
G1 X132.207 Y116.444 E1.05796
G1 X131.467 Y116.516 E1.07117
G1 X130.826 Y116.513 E1.08257
G1 X130.021 Y116.473 E1.0969
G1 X129.281 Y116.397 E1.11012
G1 X128.431 Y116.221 E1.12555
G1 X127.714 Y116.02 E1.13879
G1 X127.065 Y115.763 E1.15119
G1 X126.144 Y115.343 E1.16919
G1 X125.402 Y115.034 E1.18348
G1 X124.524 Y114.708 E1.20012
G1 X123.704 Y114.435 E1.21549
G1 X122.891 Y114.196 E1.23055
G1 X122.038 Y113.978 E1.2462
G1 X121.226 Y113.801 E1.26097
G1 X120.335 Y113.64 E1.27707
G1 X119.472 Y113.515 E1.29257
G1 X118.634 Y113.425 E1.30755
G1 X117.755 Y113.363 E1.32322
G1 X116.87 Y113.331 E1.33896
G1 X115.974 Y113.332 E1.35488
G1 X115.129 Y113.363 E1.36992
G1 X114.232 Y113.428 E1.3859
G1 X113.39 Y113.52 E1.40096
G1 X112.503 Y113.648 E1.41689
G1 X111.662 Y113.8 E1.43208
G1 X110.812 Y113.987 E1.44755
G1 X110.005 Y114.194 E1.46236
G1 X109.145 Y114.447 E1.4783
G1 X108.348 Y114.713 E1.49323
G1 X107.511 Y115.026 E1.50912
G1 X106.712 Y115.358 E1.5245
G1 X105.805 Y115.773 E1.54223
G1 X105.112 Y116.045 E1.55546
G1 X104.394 Y116.243 E1.5687
G1 X103.965 Y116.322 E1.57646
G1 X103.184 Y116.441 E1.5905
G1 X102.443 Y116.513 E1.60373
G1 X101.787 Y116.511 E1.61539
G1 X101.003 Y116.471 E1.62935
G1 X100.263 Y116.393 E1.64258
G1 X99.498 Y116.238 E1.65645
G1 X98.78 Y116.042 E1.66968
G1 X98.087 Y115.77 E1.68291
G1 X97.428 Y115.425 E1.69614
G1 X96.809 Y115.012 E1.70936
G1 X96.238 Y114.534 E1.7226
G1 X95.689 Y113.97 E1.73659
G1 X95.212 Y113.399 E1.74982
G1 X94.799 Y112.779 E1.76306
G1 X94.454 Y112.119 E1.7763
G1 X94.183 Y111.426 E1.78953
G1 X94.031 Y110.897 E1.79931
G1 X93.961 Y110.611 E1.80454
G1 X93.823 Y109.879 E1.81779
G1 X93.764 Y109.137 E1.83102
G1 X93.785 Y108.393 E1.84425
G1 X93.886 Y107.656 E1.85747
G1 X94.014 Y107.109 E1.86746
G1 X94.092 Y106.828 E1.87264
G1 X94.33 Y106.123 E1.88587
G1 X94.641 Y105.447 E1.89909
G1 X95.024 Y104.808 E1.91234
G1 X95.472 Y104.214 E1.92556
G1 X95.939 Y103.705 E1.93784
G1 X96.479 Y103.193 E1.95107
M204 S625
M205 X6 Y6
G0 F5000 X96.768 Y103.499
M204 S500
M205 X5 Y5
G1 F1200 X97.344 Y103.065 E1.96389
G1 X97.965 Y102.697 E1.97672
G1 X98.622 Y102.4 E1.98954
G1 X99.308 Y102.177 E2.00236
G1 X100.015 Y102.032 E2.01519
G1 X100.733 Y101.966 E2.02801
G1 X101.455 Y101.98 E2.04084
G1 X101.524 Y101.979 E2.04207
G1 X102.554 Y101.553 E2.06188
G1 X102.768 Y101.469 E2.06597
G1 X103.817 Y101.078 E2.08587
G1 X104.034 Y101.001 E2.08996
G1 X105.094 Y100.648 E2.10982
G1 X105.315 Y100.579 E2.11394
G1 X106.356 Y100.273 E2.13323
G1 X106.582 Y100.211 E2.13739
G1 X107.663 Y99.935 E2.15722
G1 X107.887 Y99.882 E2.16132
G1 X108.979 Y99.644 E2.18118
G1 X109.205 Y99.599 E2.18528
G1 X110.304 Y99.4 E2.20513
G1 X110.538 Y99.362 E2.20935
G1 X111.644 Y99.203 E2.22921
G1 X111.871 Y99.175 E2.23328
G1 X112.982 Y99.055 E2.25314
G1 X113.214 Y99.034 E2.25728
G1 X114.327 Y98.954 E2.27712
G1 X114.567 Y98.941 E2.28139
G1 X115.683 Y98.902 E2.30124
G1 X115.916 Y98.898 E2.30538
G1 X117.063 Y98.899 E2.32577
G1 X117.29 Y98.903 E2.32981
G1 X118.406 Y98.943 E2.34966
G1 X118.645 Y98.956 E2.35391
G1 X119.759 Y99.037 E2.37377
G1 X119.993 Y99.058 E2.37794
G1 X121.102 Y99.179 E2.39777
G1 X121.327 Y99.208 E2.40181
G1 X122.434 Y99.368 E2.42169
G1 X122.67 Y99.406 E2.42594
G1 X123.768 Y99.606 E2.44578
G1 X123.989 Y99.651 E2.44979
G1 X125.08 Y99.889 E2.46964
G1 X125.313 Y99.944 E2.47389
G1 X126.367 Y100.215 E2.49324
G1 X126.579 Y100.273 E2.49714
G1 X127.649 Y100.587 E2.51697
G1 X127.882 Y100.66 E2.52131
G1 X128.94 Y101.014 E2.54114
G1 X129.15 Y101.089 E2.5451
G1 X130.198 Y101.48 E2.56499
G1 X130.421 Y101.568 E2.56925
G1 X131.436 Y101.99 E2.58879
G1 X131.49 Y101.983 E2.58975
G1 X132.211 Y101.969 E2.60257
G1 X132.929 Y102.035 E2.61539
G1 X133.636 Y102.18 E2.62822
G1 X134.322 Y102.403 E2.64104
G1 X134.98 Y102.7 E2.65387
G1 X135.802 Y103.209 E2.67106
G1 X136.007 Y103.358 E2.67557
G1 X136.567 Y103.814 E2.6884
G1 X137.072 Y104.329 E2.70122
G1 X137.517 Y104.896 E2.71404
G1 X137.998 Y105.702 E2.73072
G1 X138.112 Y105.929 E2.73524
G1 X138.399 Y106.591 E2.74806
G1 X138.612 Y107.28 E2.76088
G1 X138.747 Y107.989 E2.77371
G1 X138.804 Y108.928 E2.79044
G1 X138.801 Y109.181 E2.79493
G1 X138.752 Y109.901 E2.80776
G1 X138.624 Y110.611 E2.82059
G1 X138.419 Y111.302 E2.8334
G1 X138.035 Y112.168 E2.85024
G1 X137.915 Y112.393 E2.85477
G1 X137.541 Y113.009 E2.86758
G1 X137.101 Y113.581 E2.88041
G1 X136.6 Y114.1 E2.89323
G1 X135.794 Y114.738 E2.9115
G1 X135.579 Y114.882 E2.9161
G1 X134.958 Y115.25 E2.92894
G1 X134.3 Y115.546 E2.94176
G1 X133.614 Y115.768 E2.95458
G1 X132.931 Y115.91 E2.96698
G1 X132.145 Y116.029 E2.98111
G1 X131.426 Y116.097 E2.99395
G1 X130.847 Y116.094 E3.00424
G1 X130.042 Y116.054 E3.01857
G1 X129.325 Y115.978 E3.03138
G1 X128.522 Y115.811 E3.04596
G1 X127.828 Y115.615 E3.05878
G1 X127.239 Y115.381 E3.07005
G1 X126.318 Y114.961 E3.08804
G1 X125.541 Y114.637 E3.10301
G1 X124.679 Y114.317 E3.11935
G1 X123.822 Y114.032 E3.13541
G1 X122.998 Y113.79 E3.15067
G1 X122.143 Y113.572 E3.16636
G1 X121.282 Y113.384 E3.18202
G1 X120.415 Y113.227 E3.19769
G1 X119.549 Y113.102 E3.21324
G1 X118.653 Y113.005 E3.22926
G1 X117.772 Y112.943 E3.24496
G1 X116.885 Y112.911 E3.26074
G1 X115.987 Y112.912 E3.2767
G1 X115.082 Y112.945 E3.2928
G1 X114.214 Y113.008 E3.30827
G1 X113.312 Y113.106 E3.3244
G1 X112.451 Y113.231 E3.33986
G1 X111.573 Y113.39 E3.35572
G1 X110.732 Y113.575 E3.37103
G1 X109.87 Y113.796 E3.38685
G1 X109.034 Y114.042 E3.40234
G1 X108.184 Y114.326 E3.41827
G1 X107.368 Y114.63 E3.43375
G1 X106.541 Y114.974 E3.44967
G1 X105.63 Y115.391 E3.46748
G1 X104.958 Y115.654 E3.48031
G1 X104.262 Y115.841 E3.49312
G1 X103.902 Y115.907 E3.49962
G1 X103.121 Y116.026 E3.51367
G1 X102.403 Y116.095 E3.52649
G1 X101.808 Y116.092 E3.53707
G1 X101.024 Y116.052 E3.55102
G1 X99.98 Y115.913 E3.56974
G1 X99.587 Y115.828 E3.57689
G1 X98.891 Y115.637 E3.58972
G1 X98.221 Y115.369 E3.60255
G1 X97.585 Y115.03 E3.61536
G1 X96.99 Y114.622 E3.62818
G1 X96.197 Y113.9 E3.64725
G1 X95.996 Y113.684 E3.65249
G1 X95.535 Y113.129 E3.66532
G1 X95.138 Y112.527 E3.67813
G1 X94.809 Y111.885 E3.69096
G1 X94.554 Y111.21 E3.70378
G1 X94.369 Y110.511 E3.71664
G1 X94.236 Y109.802 E3.72946
G1 X94.183 Y109.082 E3.74229
G1 X94.21 Y108.361 E3.75512
G1 X94.316 Y107.648 E3.76793
G1 X94.497 Y106.941 E3.78091
G1 X94.728 Y106.257 E3.79374
G1 X95.034 Y105.604 E3.80656
G1 X95.409 Y104.988 E3.81938
G1 X96.045 Y104.204 E3.83732
G1 X96.244 Y103.994 E3.84247
G1 X96.768 Y103.499 E3.85528
M204 S625
M205 X6 Y6
G0 F5000 X97.057 Y103.805
M204 S500
M205 X5 Y5
G1 F1200 X97.616 Y103.388 E3.86768
G1 X98.22 Y103.038 E3.88009
G1 X98.859 Y102.759 E3.89248
G1 X99.526 Y102.555 E3.90488
G1 X100.213 Y102.429 E3.91729
G1 X100.909 Y102.382 E3.9297
G1 X101.547 Y102.427 E3.94106
G1 X101.684 Y102.367 E3.94372
G1 X102.714 Y101.941 E3.96354
G1 X102.915 Y101.863 E3.96737
G1 X103.964 Y101.472 E3.98727
G1 X104.167 Y101.4 E3.9911
G1 X105.227 Y101.047 E4.01096
G1 X105.434 Y100.982 E4.01481
G1 X106.475 Y100.676 E4.0341
G1 X106.685 Y100.618 E4.03798
G1 X107.766 Y100.342 E4.05781
G1 X107.976 Y100.293 E4.06164
G1 X109.068 Y100.055 E4.08151
G1 X109.28 Y100.012 E4.08535
G1 X110.379 Y99.813 E4.10521
G1 X110.597 Y99.778 E4.10913
G1 X111.703 Y99.619 E4.12899
G1 X111.916 Y99.592 E4.13281
G1 X113.027 Y99.472 E4.15267
G1 X113.244 Y99.453 E4.15655
G1 X114.357 Y99.373 E4.17638
G1 X114.581 Y99.361 E4.18037
G1 X115.697 Y99.322 E4.20022
G1 X115.915 Y99.318 E4.2041
G1 X117.062 Y99.319 E4.22448
G1 X117.275 Y99.323 E4.22827
G1 X118.391 Y99.363 E4.24812
G1 X118.615 Y99.375 E4.25211
G1 X119.729 Y99.456 E4.27196
G1 X119.948 Y99.476 E4.27587
G1 X121.057 Y99.597 E4.2957
G1 X121.267 Y99.624 E4.29947
G1 X122.374 Y99.784 E4.31935
G1 X122.594 Y99.82 E4.32331
G1 X123.692 Y100.02 E4.34315
G1 X123.899 Y100.061 E4.3469
G1 X124.99 Y100.299 E4.36675
G1 X125.209 Y100.351 E4.37075
G1 X126.263 Y100.622 E4.3901
G1 X126.461 Y100.676 E4.39375
G1 X127.531 Y100.99 E4.41357
G1 X127.748 Y101.059 E4.41762
G1 X128.806 Y101.413 E4.43745
G1 X129.003 Y101.482 E4.44116
G1 X130.051 Y101.873 E4.46104
G1 X130.26 Y101.956 E4.46504
G1 X131.292 Y102.385 E4.48491
G1 X131.376 Y102.422 E4.48654
G1 X131.544 Y102.4 E4.48955
G1 X132.241 Y102.391 E4.50194
G1 X132.936 Y102.461 E4.51436
G1 X133.617 Y102.611 E4.52675
G1 X134.277 Y102.837 E4.53916
G1 X134.907 Y103.137 E4.55156
G1 X135.556 Y103.549 E4.56522
G1 X135.761 Y103.698 E4.56973
G1 X136.3 Y104.14 E4.58212
G1 X136.786 Y104.64 E4.59451
G1 X137.212 Y105.193 E4.60692
G1 X137.622 Y105.891 E4.62131
G1 X137.736 Y106.118 E4.62583
G1 X138.013 Y106.758 E4.63822
G1 X138.215 Y107.426 E4.65063
G1 X138.339 Y108.113 E4.66304
G1 X138.384 Y108.923 E4.67746
G1 X138.381 Y109.176 E4.68196
G1 X138.332 Y109.872 E4.69436
G1 X138.205 Y110.558 E4.70676
G1 X138 Y111.225 E4.71917
G1 X137.665 Y111.97 E4.73369
G1 X137.545 Y112.195 E4.73822
G1 X137.181 Y112.791 E4.75063
G1 X136.753 Y113.341 E4.76302
G1 X136.264 Y113.839 E4.77543
G1 X135.56 Y114.389 E4.79131
G1 X135.345 Y114.533 E4.79591
G1 X134.744 Y114.887 E4.80831
G1 X134.106 Y115.171 E4.82072
G1 X133.441 Y115.379 E4.83311
G1 X132.868 Y115.494 E4.8435
G1 X132.082 Y115.613 E4.85763
G1 X131.387 Y115.678 E4.87004
G1 X130.868 Y115.674 E4.87926
G1 X130.063 Y115.634 E4.89359
G1 X129.039 Y115.496 E4.91196
G1 X128.613 Y115.401 E4.91971
G1 X127.942 Y115.21 E4.93212
G1 X127.414 Y114.999 E4.94222
G1 X126.489 Y114.577 E4.9603
G1 X125.684 Y114.242 E4.9758
G1 X124.825 Y113.923 E4.99208
G1 X123.949 Y113.631 E5.0085
G1 X123.112 Y113.386 E5.024
G1 X122.255 Y113.167 E5.03972
G1 X121.358 Y112.971 E5.05605
G1 X120.467 Y112.81 E5.07214
G1 X119.599 Y112.684 E5.08773
G1 X118.7 Y112.587 E5.10381
G1 X117.788 Y112.523 E5.12006
G1 X116.899 Y112.491 E5.13587
G1 X115.971 Y112.492 E5.15237
G1 X115.065 Y112.525 E5.16848
G1 X114.164 Y112.591 E5.18454
G1 X113.294 Y112.685 E5.2001
G1 X112.366 Y112.819 E5.21676
G1 X111.495 Y112.977 E5.2325
G1 X110.626 Y113.168 E5.24831
G1 X109.766 Y113.389 E5.2641
G1 X108.891 Y113.646 E5.28031
G1 X108.07 Y113.92 E5.2957
G1 X107.202 Y114.245 E5.31217
G1 X106.37 Y114.59 E5.32818
G1 X105.455 Y115.009 E5.34607
G1 X104.805 Y115.262 E5.35847
G1 X103.838 Y115.492 E5.37614
G1 X103.057 Y115.611 E5.39018
G1 X102.363 Y115.676 E5.40257
G1 X101.83 Y115.672 E5.41205
G1 X101.046 Y115.632 E5.426
G1 X100.069 Y115.502 E5.44352
G1 X99.676 Y115.417 E5.45067
G1 X99.003 Y115.231 E5.46308
G1 X98.357 Y114.969 E5.47547
G1 X97.744 Y114.635 E5.48788
G1 X97.174 Y114.233 E5.50028
G1 X96.505 Y113.614 E5.51648
G1 X96.304 Y113.398 E5.52173
G1 X95.858 Y112.861 E5.53414
G1 X95.478 Y112.276 E5.54654
G1 X95.166 Y111.652 E5.55894
G1 X94.847 Y110.697 E5.57684
G1 X94.777 Y110.411 E5.58207
G1 X94.65 Y109.725 E5.59447
G1 X94.602 Y109.029 E5.60687
G1 X94.635 Y108.332 E5.61928
G1 X94.824 Y107.334 E5.63733
G1 X94.902 Y107.053 E5.64252
G1 X95.127 Y106.393 E5.65491
G1 X95.426 Y105.762 E5.66732
G1 X95.795 Y105.17 E5.67972
G1 X96.35 Y104.493 E5.69529
G1 X96.549 Y104.283 E5.70043
G1 X97.057 Y103.805 E5.71283
M204 S625
M205 X6 Y6
G0 F5000 X97.345 Y104.112
M204 S500
M205 X5 Y5
G1 F1200 X97.887 Y103.713 E5.72479
G1 X98.473 Y103.381 E5.73676
G1 X99.094 Y103.121 E5.74873
G1 X99.741 Y102.937 E5.76069
G1 X100.406 Y102.83 E5.77266
G1 X101.079 Y102.803 E5.78463
G1 X101.629 Y102.849 E5.79444
G1 X101.845 Y102.755 E5.79863
G1 X102.875 Y102.329 E5.81845
G1 X103.062 Y102.256 E5.82201
G1 X104.111 Y101.865 E5.84191
G1 X104.3 Y101.798 E5.84548
G1 X105.36 Y101.445 E5.86534
G1 X105.552 Y101.385 E5.86891
G1 X106.593 Y101.079 E5.8882
G1 X106.789 Y101.025 E5.89182
G1 X107.87 Y100.749 E5.91165
G1 X108.066 Y100.703 E5.91523
G1 X109.158 Y100.465 E5.93509
G1 X109.355 Y100.426 E5.93866
G1 X110.454 Y100.227 E5.95852
G1 X110.657 Y100.194 E5.96217
G1 X111.763 Y100.035 E5.98204
G1 X111.961 Y100.01 E5.98558
G1 X113.072 Y99.89 E6.00545
G1 X113.275 Y99.872 E6.00907
G1 X114.388 Y99.792 E6.02891
G1 X114.596 Y99.78 E6.03261
G1 X115.712 Y99.741 E6.05246
G1 X115.915 Y99.738 E6.05607
G1 X117.062 Y99.739 E6.07646
G1 X117.26 Y99.743 E6.07998
G1 X118.376 Y99.783 E6.09983
G1 X118.584 Y99.794 E6.10353
G1 X119.698 Y99.875 E6.12339
G1 X119.902 Y99.893 E6.12703
G1 X121.011 Y100.014 E6.14686
G1 X121.207 Y100.039 E6.15037
G1 X122.314 Y100.199 E6.17025
G1 X122.519 Y100.233 E6.17395
G1 X123.617 Y100.433 E6.19378
G1 X123.809 Y100.471 E6.19726
G1 X124.9 Y100.709 E6.21711
G1 X125.104 Y100.758 E6.22084
G1 X126.158 Y101.029 E6.24019
G1 X126.343 Y101.079 E6.24359
G1 X127.413 Y101.393 E6.26342
G1 X127.615 Y101.457 E6.26718
G1 X128.673 Y101.811 E6.28702
G1 X128.856 Y101.876 E6.29047
G1 X129.904 Y102.267 E6.31035
G1 X130.098 Y102.343 E6.31405
G1 X131.13 Y102.772 E6.33392
G1 X131.316 Y102.853 E6.33753
G1 X131.597 Y102.818 E6.34256
G1 X132.27 Y102.813 E6.35452
G1 X132.939 Y102.888 E6.36649
G1 X133.595 Y103.041 E6.37847
G1 X134.227 Y103.272 E6.39043
G1 X134.828 Y103.575 E6.40239
G1 X135.309 Y103.888 E6.41259
G1 X135.514 Y104.037 E6.4171
G1 X136.034 Y104.465 E6.42907
G1 X136.499 Y104.951 E6.44103
G1 X136.904 Y105.489 E6.453
G1 X137.247 Y106.079 E6.46513
G1 X137.361 Y106.306 E6.46964
G1 X137.627 Y106.925 E6.48162
G1 X137.818 Y107.57 E6.49358
G1 X137.93 Y108.234 E6.50555
G1 X137.964 Y108.918 E6.51772
G1 X137.961 Y109.171 E6.52222
G1 X137.913 Y109.843 E6.53419
G1 X137.785 Y110.504 E6.54616
G1 X137.581 Y111.145 E6.55812
G1 X137.294 Y111.772 E6.57038
G1 X137.174 Y111.997 E6.57491
G1 X136.822 Y112.571 E6.58688
G1 X136.405 Y113.1 E6.59885
G1 X135.929 Y113.575 E6.61081
G1 X135.326 Y114.04 E6.62434
G1 X135.111 Y114.184 E6.62894
G1 X134.531 Y114.525 E6.6409
G1 X133.914 Y114.794 E6.65287
G1 X133.269 Y114.989 E6.66485
G1 X132.805 Y115.079 E6.67325
G1 X132.019 Y115.198 E6.68738
G1 X131.348 Y115.259 E6.69936
G1 X130.889 Y115.255 E6.70751
G1 X130.084 Y115.215 E6.72184
G1 X129.131 Y115.086 E6.73894
G1 X128.705 Y114.991 E6.7467
G1 X128.058 Y114.806 E6.75866
G1 X127.588 Y114.617 E6.76766
G1 X126.637 Y114.184 E6.78624
G1 X125.867 Y113.863 E6.80107
G1 X124.954 Y113.523 E6.81838
G1 X124.066 Y113.228 E6.83502
G1 X123.219 Y112.979 E6.85071
G1 X122.333 Y112.753 E6.86697
G1 X121.467 Y112.564 E6.88272
G1 X120.546 Y112.398 E6.89936
G1 X119.621 Y112.264 E6.91597
G1 X118.748 Y112.17 E6.93158
G1 X117.803 Y112.103 E6.94842
G1 X116.914 Y112.071 E6.96423
G1 X115.955 Y112.072 E6.98128
G1 X115.046 Y112.105 E6.99745
G1 X114.146 Y112.171 E7.01349
G1 X113.216 Y112.272 E7.03012
G1 X112.314 Y112.402 E7.04632
G1 X111.413 Y112.566 E7.0626
G1 X110.513 Y112.763 E7.07898
G1 X109.663 Y112.982 E7.09458
G1 X108.772 Y113.243 E7.11108
G1 X107.906 Y113.533 E7.12732
G1 X107.049 Y113.853 E7.14358
G1 X106.211 Y114.201 E7.15971
G1 X105.28 Y114.627 E7.17791
G1 X104.653 Y114.87 E7.18986
G1 X103.775 Y115.076 E7.20589
G1 X102.994 Y115.195 E7.21994
G1 X102.324 Y115.257 E7.2319
G1 X101.851 Y115.253 E7.2403
G1 X101.067 Y115.213 E7.25426
G1 X100.157 Y115.092 E7.27058
G1 X99.764 Y115.007 E7.27772
G1 X99.116 Y114.826 E7.28968
G1 X98.494 Y114.569 E7.30165
G1 X97.906 Y114.24 E7.31362
G1 X97.362 Y113.844 E7.32559
G1 X96.812 Y113.328 E7.33899
G1 X96.611 Y113.112 E7.34424
G1 X96.183 Y112.592 E7.35621
G1 X95.819 Y112.026 E7.36817
G1 X95.524 Y111.421 E7.38014
G1 X95.255 Y110.597 E7.39554
G1 X95.185 Y110.311 E7.40078
G1 X95.064 Y109.649 E7.41274
G1 X95.022 Y108.977 E7.42471
G1 X95.06 Y108.305 E7.43667
G1 X95.229 Y107.446 E7.45224
G1 X95.307 Y107.165 E7.45742
G1 X95.525 Y106.529 E7.46937
G1 X95.817 Y105.922 E7.48134
G1 X96.179 Y105.355 E7.4933
G1 X96.654 Y104.782 E7.50653
G1 X96.853 Y104.572 E7.51168
G1 X97.345 Y104.112 E7.52365
M204 S625
M205 X6 Y6
G0 F5000 X97.632 Y104.419
M204 S500
M205 X5 Y5
G1 F1200 X98.156 Y104.039 E7.53515
G1 X98.724 Y103.726 E7.54668
G1 X99.325 Y103.486 E7.55819
G1 X99.952 Y103.321 E7.56971
G1 X100.594 Y103.235 E7.58123
G1 X101.242 Y103.229 E7.59275
G1 X101.708 Y103.276 E7.60107
G1 X102.005 Y103.144 E7.60685
G1 X103.035 Y102.718 E7.62666
G1 X103.208 Y102.65 E7.62997
G1 X104.257 Y102.259 E7.64987
G1 X104.432 Y102.197 E7.65317
G1 X105.492 Y101.844 E7.67303
G1 X105.67 Y101.788 E7.67634
G1 X106.711 Y101.482 E7.69563
G1 X106.893 Y101.432 E7.69899
G1 X107.974 Y101.156 E7.71882
G1 X108.155 Y101.113 E7.72213
G1 X109.247 Y100.875 E7.74199
G1 X109.43 Y100.839 E7.74531
G1 X110.529 Y100.64 E7.76516
G1 X110.717 Y100.609 E7.76855
G1 X111.823 Y100.45 E7.78841
G1 X112.006 Y100.427 E7.79169
G1 X113.117 Y100.307 E7.81155
G1 X113.305 Y100.291 E7.81491
G1 X114.418 Y100.211 E7.83474
G1 X114.611 Y100.2 E7.83818
G1 X115.727 Y100.161 E7.85803
G1 X115.915 Y100.158 E7.86137
G1 X117.062 Y100.159 E7.88176
G1 X117.245 Y100.162 E7.88501
G1 X118.361 Y100.202 E7.90486
G1 X118.554 Y100.213 E7.9083
G1 X119.668 Y100.294 E7.92816
G1 X119.856 Y100.311 E7.93151
G1 X120.965 Y100.432 E7.95134
G1 X121.147 Y100.455 E7.9546
G1 X122.254 Y100.615 E7.97449
G1 X122.444 Y100.646 E7.97791
G1 X123.542 Y100.846 E7.99775
G1 X123.72 Y100.882 E8.00097
G1 X124.811 Y101.12 E8.02082
G1 X124.999 Y101.164 E8.02426
G1 X126.053 Y101.435 E8.0436
G1 X126.224 Y101.482 E8.04675
G1 X127.294 Y101.796 E8.06658
G1 X127.482 Y101.855 E8.07008
G1 X128.54 Y102.209 E8.08991
G1 X128.709 Y102.269 E8.0931
G1 X129.757 Y102.66 E8.11298
G1 X129.937 Y102.731 E8.11642
G1 X130.969 Y103.16 E8.13629
G1 X131.25 Y103.285 E8.14176
G1 X131.65 Y103.235 E8.14892
G1 X132.297 Y103.235 E8.16042
G1 X132.94 Y103.314 E8.17194
G1 X133.568 Y103.473 E8.18345
G1 X134.172 Y103.707 E8.19497
G1 X134.743 Y104.014 E8.20649
G1 X135.267 Y104.377 E8.21782
G1 X135.766 Y104.79 E8.22934
G1 X136.211 Y105.261 E8.24086
G1 X136.595 Y105.783 E8.25238
G1 X136.872 Y106.268 E8.2623
G1 X136.986 Y106.495 E8.26682
G1 X137.24 Y107.091 E8.27834
G1 X137.419 Y107.713 E8.28984
G1 X137.52 Y108.353 E8.30136
G1 X137.544 Y108.913 E8.31132
G1 X137.541 Y109.166 E8.31582
G1 X137.493 Y109.812 E8.32734
G1 X137.366 Y110.447 E8.33885
G1 X137.162 Y111.062 E8.35036
G1 X136.923 Y111.575 E8.36042
G1 X136.803 Y111.8 E8.36496
G1 X136.464 Y112.351 E8.37646
G1 X136.059 Y112.857 E8.38798
G1 X135.595 Y113.309 E8.39949
G1 X135.093 Y113.691 E8.41071
G1 X134.878 Y113.835 E8.41531
G1 X134.318 Y114.162 E8.42683
G1 X133.723 Y114.417 E8.43834
G1 X133.1 Y114.597 E8.44987
G1 X132.742 Y114.664 E8.45634
G1 X131.956 Y114.783 E8.47047
G1 X131.311 Y114.84 E8.48198
G1 X130.909 Y114.836 E8.48913
G1 X130.104 Y114.796 E8.50346
G1 X129.222 Y114.676 E8.51928
G1 X128.796 Y114.581 E8.52704
G1 X128.174 Y114.401 E8.53855
G1 X127.762 Y114.234 E8.54645
G1 X126.848 Y113.817 E8.56431
G1 X125.997 Y113.462 E8.5807
G1 X125.091 Y113.126 E8.59788
G1 X124.201 Y112.83 E8.61455
G1 X123.326 Y112.573 E8.63076
G1 X122.445 Y112.348 E8.64692
G1 X121.522 Y112.147 E8.66372
G1 X120.621 Y111.984 E8.67999
G1 X119.698 Y111.85 E8.69657
G1 X118.768 Y111.75 E8.7132
G1 X117.848 Y111.685 E8.72959
G1 X116.901 Y111.651 E8.74644
G1 X115.939 Y111.652 E8.76354
G1 X115.03 Y111.685 E8.77971
G1 X114.096 Y111.753 E8.79635
G1 X113.169 Y111.854 E8.81293
G1 X112.234 Y111.989 E8.82972
G1 X111.356 Y112.148 E8.84558
G1 X110.407 Y112.357 E8.86286
G1 X109.548 Y112.577 E8.87862
G1 X108.662 Y112.838 E8.89504
G1 X107.767 Y113.136 E8.91181
G1 X106.883 Y113.467 E8.92859
G1 X106.05 Y113.813 E8.94462
G1 X105.106 Y114.245 E8.96307
G1 X104.501 Y114.478 E8.9746
G1 X103.712 Y114.661 E8.989
G1 X102.931 Y114.78 E9.00304
G1 X102.286 Y114.838 E9.01455
G1 X101.872 Y114.833 E9.02191
G1 X101.088 Y114.793 E9.03587
G1 X100.246 Y114.681 E9.05096
G1 X99.853 Y114.596 E9.05811
G1 X99.23 Y114.421 E9.06962
G1 X98.633 Y114.169 E9.08113
G1 X98.071 Y113.847 E9.09265
G1 X97.553 Y113.457 E9.10417
G1 X97.12 Y113.041 E9.11485
G1 X96.919 Y112.825 E9.12009
G1 X96.507 Y112.325 E9.13161
G1 X96.161 Y111.778 E9.14311
G1 X95.885 Y111.192 E9.15463
G1 X95.663 Y110.497 E9.1676
G1 X95.593 Y110.211 E9.17283
G1 X95.478 Y109.574 E9.18434
G1 X95.442 Y108.927 E9.19586
G1 X95.487 Y108.281 E9.20737
G1 X95.633 Y107.559 E9.22046
G1 X95.711 Y107.278 E9.22565
G1 X95.923 Y106.666 E9.23716
G1 X96.208 Y106.084 E9.24868
G1 X96.563 Y105.542 E9.2602
G1 X96.959 Y105.071 E9.27113
G1 X97.158 Y104.861 E9.27628
G1 X97.632 Y104.419 E9.2878
M204 S625
M205 X6 Y6
G0 F5000 X97.919 Y104.727
M204 S500
M205 X5 Y5
G1 F1200 X98.424 Y104.367 E9.29882
G1 X98.973 Y104.074 E9.30988
G1 X99.554 Y103.854 E9.32093
G1 X100.158 Y103.711 E9.33196
G1 X100.776 Y103.646 E9.34301
G1 X101.681 Y103.695 E9.35912
G1 X101.771 Y103.708 E9.36073
G1 X102.166 Y103.532 E9.36842
G1 X103.196 Y103.106 E9.38824
G1 X103.355 Y103.043 E9.39128
G1 X104.404 Y102.652 E9.41118
G1 X104.565 Y102.595 E9.41421
G1 X105.625 Y102.242 E9.43407
G1 X105.789 Y102.191 E9.43712
G1 X106.83 Y101.885 E9.45641
G1 X106.997 Y101.839 E9.45949
G1 X108.078 Y101.563 E9.47932
G1 X108.244 Y101.524 E9.48235
G1 X109.336 Y101.286 E9.50222
G1 X109.504 Y101.252 E9.50527
G1 X110.603 Y101.053 E9.52512
G1 X110.777 Y101.025 E9.52826
G1 X111.883 Y100.866 E9.54812
G1 X112.051 Y100.845 E9.55113
G1 X113.162 Y100.725 E9.57099
G1 X113.335 Y100.709 E9.57408
G1 X114.448 Y100.629 E9.59392
G1 X114.625 Y100.62 E9.59707
G1 X115.741 Y100.581 E9.61692
G1 X115.914 Y100.578 E9.61999
G1 X117.061 Y100.579 E9.64038
G1 X117.23 Y100.582 E9.64338
G1 X118.346 Y100.622 E9.66324
G1 X118.523 Y100.632 E9.66639
G1 X119.637 Y100.713 E9.68624
G1 X119.811 Y100.728 E9.68935
G1 X120.92 Y100.849 E9.70918
G1 X121.087 Y100.871 E9.71217
G1 X122.194 Y101.031 E9.73205
G1 X122.369 Y101.059 E9.7352
G1 X123.467 Y101.259 E9.75504
G1 X123.63 Y101.292 E9.758
G1 X124.721 Y101.53 E9.77785
G1 X124.895 Y101.571 E9.78103
G1 X125.949 Y101.842 E9.80037
G1 X126.106 Y101.885 E9.80327
G1 X127.176 Y102.199 E9.82309
G1 X127.349 Y102.254 E9.82631
G1 X128.407 Y102.608 E9.84615
G1 X128.562 Y102.663 E9.84907
G1 X129.61 Y103.054 E9.86895
G1 X129.776 Y103.119 E9.87212
G1 X130.808 Y103.548 E9.89199
G1 X131.183 Y103.716 E9.89929
G1 X131.701 Y103.653 E9.90857
G1 X132.322 Y103.657 E9.91961
G1 X132.938 Y103.742 E9.93066
G1 X133.537 Y103.905 E9.9417
G1 X134.111 Y104.143 E9.95274
G1 X134.815 Y104.568 E9.96736
G1 X135.02 Y104.717 E9.97187
G1 X135.498 Y105.114 E9.98291
G1 X135.921 Y105.569 E9.99395
G1 X136.282 Y106.074 E10.00499
G1 X136.61 Y106.683 E10.01729
G1 X136.853 Y107.255 E10.02833
G1 X137.02 Y107.854 E10.03939
G1 X137.109 Y108.469 E10.05043
G1 X137.121 Y109.161 E10.06274
G1 X137.073 Y109.781 E10.07379
G1 X136.947 Y110.389 E10.08483
G1 X136.743 Y110.976 E10.09587
G1 X136.433 Y111.602 E10.10829
G1 X136.106 Y112.13 E10.11933
G1 X135.714 Y112.612 E10.13037
G1 X135.263 Y113.04 E10.14143
G1 X134.859 Y113.342 E10.15039
G1 X134.644 Y113.486 E10.15499
G1 X134.106 Y113.798 E10.16605
G1 X133.533 Y114.038 E10.17709
G1 X132.679 Y114.249 E10.19273
G1 X131.893 Y114.368 E10.20686
G1 X131.274 Y114.421 E10.2179
G1 X130.93 Y114.416 E10.22402
G1 X130.125 Y114.376 E10.23835
G1 X129.314 Y114.266 E10.25289
G1 X128.888 Y114.171 E10.26065
G1 X128.291 Y113.997 E10.27171
G1 X127.936 Y113.852 E10.27852
G1 X126.996 Y113.424 E10.29688
G1 X126.149 Y113.071 E10.3132
G1 X125.229 Y112.729 E10.33064
G1 X124.345 Y112.434 E10.34721
G1 X123.433 Y112.167 E10.3641
G1 X122.55 Y111.942 E10.3803
G1 X121.604 Y111.735 E10.39751
G1 X120.673 Y111.567 E10.41433
G1 X119.747 Y111.433 E10.43096
G1 X118.815 Y111.332 E10.44763
G1 X117.865 Y111.265 E10.46455
G1 X116.916 Y111.231 E10.48143
G1 X115.951 Y111.232 E10.49859
G1 X114.984 Y111.267 E10.51579
G1 X114.076 Y111.333 E10.53197
G1 X113.119 Y111.437 E10.54908
G1 X112.155 Y111.577 E10.5664
G1 X111.247 Y111.742 E10.5828
G1 X110.328 Y111.944 E10.59953
G1 X109.441 Y112.171 E10.61581
G1 X108.518 Y112.442 E10.63291
G1 X107.629 Y112.739 E10.64957
G1 X106.74 Y113.071 E10.66644
G1 X105.879 Y113.429 E10.68301
G1 X104.931 Y113.863 E10.70155
G1 X104.35 Y114.085 E10.7126
G1 X103.649 Y114.246 E10.72539
G1 X102.868 Y114.365 E10.73943
G1 X102.249 Y114.419 E10.75048
G1 X101.894 Y114.414 E10.75679
G1 X101.11 Y114.374 E10.77074
G1 X100.335 Y114.271 E10.78464
G1 X99.942 Y114.186 E10.79179
G1 X99.344 Y114.016 E10.80284
G1 X98.774 Y113.77 E10.81387
G1 X98.239 Y113.454 E10.82492
G1 X97.75 Y113.071 E10.83596
G1 X97.226 Y112.539 E10.84923
G1 X96.833 Y112.058 E10.86027
G1 X96.505 Y111.531 E10.87131
G1 X96.247 Y110.965 E10.88237
G1 X96.07 Y110.397 E10.89294
G1 X96 Y110.111 E10.89818
G1 X95.892 Y109.5 E10.9092
G1 X95.863 Y108.879 E10.92026
G1 X95.913 Y108.26 E10.93129
G1 X96.038 Y107.671 E10.942
G1 X96.116 Y107.39 E10.94718
G1 X96.32 Y106.803 E10.95823
G1 X96.598 Y106.248 E10.96926
G1 X96.945 Y105.732 E10.98032
G1 X97.463 Y105.15 E10.99417
G1 X97.919 Y104.727 E11.00522
M204 S625
M205 X6 Y6
G0 F5000 X98.204 Y105.036
M204 S500
M205 X5 Y5
G1 F1200 X98.691 Y104.696 E11.01578
G1 X99.219 Y104.424 E11.02634
G1 X99.778 Y104.226 E11.03688
G1 X100.359 Y104.104 E11.04743
G1 X100.951 Y104.062 E11.05798
G1 X101.619 Y104.11 E11.06989
G1 X101.832 Y104.142 E11.07372
G1 X102.327 Y103.92 E11.08336
G1 X103.357 Y103.494 E11.10317
G1 X103.502 Y103.437 E11.10594
G1 X104.551 Y103.046 E11.12584
G1 X104.698 Y102.994 E11.12861
G1 X105.758 Y102.641 E11.14847
G1 X105.907 Y102.594 E11.15125
G1 X106.948 Y102.288 E11.17054
G1 X107.101 Y102.246 E11.17336
G1 X108.182 Y101.97 E11.19319
G1 X108.334 Y101.934 E11.19597
G1 X109.426 Y101.696 E11.21584
G1 X109.579 Y101.666 E11.21861
G1 X110.678 Y101.467 E11.23846
G1 X110.836 Y101.441 E11.24131
G1 X111.942 Y101.282 E11.26117
G1 X112.096 Y101.263 E11.26393
G1 X113.207 Y101.143 E11.28379
G1 X113.365 Y101.128 E11.28661
G1 X114.478 Y101.048 E11.30645
G1 X114.64 Y101.04 E11.30933
G1 X115.756 Y101.001 E11.32918
G1 X115.914 Y100.998 E11.33199
G1 X117.061 Y100.999 E11.35238
G1 X117.215 Y101.002 E11.35512
G1 X118.331 Y101.042 E11.37497
G1 X118.493 Y101.051 E11.37785
G1 X119.607 Y101.132 E11.39771
G1 X119.765 Y101.146 E11.40053
G1 X120.874 Y101.267 E11.42036
G1 X121.027 Y101.286 E11.4231
G1 X122.134 Y101.446 E11.44298
G1 X122.293 Y101.472 E11.44585
G1 X123.391 Y101.672 E11.46568
G1 X123.541 Y101.702 E11.4684
G1 X124.632 Y101.94 E11.48825
G1 X124.79 Y101.978 E11.49114
G1 X125.844 Y102.249 E11.51049
G1 X125.988 Y102.288 E11.51314
G1 X127.058 Y102.602 E11.53296
G1 X127.215 Y102.652 E11.53589
G1 X128.273 Y103.006 E11.55572
G1 X128.416 Y103.056 E11.55842
G1 X129.464 Y103.447 E11.5783
G1 X129.615 Y103.507 E11.58119
G1 X130.647 Y103.936 E11.60105
G1 X131.12 Y104.149 E11.61028
G1 X131.162 Y104.141 E11.61104
G1 X131.751 Y104.071 E11.62158
G1 X132.345 Y104.081 E11.63214
G1 X132.932 Y104.17 E11.64269
G1 X133.501 Y104.337 E11.65323
G1 X134.043 Y104.58 E11.66379
G1 X134.568 Y104.908 E11.6748
G1 X134.773 Y105.057 E11.6793
G1 X135.228 Y105.437 E11.68984
G1 X135.629 Y105.876 E11.70041
G1 X135.967 Y106.364 E11.71096
G1 X136.235 Y106.872 E11.72117
G1 X136.465 Y107.419 E11.73172
G1 X136.62 Y107.992 E11.74227
G1 X136.696 Y108.581 E11.75283
G1 X136.701 Y109.156 E11.76305
G1 X136.654 Y109.748 E11.77361
G1 X136.528 Y110.328 E11.78416
G1 X136.325 Y110.886 E11.79471
G1 X136.062 Y111.404 E11.80504
G1 X135.748 Y111.908 E11.81559
G1 X135.369 Y112.365 E11.82615
G1 X134.933 Y112.767 E11.83669
G1 X134.41 Y113.137 E11.84808
G1 X133.896 Y113.433 E11.85862
G1 X133.346 Y113.658 E11.86918
G1 X132.616 Y113.833 E11.88253
G1 X131.83 Y113.952 E11.89666
G1 X130.951 Y113.997 E11.9123
G1 X130.146 Y113.957 E11.92663
G1 X129.405 Y113.856 E11.93993
G1 X128.979 Y113.761 E11.94768
G1 X128.41 Y113.593 E11.95823
G1 X128.11 Y113.47 E11.96399
G1 X127.145 Y113.03 E11.98285
G1 X126.326 Y112.689 E11.99862
G1 X125.367 Y112.332 E12.01681
G1 X124.446 Y112.026 E12.03406
G1 X123.554 Y111.765 E12.05058
G1 X122.622 Y111.526 E12.06768
G1 X121.713 Y111.328 E12.08422
G1 X120.753 Y111.154 E12.10156
G1 X119.797 Y111.016 E12.11873
G1 X118.836 Y110.913 E12.13591
G1 X117.88 Y110.845 E12.15295
G1 X116.931 Y110.811 E12.16983
G1 X115.936 Y110.812 E12.18752
G1 X114.965 Y110.848 E12.20479
G1 X114.027 Y110.916 E12.22151
G1 X113.073 Y111.02 E12.23857
G1 X112.102 Y111.16 E12.25601
G1 X111.164 Y111.33 E12.27295
G1 X110.242 Y111.533 E12.28973
G1 X109.306 Y111.773 E12.30691
G1 X108.408 Y112.037 E12.32355
G1 X107.49 Y112.343 E12.34075
G1 X106.598 Y112.677 E12.35768
G1 X105.685 Y113.056 E12.37525
G1 X104.756 Y113.481 E12.39341
G1 X104.201 Y113.691 E12.40396
G1 X103.585 Y113.831 E12.41519
G1 X102.804 Y113.95 E12.42923
G1 X102.213 Y113.999 E12.43977
G1 X101.915 Y113.994 E12.44507
G1 X101.131 Y113.954 E12.45903
G1 X100.424 Y113.86 E12.47171
G1 X100.031 Y113.775 E12.47885
G1 X99.46 Y113.611 E12.48941
G1 X98.917 Y113.372 E12.49996
G1 X98.411 Y113.062 E12.51051
G1 X97.951 Y112.686 E12.52107
G1 X97.534 Y112.253 E12.53175
G1 X97.159 Y111.792 E12.54232
G1 X96.85 Y111.286 E12.55286
G1 X96.612 Y110.742 E12.56341
G1 X96.408 Y110.011 E12.5769
G1 X96.306 Y109.427 E12.58744
G1 X96.284 Y108.833 E12.59801
G1 X96.341 Y108.243 E12.60854
G1 X96.521 Y107.502 E12.6221
G1 X96.718 Y106.942 E12.63265
G1 X96.988 Y106.414 E12.64319
G1 X97.327 Y105.927 E12.65374
G1 X97.768 Y105.439 E12.66543
G1 X98.204 Y105.036 E12.67599
M204 S625
M205 X6 Y6
G0 F5000 X98.489 Y105.346
M204 S500
M205 X5 Y5
G1 F1200 X98.955 Y105.027 E12.68603
G1 X99.462 Y104.778 E12.69607
G1 X99.998 Y104.602 E12.7061
G1 X100.554 Y104.504 E12.71613
G1 X101.119 Y104.485 E12.72618
G1 X101.891 Y104.576 E12.74
G1 X102.359 Y104.363 E12.74914
G1 X102.487 Y104.308 E12.75162
G1 X103.517 Y103.882 E12.77143
G1 X103.648 Y103.83 E12.77393
G1 X104.697 Y103.439 E12.79383
G1 X104.83 Y103.392 E12.79634
G1 X105.89 Y103.039 E12.8162
G1 X106.026 Y102.997 E12.81873
G1 X107.067 Y102.691 E12.83802
G1 X107.205 Y102.653 E12.84056
G1 X108.286 Y102.377 E12.8604
G1 X108.423 Y102.345 E12.8629
G1 X109.515 Y102.107 E12.88276
G1 X109.654 Y102.079 E12.88528
G1 X110.753 Y101.88 E12.90514
G1 X110.896 Y101.857 E12.90771
G1 X112.002 Y101.698 E12.92757
G1 X112.142 Y101.68 E12.93008
G1 X113.253 Y101.56 E12.94995
G1 X113.395 Y101.547 E12.95248
G1 X114.508 Y101.467 E12.97232
G1 X114.655 Y101.459 E12.97494
G1 X115.771 Y101.42 E12.99479
G1 X115.913 Y101.418 E12.99731
G1 X117.06 Y101.419 E13.0177
G1 X117.2 Y101.422 E13.02019
G1 X118.316 Y101.462 E13.04004
G1 X118.462 Y101.47 E13.04264
G1 X119.576 Y101.551 E13.06249
G1 X119.72 Y101.564 E13.06506
G1 X120.829 Y101.685 E13.08489
G1 X120.967 Y101.702 E13.08737
G1 X122.074 Y101.862 E13.10725
G1 X122.218 Y101.886 E13.10984
G1 X123.316 Y102.086 E13.12968
G1 X123.451 Y102.113 E13.13213
G1 X124.542 Y102.351 E13.15198
G1 X124.686 Y102.385 E13.15461
G1 X125.74 Y102.656 E13.17395
G1 X125.87 Y102.691 E13.17635
G1 X126.94 Y103.005 E13.19617
G1 X127.082 Y103.05 E13.19882
G1 X128.14 Y103.404 E13.21865
G1 X128.269 Y103.45 E13.22108
G1 X129.317 Y103.841 E13.24097
G1 X129.454 Y103.895 E13.24359
G1 X130.486 Y104.324 E13.26345
G1 X131.057 Y104.582 E13.27459
G1 X131.239 Y104.553 E13.27787
G1 X131.8 Y104.489 E13.2879
G1 X132.364 Y104.504 E13.29793
G1 X132.921 Y104.599 E13.30798
G1 X133.459 Y104.771 E13.31802
G1 X133.967 Y105.018 E13.32806
G1 X134.526 Y105.396 E13.34005
G1 X134.958 Y105.76 E13.3501
G1 X135.334 Y106.181 E13.36013
G1 X135.746 Y106.833 E13.37384
G1 X135.86 Y107.06 E13.37835
G1 X136.077 Y107.582 E13.3884
G1 X136.218 Y108.128 E13.39843
G1 X136.284 Y108.898 E13.41216
G1 X136.281 Y109.151 E13.41666
G1 X136.234 Y109.714 E13.42671
G1 X136.109 Y110.264 E13.43673
G1 X135.812 Y110.982 E13.45054
G1 X135.692 Y111.207 E13.45508
G1 X135.391 Y111.685 E13.46512
G1 X135.027 Y112.116 E13.47515
G1 X134.391 Y112.644 E13.48984
G1 X134.176 Y112.788 E13.49444
G1 X133.686 Y113.068 E13.50447
G1 X133.161 Y113.277 E13.51452
G1 X132.553 Y113.418 E13.52561
G1 X131.767 Y113.537 E13.53974
G1 X130.972 Y113.577 E13.55389
G1 X130.167 Y113.537 E13.56822
G1 X129.497 Y113.446 E13.58024
G1 X129.071 Y113.351 E13.588
G1 X128.284 Y113.088 E13.60275
G1 X127.329 Y112.653 E13.6214
G1 X126.462 Y112.291 E13.6381
G1 X125.504 Y111.935 E13.65627
G1 X124.581 Y111.628 E13.67356
G1 X123.661 Y111.358 E13.6906
G1 X122.733 Y111.121 E13.70763
G1 X121.768 Y110.911 E13.72518
G1 X120.827 Y110.741 E13.74218
G1 X119.847 Y110.599 E13.75979
G1 X118.883 Y110.495 E13.77702
G1 X117.897 Y110.425 E13.79459
G1 X116.945 Y110.391 E13.81153
G1 X115.92 Y110.392 E13.82975
G1 X114.976 Y110.427 E13.84654
G1 X113.98 Y110.499 E13.86429
G1 X112.995 Y110.606 E13.8819
G1 X112.05 Y110.743 E13.89888
G1 X111.076 Y110.919 E13.91647
G1 X110.142 Y111.125 E13.93347
G1 X109.199 Y111.367 E13.95078
G1 X108.289 Y111.634 E13.96764
G1 X107.351 Y111.947 E13.98521
G1 X106.431 Y112.291 E14.00267
G1 X105.519 Y112.67 E14.02023
G1 X104.581 Y113.099 E14.03856
G1 X104.052 Y113.297 E14.0486
G1 X103.522 Y113.415 E14.05826
G1 X102.741 Y113.534 E14.0723
G1 X101.937 Y113.575 E14.08661
G1 X101.153 Y113.535 E14.10056
G1 X100.513 Y113.45 E14.11204
G1 X100.12 Y113.365 E14.11919
G1 X99.577 Y113.207 E14.12924
G1 X99.063 Y112.974 E14.13927
G1 X98.587 Y112.67 E14.14931
G1 X98.042 Y112.183 E14.1623
G1 X97.841 Y111.967 E14.16755
G1 X97.487 Y111.528 E14.17757
G1 X97.198 Y111.042 E14.18763
G1 X96.98 Y110.521 E14.19766
G1 X96.816 Y109.912 E14.20888
G1 X96.721 Y109.355 E14.21892
G1 X96.706 Y108.791 E14.22895
G1 X96.77 Y108.23 E14.23899
G1 X96.925 Y107.615 E14.25026
G1 X97.115 Y107.083 E14.2603
G1 X97.377 Y106.583 E14.27034
G1 X97.874 Y105.938 E14.28481
G1 X98.073 Y105.728 E14.28995
G1 X98.489 Y105.346 E14.29999
M204 S625
M205 X6 Y6
G0 F5000 X98.773 Y105.657
M204 S500
M205 X5 Y5
G1 F1200 X99.217 Y105.361 E14.30948
G1 X99.701 Y105.135 E14.31897
G1 X100.213 Y104.983 E14.32847
G1 X100.742 Y104.909 E14.33796
G1 X101.496 Y104.941 E14.35138
G1 X101.961 Y105.007 E14.35973
G1 X102.533 Y104.746 E14.3709
G1 X102.648 Y104.696 E14.37313
G1 X103.678 Y104.27 E14.39295
G1 X103.795 Y104.224 E14.39518
G1 X104.844 Y103.833 E14.41508
G1 X104.963 Y103.791 E14.41732
G1 X106.023 Y103.438 E14.43718
G1 X106.144 Y103.4 E14.43944
G1 X107.185 Y103.094 E14.45873
G1 X107.309 Y103.06 E14.46101
G1 X108.39 Y102.784 E14.48084
G1 X108.513 Y102.755 E14.48309
G1 X109.605 Y102.517 E14.50296
G1 X109.729 Y102.492 E14.50521
G1 X110.828 Y102.293 E14.52506
G1 X110.956 Y102.272 E14.52737
G1 X112.062 Y102.113 E14.54723
G1 X112.187 Y102.098 E14.54947
G1 X113.298 Y101.978 E14.56933
G1 X113.425 Y101.966 E14.5716
G1 X114.538 Y101.886 E14.59143
G1 X114.669 Y101.879 E14.59376
G1 X115.785 Y101.84 E14.61361
G1 X115.913 Y101.838 E14.61589
G1 X117.06 Y101.839 E14.63628
G1 X117.185 Y101.841 E14.6385
G1 X118.301 Y101.881 E14.65835
G1 X118.432 Y101.888 E14.66068
G1 X119.546 Y101.969 E14.68054
G1 X119.674 Y101.981 E14.68282
G1 X120.783 Y102.102 E14.70266
G1 X120.907 Y102.118 E14.70488
G1 X122.014 Y102.278 E14.72476
G1 X122.143 Y102.299 E14.72708
G1 X123.241 Y102.499 E14.74692
G1 X123.362 Y102.523 E14.74912
G1 X124.453 Y102.761 E14.76897
G1 X124.581 Y102.791 E14.7713
G1 X125.635 Y103.062 E14.79065
G1 X125.751 Y103.094 E14.79279
G1 X126.821 Y103.408 E14.81261
G1 X126.949 Y103.448 E14.81499
G1 X128.007 Y103.802 E14.83482
G1 X128.122 Y103.843 E14.83699
G1 X129.17 Y104.234 E14.85688
G1 X129.292 Y104.282 E14.85921
G1 X130.324 Y104.711 E14.87908
G1 X130.437 Y104.76 E14.88126
G1 X130.975 Y105.006 E14.89178
G1 X131.317 Y104.966 E14.8979
G1 X131.847 Y104.907 E14.90738
G1 X132.381 Y104.928 E14.91688
G1 X132.906 Y105.028 E14.92638
G1 X133.409 Y105.206 E14.93587
G1 X134.074 Y105.587 E14.94949
G1 X134.279 Y105.736 E14.95399
G1 X134.686 Y106.082 E14.96349
G1 X135.037 Y106.484 E14.97298
G1 X135.37 Y107.022 E14.98422
G1 X135.484 Y107.249 E14.98874
G1 X135.688 Y107.743 E14.99824
G1 X135.815 Y108.261 E15.00772
G1 X135.864 Y108.893 E15.01899
G1 X135.861 Y109.146 E15.02349
G1 X135.814 Y109.678 E15.03298
G1 X135.689 Y110.198 E15.04249
G1 X135.441 Y110.784 E15.0538
G1 X135.321 Y111.009 E15.05833
G1 X135.035 Y111.46 E15.06782
G1 X134.685 Y111.864 E15.07733
G1 X134.158 Y112.295 E15.08943
G1 X133.943 Y112.439 E15.09403
G1 X133.478 Y112.702 E15.10352
G1 X132.979 Y112.893 E15.11302
G1 X132.49 Y113.003 E15.12193
G1 X131.704 Y113.122 E15.13606
G1 X130.993 Y113.158 E15.14872
G1 X130.188 Y113.118 E15.16304
G1 X129.588 Y113.036 E15.17381
G1 X129.162 Y112.941 E15.18157
G1 X128.459 Y112.706 E15.19474
G1 X127.489 Y112.264 E15.21369
G1 X126.614 Y111.899 E15.23055
G1 X125.667 Y111.547 E15.2485
G1 X124.699 Y111.225 E15.26664
G1 X123.768 Y110.952 E15.28388
G1 X122.839 Y110.715 E15.30093
G1 X121.85 Y110.499 E15.31892
G1 X120.879 Y110.323 E15.33646
G1 X119.896 Y110.181 E15.35412
G1 X118.93 Y110.077 E15.37139
G1 X117.942 Y110.007 E15.389
G1 X116.933 Y109.971 E15.40694
G1 X115.932 Y109.972 E15.42474
G1 X114.929 Y110.009 E15.44258
G1 X113.934 Y110.081 E15.46031
G1 X112.945 Y110.189 E15.478
G1 X111.997 Y110.325 E15.49502
G1 X110.993 Y110.508 E15.51316
G1 X110.029 Y110.72 E15.53071
G1 X109.091 Y110.96 E15.54792
G1 X108.153 Y111.236 E15.5653
G1 X107.212 Y111.55 E15.58293
G1 X106.288 Y111.895 E15.60047
G1 X105.344 Y112.288 E15.61864
G1 X104.406 Y112.717 E15.63698
G1 X103.906 Y112.903 E15.64646
G1 X103.459 Y113 E15.65459
G1 X102.678 Y113.119 E15.66864
G1 X101.958 Y113.155 E15.68145
G1 X101.174 Y113.115 E15.6954
G1 X100.601 Y113.039 E15.70568
G1 X100.208 Y112.954 E15.71283
G1 X99.696 Y112.803 E15.72232
G1 X99.213 Y112.576 E15.7318
G1 X98.768 Y112.28 E15.7413
G1 X98.35 Y111.897 E15.75138
G1 X98.149 Y111.681 E15.75663
G1 X97.815 Y111.264 E15.76612
G1 X97.547 Y110.802 E15.77562
G1 X97.294 Y110.098 E15.78891
G1 X97.224 Y109.812 E15.79415
G1 X97.137 Y109.285 E15.80364
G1 X97.128 Y108.751 E15.81314
G1 X97.252 Y108.008 E15.82653
G1 X97.33 Y107.727 E15.83171
G1 X97.511 Y107.225 E15.8412
G1 X97.765 Y106.755 E15.85069
G1 X98.179 Y106.226 E15.86263
G1 X98.378 Y106.016 E15.86778
G1 X98.773 Y105.657 E15.87727
M204 S625
M205 X6 Y6
G0 F5000 X99.055 Y105.97
M204 S500
M205 X5 Y5
G1 F1200 X99.477 Y105.698 E15.88619
G1 X99.936 Y105.496 E15.8951
G1 X100.422 Y105.37 E15.90403
G1 X100.921 Y105.322 E15.91294
G1 X101.434 Y105.356 E15.92208
G1 X102.06 Y105.423 E15.93327
G1 X102.707 Y105.128 E15.94591
G1 X102.808 Y105.084 E15.94787
G1 X103.838 Y104.658 E15.96768
G1 X103.942 Y104.617 E15.96967
G1 X104.991 Y104.226 E15.98957
G1 X105.096 Y104.189 E15.99155
G1 X106.156 Y103.836 E16.01141
G1 X106.263 Y103.803 E16.0134
G1 X107.304 Y103.497 E16.03269
G1 X107.413 Y103.467 E16.0347
G1 X108.494 Y103.191 E16.05453
G1 X108.602 Y103.165 E16.0565
G1 X109.694 Y102.927 E16.07637
G1 X109.804 Y102.905 E16.07837
G1 X110.903 Y102.706 E16.09822
G1 X111.016 Y102.688 E16.10025
G1 X112.122 Y102.529 E16.12012
G1 X112.232 Y102.515 E16.12209
G1 X113.343 Y102.395 E16.14195
G1 X113.455 Y102.385 E16.14395
G1 X114.568 Y102.305 E16.16378
G1 X114.684 Y102.299 E16.16585
G1 X115.8 Y102.26 E16.1857
G1 X115.913 Y102.258 E16.18771
G1 X117.06 Y102.259 E16.2081
G1 X117.17 Y102.261 E16.21005
G1 X118.286 Y102.301 E16.2299
G1 X118.401 Y102.307 E16.23195
G1 X119.515 Y102.388 E16.25181
G1 X119.629 Y102.399 E16.25384
G1 X120.738 Y102.52 E16.27367
G1 X120.847 Y102.533 E16.27562
G1 X121.954 Y102.693 E16.29551
G1 X122.067 Y102.712 E16.29754
G1 X123.165 Y102.912 E16.31738
G1 X123.272 Y102.933 E16.31932
G1 X124.363 Y103.171 E16.33917
G1 X124.476 Y103.198 E16.34124
G1 X125.53 Y103.469 E16.36058
G1 X125.633 Y103.497 E16.36248
G1 X126.703 Y103.811 E16.3823
G1 X126.816 Y103.847 E16.38441
G1 X127.874 Y104.201 E16.40424
G1 X127.975 Y104.237 E16.40615
G1 X129.023 Y104.628 E16.42603
G1 X129.131 Y104.67 E16.42809
G1 X130.163 Y105.099 E16.44796
G1 X130.262 Y105.142 E16.44987
G1 X130.873 Y105.421 E16.46181
G1 X131.199 Y105.416 E16.46761
G1 X131.394 Y105.379 E16.47114
G1 X131.893 Y105.326 E16.48006
G1 X132.394 Y105.353 E16.48898
G1 X132.884 Y105.459 E16.49789
G1 X133.351 Y105.642 E16.50681
G1 X133.827 Y105.927 E16.51667
G1 X134.032 Y106.076 E16.52117
G1 X134.413 Y106.402 E16.53009
G1 X134.737 Y106.785 E16.539
G1 X135.109 Y107.437 E16.55235
G1 X135.298 Y107.902 E16.56127
G1 X135.41 Y108.391 E16.57019
G1 X135.441 Y109.141 E16.58353
G1 X135.395 Y109.641 E16.59246
G1 X135.27 Y110.127 E16.60138
G1 X135.07 Y110.586 E16.61028
G1 X134.95 Y110.811 E16.61481
G1 X134.68 Y111.234 E16.62373
G1 X134.346 Y111.608 E16.63264
G1 X133.924 Y111.946 E16.64225
G1 X133.709 Y112.09 E16.64685
G1 X133.271 Y112.335 E16.65577
G1 X132.8 Y112.508 E16.66469
G1 X132.428 Y112.588 E16.67146
G1 X131.642 Y112.707 E16.68559
G1 X131.014 Y112.738 E16.69677
G1 X130.209 Y112.698 E16.71109
G1 X129.679 Y112.626 E16.7206
G1 X129.253 Y112.531 E16.72836
G1 X128.633 Y112.323 E16.73998
G1 X127.664 Y111.881 E16.75892
G1 X126.775 Y111.511 E16.77603
G1 X125.779 Y111.141 E16.79492
G1 X124.826 Y110.825 E16.81277
G1 X123.883 Y110.548 E16.83024
G1 X122.917 Y110.301 E16.84796
G1 X121.959 Y110.092 E16.86539
G1 X120.959 Y109.911 E16.88346
G1 X119.946 Y109.765 E16.90165
G1 X118.951 Y109.658 E16.91944
G1 X117.957 Y109.587 E16.93715
G1 X116.947 Y109.551 E16.95512
G1 X115.916 Y109.552 E16.97345
G1 X114.912 Y109.589 E16.99131
G1 X113.884 Y109.663 E17.00963
G1 X112.927 Y109.768 E17.02674
G1 X111.891 Y109.917 E17.04535
G1 X110.936 Y110.09 E17.0626
G1 X109.923 Y110.313 E17.08104
G1 X108.984 Y110.554 E17.09827
G1 X108.035 Y110.833 E17.11585
G1 X107.073 Y111.154 E17.13388
G1 X106.122 Y111.51 E17.15193
G1 X105.184 Y111.899 E17.16998
G1 X104.232 Y112.335 E17.18859
G1 X103.76 Y112.507 E17.19752
G1 X103.395 Y112.585 E17.20416
G1 X102.614 Y112.704 E17.2182
G1 X101.979 Y112.736 E17.2295
G1 X101.195 Y112.696 E17.24346
G1 X100.69 Y112.629 E17.25251
G1 X100.297 Y112.544 E17.25966
G1 X99.817 Y112.399 E17.26858
G1 X99.366 Y112.18 E17.27749
G1 X98.955 Y111.892 E17.28641
G1 X98.456 Y111.395 E17.29893
G1 X98.145 Y111.002 E17.30784
G1 X97.9 Y110.564 E17.31676
G1 X97.702 Y109.998 E17.32742
G1 X97.632 Y109.712 E17.33265
G1 X97.552 Y109.217 E17.34156
G1 X97.552 Y108.715 E17.35049
G1 X97.657 Y108.12 E17.36123
G1 X97.735 Y107.839 E17.36641
G1 X97.907 Y107.368 E17.37533
G1 X98.152 Y106.931 E17.38423
G1 X98.484 Y106.515 E17.39369
G1 X98.683 Y106.305 E17.39883
G1 X99.055 Y105.97 E17.40773
M204 S625
M205 X6 Y6
G0 F5000 X99.336 Y106.284
M204 S500
M205 X5 Y5
G1 F1200 X99.733 Y106.038 E17.41604
G1 X100.166 Y105.863 E17.42434
G1 X100.622 Y105.764 E17.43263
G1 X101.372 Y105.772 E17.44596
G1 X101.899 Y105.851 E17.45544
G1 X102.161 Y105.838 E17.4601
G1 X102.881 Y105.51 E17.47416
G1 X102.969 Y105.472 E17.47587
G1 X103.999 Y105.046 E17.49568
G1 X104.089 Y105.011 E17.4974
G1 X105.138 Y104.62 E17.5173
G1 X105.228 Y104.588 E17.519
G1 X106.288 Y104.235 E17.53886
G1 X106.381 Y104.206 E17.54059
G1 X107.422 Y103.9 E17.55988
G1 X107.517 Y103.874 E17.56163
G1 X108.598 Y103.598 E17.58146
G1 X108.692 Y103.576 E17.58318
G1 X109.784 Y103.338 E17.60304
G1 X109.879 Y103.319 E17.60476
G1 X110.978 Y103.12 E17.62462
G1 X111.076 Y103.104 E17.62638
G1 X112.182 Y102.945 E17.64625
G1 X112.277 Y102.933 E17.64795
G1 X113.388 Y102.813 E17.66781
G1 X113.485 Y102.804 E17.66954
G1 X114.598 Y102.724 E17.68938
G1 X114.699 Y102.719 E17.69118
G1 X115.815 Y102.68 E17.71103
G1 X115.912 Y102.678 E17.71275
G1 X117.059 Y102.679 E17.73314
G1 X117.155 Y102.681 E17.73485
G1 X118.271 Y102.721 E17.7547
G1 X118.371 Y102.726 E17.75648
G1 X119.485 Y102.807 E17.77633
G1 X119.583 Y102.816 E17.77808
G1 X120.692 Y102.937 E17.79791
G1 X120.787 Y102.949 E17.79961
G1 X121.894 Y103.109 E17.8195
G1 X121.992 Y103.125 E17.82126
G1 X123.09 Y103.325 E17.8411
G1 X123.183 Y103.344 E17.84279
G1 X124.274 Y103.582 E17.86264
G1 X124.372 Y103.605 E17.86443
G1 X125.515 Y103.9 E17.88541
G1 X126.585 Y104.214 E17.90523
G1 X126.682 Y104.245 E17.90704
G1 X127.74 Y104.599 E17.92688
G1 X127.828 Y104.63 E17.92853
G1 X128.876 Y105.021 E17.94842
G1 X128.97 Y105.058 E17.95021
G1 X130.002 Y105.487 E17.97008
G1 X130.088 Y105.525 E17.97175
G1 X130.752 Y105.828 E17.98473
G1 X131.252 Y105.833 E17.99361
G1 X131.936 Y105.745 E18.00587
G1 X132.402 Y105.779 E18.01418
G1 X132.855 Y105.891 E18.02247
G1 X133.283 Y106.078 E18.03078
G1 X133.785 Y106.416 E18.04153
G1 X134.138 Y106.721 E18.04983
G1 X134.433 Y107.083 E18.05813
G1 X134.734 Y107.626 E18.06916
G1 X134.907 Y108.059 E18.07745
G1 X135.003 Y108.516 E18.08575
G1 X135.021 Y109.136 E18.09678
G1 X134.975 Y109.601 E18.10509
G1 X134.851 Y110.051 E18.11338
G1 X134.58 Y110.614 E18.12449
G1 X134.326 Y111.005 E18.13278
G1 X134.009 Y111.348 E18.14108
G1 X133.475 Y111.741 E18.15287
G1 X133.066 Y111.967 E18.16117
G1 X132.365 Y112.172 E18.17416
G1 X131.579 Y112.291 E18.18829
G1 X131.035 Y112.319 E18.19797
G1 X130.23 Y112.279 E18.2123
G1 X129.345 Y112.122 E18.22827
G1 X128.807 Y111.941 E18.23836
G1 X127.848 Y111.504 E18.2571
G1 X126.912 Y111.114 E18.27512
G1 X125.943 Y110.754 E18.2935
G1 X124.944 Y110.421 E18.31222
G1 X123.989 Y110.141 E18.32991
G1 X123.029 Y109.896 E18.34752
G1 X122.014 Y109.675 E18.36598
G1 X121.034 Y109.497 E18.38369
G1 X119.995 Y109.347 E18.40235
G1 X118.998 Y109.24 E18.42018
G1 X117.974 Y109.167 E18.43842
G1 X116.962 Y109.131 E18.45642
G1 X115.901 Y109.132 E18.47528
G1 X114.895 Y109.169 E18.49318
G1 X113.864 Y109.244 E18.51156
G1 X112.849 Y109.354 E18.5297
G1 X111.838 Y109.5 E18.54786
G1 X110.827 Y109.684 E18.56613
G1 X109.844 Y109.9 E18.58402
G1 X108.877 Y110.148 E18.60176
G1 X107.892 Y110.437 E18.62001
G1 X106.934 Y110.757 E18.63797
G1 X105.969 Y111.118 E18.65628
G1 X105.023 Y111.511 E18.67449
G1 X104.057 Y111.953 E18.69337
G1 X103.617 Y112.111 E18.70168
G1 X103.332 Y112.17 E18.70686
G1 X102.551 Y112.289 E18.7209
G1 X102.001 Y112.316 E18.73069
G1 X101.217 Y112.276 E18.74464
G1 X100.386 Y112.133 E18.75963
G1 X99.94 Y111.996 E18.76793
G1 X99.523 Y111.785 E18.77623
G1 X98.964 Y111.325 E18.7891
G1 X98.476 Y110.741 E18.80263
G1 X98.255 Y110.33 E18.81093
G1 X98.04 Y109.612 E18.82425
G1 X97.968 Y109.151 E18.83254
G1 X97.976 Y108.684 E18.84085
G1 X98.139 Y107.952 E18.85418
G1 X98.302 Y107.514 E18.86248
G1 X98.537 Y107.111 E18.87078
G1 X98.987 Y106.594 E18.88296
G1 X99.336 Y106.284 E18.89126
M204 S625
M205 X6 Y6
G0 F5000 X99.615 Y106.6
M204 S500
M205 X5 Y5
G1 F1200 X99.985 Y106.382 E18.89889
G1 X100.389 Y106.236 E18.90653
G1 X100.813 Y106.167 E18.91417
G1 X101.31 Y106.187 E18.92301
G1 X101.883 Y106.272 E18.9333
G1 X102.265 Y106.253 E18.9401
G1 X103.129 Y105.86 E18.95698
G1 X104.159 Y105.434 E18.97679
G1 X104.235 Y105.404 E18.97824
G1 X105.284 Y105.013 E18.99814
G1 X105.361 Y104.986 E18.99959
G1 X106.421 Y104.633 E19.01945
G1 X107.541 Y104.303 E19.04021
G1 X107.621 Y104.281 E19.04168
G1 X108.702 Y104.005 E19.06151
G1 X108.781 Y103.986 E19.06296
G1 X109.873 Y103.748 E19.08283
G1 X109.953 Y103.732 E19.08428
G1 X111.052 Y103.533 E19.10413
G1 X112.241 Y103.361 E19.12549
G1 X112.322 Y103.35 E19.12694
G1 X113.433 Y103.23 E19.1468
G1 X113.515 Y103.223 E19.14827
G1 X114.628 Y103.143 E19.1681
G1 X114.713 Y103.138 E19.16961
G1 X115.829 Y103.099 E19.18946
G1 X115.912 Y103.098 E19.19094
G1 X117.14 Y103.1 E19.21277
G1 X118.256 Y103.14 E19.23262
G1 X118.341 Y103.145 E19.23413
G1 X119.455 Y103.226 E19.25399
G1 X120.647 Y103.355 E19.2753
G1 X120.726 Y103.365 E19.27672
G1 X121.917 Y103.538 E19.29811
G1 X123.015 Y103.738 E19.31795
G1 X124.184 Y103.992 E19.33921
G1 X124.267 Y104.012 E19.34073
G1 X125.396 Y104.303 E19.36146
G1 X126.466 Y104.617 E19.38128
G1 X126.549 Y104.643 E19.38282
G1 X127.607 Y104.997 E19.40266
G1 X128.729 Y105.415 E19.42394
G1 X128.809 Y105.446 E19.42547
G1 X129.841 Y105.875 E19.44533
G1 X130.63 Y106.234 E19.46074
G1 X130.883 Y106.272 E19.46529
G1 X131.549 Y106.205 E19.47719
G1 X131.977 Y106.165 E19.48483
G1 X132.404 Y106.205 E19.49245
G1 X132.817 Y106.324 E19.50009
G1 X133.333 Y106.606 E19.51055
G1 X133.861 Y107.039 E19.52268
G1 X134.244 Y107.587 E19.53457
G1 X134.515 Y108.214 E19.54671
G1 X134.604 Y108.878 E19.55862
G1 X134.556 Y109.558 E19.57074
G1 X134.329 Y110.191 E19.58269
G1 X133.973 Y110.775 E19.59485
G1 X133.674 Y111.083 E19.60248
G1 X133.241 Y111.392 E19.61193
G1 X132.864 Y111.597 E19.61956
G1 X132.302 Y111.757 E19.62995
G1 X131.516 Y111.876 E19.64408
G1 X131.055 Y111.899 E19.65229
G1 X130.25 Y111.859 E19.66661
G1 X129.436 Y111.712 E19.68132
G1 X128.981 Y111.559 E19.68985
G1 X127.991 Y111.108 E19.70919
G1 X127.058 Y110.72 E19.72715
G1 X126.08 Y110.356 E19.7457
G1 X125.078 Y110.023 E19.76447
G1 X124.096 Y109.735 E19.78266
G1 X123.134 Y109.49 E19.80031
G1 X122.096 Y109.263 E19.81919
G1 X121.082 Y109.079 E19.83751
G1 X120.076 Y108.934 E19.85558
G1 X119.017 Y108.82 E19.87452
G1 X118.019 Y108.749 E19.8923
G1 X116.949 Y108.711 E19.91133
G1 X115.885 Y108.712 E19.93025
G1 X114.875 Y108.749 E19.94821
G1 X113.816 Y108.826 E19.96709
G1 X112.803 Y108.936 E19.9852
G1 X111.786 Y109.083 E20.00347
G1 X110.745 Y109.272 E20.02227
G1 X109.731 Y109.495 E20.04073
G1 X108.769 Y109.742 E20.05838
G1 X107.781 Y110.032 E20.07669
G1 X106.796 Y110.361 E20.09515
G1 X105.803 Y110.732 E20.11399
G1 X104.876 Y111.117 E20.13183
G1 X103.882 Y111.572 E20.15127
G1 X103.269 Y111.755 E20.16264
G1 X102.488 Y111.874 E20.17668
G1 X102.022 Y111.897 E20.18497
G1 X101.238 Y111.857 E20.19893
G1 X100.475 Y111.723 E20.2127
G1 X100.065 Y111.593 E20.22035
G1 X99.687 Y111.39 E20.22797
G1 X99.272 Y111.039 E20.23763
G1 X98.809 Y110.482 E20.25051
G1 X98.614 Y110.1 E20.25813
G1 X98.448 Y109.512 E20.26899
G1 X98.385 Y109.087 E20.27663
G1 X98.402 Y108.658 E20.28426
G1 X98.544 Y108.064 E20.29512
G1 X98.697 Y107.663 E20.30275
G1 X99.093 Y107.093 E20.31509
G1 X99.615 Y106.6 E20.32785
M204 S625
M205 X6 Y6
G0 F5000 X99.892 Y106.919
M204 S500
M205 X5 Y5
G1 F1200 X100.232 Y106.732 E20.33475
G1 X100.603 Y106.618 E20.34165
G1 X100.99 Y106.582 E20.34856
G1 X101.248 Y106.603 E20.35316
G1 X101.857 Y106.694 E20.3641
G1 X102.397 Y106.653 E20.37373
G1 X103.29 Y106.248 E20.39116
G1 X104.32 Y105.822 E20.41097
G1 X105.431 Y105.407 E20.43206
G1 X106.554 Y105.032 E20.4531
G1 X106.618 Y105.012 E20.45429
G1 X107.724 Y104.688 E20.47478
G1 X108.871 Y104.396 E20.49582
G1 X109.963 Y104.158 E20.51569
G1 X110.028 Y104.145 E20.51686
G1 X111.127 Y103.946 E20.53672
G1 X111.195 Y103.935 E20.53794
G1 X112.301 Y103.776 E20.55781
G1 X113.478 Y103.648 E20.57885
G1 X113.546 Y103.642 E20.58006
G1 X114.728 Y103.558 E20.60113
G1 X115.844 Y103.519 E20.62098
G1 X115.912 Y103.518 E20.62219
G1 X117.125 Y103.52 E20.64375
G1 X118.241 Y103.56 E20.6636
G1 X119.424 Y103.645 E20.68468
G1 X119.492 Y103.651 E20.6859
G1 X120.666 Y103.78 E20.70689
G1 X121.773 Y103.94 E20.72677
G1 X123.004 Y104.164 E20.74902
G1 X124.095 Y104.402 E20.76887
G1 X125.278 Y104.706 E20.79058
G1 X126.348 Y105.02 E20.8104
G1 X127.535 Y105.417 E20.83265
G1 X128.583 Y105.808 E20.85253
G1 X129.679 Y106.263 E20.87363
G1 X129.739 Y106.289 E20.87479
G1 X130.509 Y106.64 E20.88983
G1 X130.861 Y106.694 E20.89616
G1 X131.626 Y106.617 E20.90983
G1 X132.013 Y106.585 E20.91673
G1 X132.399 Y106.633 E20.92365
G1 X132.766 Y106.759 E20.93054
G1 X133.291 Y107.095 E20.94162
G1 X133.58 Y107.355 E20.94853
G1 X133.869 Y107.776 E20.95761
G1 X134.121 Y108.366 E20.96902
G1 X134.184 Y108.873 E20.9781
G1 X134.136 Y109.512 E20.98949
G1 X133.959 Y109.993 E20.9986
G1 X133.622 Y110.54 E21.01002
G1 X133.223 Y110.899 E21.01956
G1 X132.665 Y111.225 E21.03105
G1 X132.239 Y111.342 E21.0389
G1 X131.453 Y111.461 E21.05303
G1 X131.076 Y111.48 E21.05974
G1 X130.271 Y111.44 E21.07407
G1 X129.528 Y111.302 E21.0875
G1 X129.155 Y111.177 E21.0945
G1 X128.145 Y110.717 E21.11423
G1 X127.217 Y110.33 E21.1321
G1 X127.204 Y110.327 E21.13234
G1 X126.209 Y109.957 E21.15121
G1 X125.188 Y109.618 E21.17033
G1 X124.211 Y109.331 E21.18843
G1 X123.213 Y109.076 E21.20674
G1 X122.205 Y108.856 E21.22508
G1 X121.161 Y108.667 E21.24394
G1 X120.098 Y108.514 E21.26303
G1 X119.066 Y108.402 E21.28148
G1 X118.034 Y108.329 E21.29987
G1 X116.964 Y108.291 E21.31891
G1 X115.897 Y108.292 E21.33787
G1 X114.831 Y108.331 E21.35684
G1 X113.796 Y108.406 E21.37528
G1 X112.753 Y108.52 E21.39393
G1 X111.706 Y108.671 E21.41274
G1 X110.662 Y108.86 E21.4316
G1 X109.652 Y109.083 E21.44998
G1 X108.635 Y109.343 E21.46864
G1 X107.663 Y109.629 E21.48665
G1 X106.632 Y109.973 E21.50597
G1 X105.66 Y110.336 E21.52442
G1 X104.705 Y110.733 E21.5428
G1 X103.707 Y111.19 E21.56231
G1 X103.206 Y111.339 E21.5716
G1 X102.425 Y111.458 E21.58565
G1 X102.044 Y111.478 E21.59243
G1 X101.26 Y111.438 E21.60638
G1 X100.563 Y111.312 E21.61897
G1 X100.194 Y111.192 E21.62587
G1 X99.858 Y110.998 E21.63277
G1 X99.378 Y110.537 E21.6446
G1 X99.144 Y110.227 E21.6515
G1 X98.926 Y109.698 E21.66167
G1 X98.803 Y109.028 E21.67378
G1 X98.871 Y108.457 E21.68401
G1 X99.091 Y107.815 E21.69607
G1 X99.398 Y107.382 E21.7055
G1 X99.892 Y106.919 E21.71754
M204 S625
M205 X6 Y6
G0 F5000 X99.902 Y107.461
M204 S500
M205 X5 Y5
G1 F1200 X100.165 Y107.241 E21.72363
G1 X100.471 Y107.089 E21.72971
G1 X100.805 Y107.011 E21.7358
G1 X101.186 Y107.018 E21.74258
G1 X101.841 Y107.116 E21.75435
G1 X102.376 Y107.089 E21.76387
G1 X102.527 Y107.056 E21.76662
G1 X103.403 Y106.657 E21.78373
G1 X104.48 Y106.211 E21.80445
G1 X105.627 Y105.783 E21.82622
G1 X106.687 Y105.43 E21.84608
G1 X107.777 Y105.109 E21.86627
G1 X108.909 Y104.819 E21.88705
G1 X110.052 Y104.569 E21.90784
G1 X111.255 Y104.351 E21.92958
G1 X112.361 Y104.192 E21.94944
G1 X113.576 Y104.061 E21.97116
G1 X114.743 Y103.978 E21.99196
G1 X115.911 Y103.938 E22.01273
G1 X117.11 Y103.94 E22.03405
G1 X118.226 Y103.98 E22.0539
G1 X119.394 Y104.064 E22.07471
G1 X120.606 Y104.196 E22.09639
G1 X121.713 Y104.356 E22.11627
G1 X122.864 Y104.565 E22.13706
G1 X124.058 Y104.825 E22.15879
G1 X125.16 Y105.109 E22.17901
G1 X126.23 Y105.423 E22.19884
G1 X127.388 Y105.811 E22.22055
G1 X128.436 Y106.202 E22.24043
G1 X129.518 Y106.651 E22.26125
G1 X130.386 Y107.046 E22.27821
G1 X130.845 Y107.115 E22.28646
G1 X131.394 Y107.088 E22.29623
G1 X132.045 Y107.007 E22.30789
G1 X132.383 Y107.063 E22.31398
G1 X132.839 Y107.286 E22.323
G1 X133.296 Y107.667 E22.33358
G1 X133.608 Y108.191 E22.34442
G1 X133.725 Y108.513 E22.35051
G1 X133.761 Y109.121 E22.36134
G1 X133.717 Y109.461 E22.36743
G1 X133.468 Y110.021 E22.37832
G1 X133.273 Y110.302 E22.3844
G1 X132.774 Y110.694 E22.39568
G1 X132.469 Y110.85 E22.40177
G1 X132.176 Y110.926 E22.40716
G1 X131.39 Y111.045 E22.42129
G1 X131.097 Y111.06 E22.4265
G1 X130.292 Y111.02 E22.44083
G1 X129.619 Y110.892 E22.45301
G1 X129.329 Y110.795 E22.45844
G1 X128.33 Y110.34 E22.47796
G1 X127.351 Y109.933 E22.4968
G1 X126.353 Y109.562 E22.51573
G1 X125.323 Y109.22 E22.53502
G1 X124.324 Y108.926 E22.55353
G1 X123.317 Y108.669 E22.57201
G1 X122.282 Y108.443 E22.59084
G1 X121.213 Y108.25 E22.61015
G1 X120.175 Y108.1 E22.62879
G1 X119.086 Y107.983 E22.64826
G1 X118.051 Y107.909 E22.66671
G1 X116.979 Y107.871 E22.68577
G1 X115.881 Y107.872 E22.70529
G1 X114.812 Y107.911 E22.72431
G1 X113.747 Y107.988 E22.74329
G1 X112.706 Y108.102 E22.7619
G1 X111.627 Y108.258 E22.78128
G1 X110.605 Y108.443 E22.79974
G1 X109.539 Y108.678 E22.81915
G1 X108.527 Y108.937 E22.83772
G1 X107.527 Y109.231 E22.85625
G1 X106.518 Y109.568 E22.87516
G1 X105.517 Y109.942 E22.89415
G1 X104.522 Y110.355 E22.9133
G1 X103.533 Y110.808 E22.93264
G1 X103.142 Y110.924 E22.93989
G1 X102.361 Y111.043 E22.95393
G1 X102.065 Y111.058 E22.9592
G1 X101.281 Y111.018 E22.97315
G1 X100.652 Y110.902 E22.98452
G1 X100.328 Y110.791 E22.99061
G1 X99.887 Y110.466 E23.00035
G1 X99.483 Y109.974 E23.01167
G1 X99.264 Y109.312 E23.02406
G1 X99.222 Y108.973 E23.03013
G1 X99.354 Y108.289 E23.04252
G1 X99.483 Y107.972 E23.0486
G1 X99.902 Y107.461 E23.06035
M204 S625
M205 X6 Y6
G0 F5000 X100.207 Y107.75
M204 S500
M205 X5 Y5
G1 F1200 X100.433 Y107.569 E23.06549
G1 X100.699 Y107.457 E23.07062
G1 X101.124 Y107.433 E23.07819
G1 X101.82 Y107.537 E23.0907
G1 X102.435 Y107.506 E23.10165
G1 X102.66 Y107.457 E23.10574
G1 X103.577 Y107.039 E23.12365
G1 X104.675 Y106.585 E23.14478
G1 X105.759 Y106.182 E23.16533
G1 X106.855 Y105.818 E23.18586
G1 X107.932 Y105.502 E23.20581
G1 X109.049 Y105.217 E23.22631
G1 X110.141 Y104.979 E23.24617
G1 X111.315 Y104.767 E23.26738
G1 X112.457 Y104.603 E23.28789
G1 X113.568 Y104.483 E23.30775
G1 X114.757 Y104.398 E23.32894
G1 X115.911 Y104.358 E23.34947
G1 X117.095 Y104.36 E23.37051
G1 X118.249 Y104.402 E23.39104
G1 X119.401 Y104.486 E23.41157
G1 X120.51 Y104.607 E23.4314
G1 X121.691 Y104.778 E23.45262
G1 X122.825 Y104.985 E23.47311
G1 X123.953 Y105.232 E23.49363
G1 X125.042 Y105.512 E23.51362
G1 X126.112 Y105.826 E23.53344
G1 X127.241 Y106.204 E23.55461
G1 X128.325 Y106.609 E23.57518
G1 X129.357 Y107.038 E23.59504
G1 X130.268 Y107.454 E23.61285
G1 X130.817 Y107.537 E23.62272
G1 X131.448 Y107.505 E23.63395
G1 X132.07 Y107.429 E23.64509
G1 X132.352 Y107.495 E23.65023
G1 X132.797 Y107.775 E23.65958
G1 X133.006 Y107.975 E23.66472
G1 X133.232 Y108.38 E23.67297
G1 X133.325 Y108.654 E23.67811
G1 X133.341 Y109.116 E23.68633
G1 X133.298 Y109.402 E23.69147
G1 X133.097 Y109.823 E23.69976
G1 X132.928 Y110.057 E23.70489
G1 X132.54 Y110.345 E23.71348
G1 X132.113 Y110.511 E23.72163
G1 X131.327 Y110.63 E23.73576
G1 X131.118 Y110.641 E23.73948
G1 X130.313 Y110.601 E23.7538
G1 X129.71 Y110.482 E23.76473
G1 X129.504 Y110.412 E23.7686
G1 X128.519 Y109.963 E23.78784
G1 X127.508 Y109.542 E23.80731
G1 X127.497 Y109.539 E23.80751
G1 X126.484 Y109.162 E23.82672
G1 X125.467 Y108.824 E23.84577
G1 X124.431 Y108.52 E23.86497
G1 X123.419 Y108.262 E23.88353
G1 X122.342 Y108.027 E23.90313
G1 X121.288 Y107.836 E23.92217
G1 X120.225 Y107.683 E23.94126
G1 X119.132 Y107.565 E23.9608
G1 X118.067 Y107.489 E23.97978
G1 X116.993 Y107.451 E23.99888
G1 X115.865 Y107.452 E24.01893
G1 X114.795 Y107.491 E24.03797
G1 X113.727 Y107.569 E24.057
G1 X112.628 Y107.688 E24.07665
G1 X111.574 Y107.841 E24.09559
G1 X110.517 Y108.033 E24.11468
G1 X109.438 Y108.27 E24.13432
G1 X108.42 Y108.531 E24.153
G1 X107.412 Y108.827 E24.17168
G1 X106.382 Y109.171 E24.19098
G1 X105.351 Y109.556 E24.21054
G1 X104.351 Y109.971 E24.22979
G1 X103.358 Y110.426 E24.2492
G1 X103.079 Y110.509 E24.25438
G1 X102.298 Y110.628 E24.26842
G1 X102.086 Y110.639 E24.2722
G1 X101.302 Y110.599 E24.28615
G1 X100.741 Y110.491 E24.29631
G1 X100.47 Y110.392 E24.30143
G1 X100.194 Y110.18 E24.30762
G1 X99.827 Y109.728 E24.31797
G1 X99.672 Y109.213 E24.32753
G1 X99.643 Y108.925 E24.33268
G1 X99.758 Y108.401 E24.34221
G1 X99.873 Y108.136 E24.34735
G1 X100.207 Y107.75 E24.35642
M204 S625
M205 X6 Y6
G0 F5000 X100.692 Y107.906
M204 S500
M205 X5 Y5
G1 F1200 X100.907 Y107.845 E24.36039
G1 X101.062 Y107.849 E24.36315
G1 X101.799 Y107.959 E24.3764
G1 X102.486 Y107.925 E24.38862
G1 X102.797 Y107.856 E24.39429
G1 X103.771 Y107.413 E24.41331
G1 X104.822 Y106.979 E24.43352
G1 X105.892 Y106.58 E24.45382
G1 X106.973 Y106.221 E24.47407
G1 X108.036 Y105.909 E24.49376
G1 X109.139 Y105.627 E24.514
G1 X110.253 Y105.385 E24.53426
G1 X111.374 Y105.182 E24.55451
G1 X112.48 Y105.023 E24.57437
G1 X113.636 Y104.899 E24.59504
G1 X114.772 Y104.817 E24.61529
G1 X115.911 Y104.778 E24.63555
G1 X117.08 Y104.779 E24.65633
G1 X118.196 Y104.819 E24.67618
G1 X119.355 Y104.904 E24.69683
G1 X120.486 Y105.027 E24.71706
G1 X121.616 Y105.191 E24.73736
G1 X122.735 Y105.395 E24.75757
G1 X123.849 Y105.639 E24.77785
G1 X124.923 Y105.915 E24.79756
G1 X125.993 Y106.229 E24.81738
G1 X127.094 Y106.598 E24.83802
G1 X128.164 Y106.997 E24.85832
G1 X129.216 Y107.435 E24.87858
G1 X130.147 Y107.86 E24.89677
G1 X130.8 Y107.959 E24.90851
G1 X131.496 Y107.924 E24.9209
G1 X132.082 Y107.854 E24.93139
G1 X132.345 Y107.965 E24.93646
G1 X132.55 Y108.114 E24.94097
G1 X132.743 Y108.341 E24.94626
G1 X132.857 Y108.568 E24.95078
G1 X132.924 Y108.858 E24.95607
G1 X132.921 Y109.111 E24.96057
G1 X132.847 Y109.4 E24.96587
G1 X132.727 Y109.625 E24.9704
G1 X132.522 Y109.852 E24.97584
G1 X132.307 Y109.996 E24.98044
G1 X132.05 Y110.096 E24.98534
G1 X131.264 Y110.215 E24.99947
G1 X131.139 Y110.221 E25.0017
G1 X130.334 Y110.181 E25.01603
G1 X129.802 Y110.072 E25.02568
G1 X129.678 Y110.03 E25.02801
G1 X128.662 Y109.567 E25.04785
G1 X127.655 Y109.147 E25.06725
G1 X127.643 Y109.146 E25.06746
G1 X126.621 Y108.766 E25.08685
G1 X125.58 Y108.42 E25.10635
G1 X124.546 Y108.116 E25.1255
G1 X123.501 Y107.849 E25.14468
G1 X122.446 Y107.619 E25.16387
G1 X121.367 Y107.424 E25.18336
G1 X120.26 Y107.264 E25.20324
G1 X119.181 Y107.147 E25.22254
G1 X118.098 Y107.071 E25.24184
G1 X116.981 Y107.031 E25.2617
G1 X115.877 Y107.032 E25.28133
G1 X114.759 Y107.073 E25.30122
G1 X113.677 Y107.151 E25.3205
G1 X112.599 Y107.269 E25.33978
G1 X111.495 Y107.428 E25.3596
G1 X110.412 Y107.625 E25.37917
G1 X109.36 Y107.856 E25.39832
G1 X108.313 Y108.125 E25.41753
G1 X107.279 Y108.429 E25.43669
G1 X106.219 Y108.783 E25.45656
G1 X105.212 Y109.159 E25.47566
G1 X104.177 Y109.589 E25.49559
G1 X103.183 Y110.044 E25.51502
G1 X103.016 Y110.094 E25.51812
G1 X102.235 Y110.213 E25.53216
G1 X102.108 Y110.219 E25.53442
G1 X101.324 Y110.179 E25.54838
G1 X100.83 Y110.081 E25.55733
G1 X100.623 Y109.995 E25.56131
G1 X100.301 Y109.678 E25.56934
G1 X100.15 Y109.399 E25.57498
G1 X100.08 Y109.113 E25.58022
G1 X100.085 Y108.794 E25.58589
G1 X100.163 Y108.513 E25.59107
G1 X100.313 Y108.249 E25.59647
G1 X100.692 Y107.906 E25.60556
M204 S625
M205 X6 Y6
G0 F5000 X100.817 Y108.328
M204 S500
M205 X5 Y5
G1 F1200 X101 Y108.264 E25.609
G1 X101.778 Y108.38 E25.62299
G1 X102.545 Y108.342 E25.63664
G1 X102.93 Y108.257 E25.64365
G1 X103.932 Y107.801 E25.66321
G1 X104.969 Y107.372 E25.68316
G1 X106.025 Y106.979 E25.70319
G1 X107.092 Y106.624 E25.72318
G1 X108.14 Y106.316 E25.7426
G1 X109.228 Y106.038 E25.76256
G1 X110.328 Y105.798 E25.78257
G1 X111.434 Y105.598 E25.80255
G1 X112.547 Y105.438 E25.82254
G1 X113.666 Y105.318 E25.84255
G1 X114.787 Y105.237 E25.86253
G1 X115.91 Y105.198 E25.8825
G1 X117.065 Y105.199 E25.90303
G1 X118.188 Y105.24 E25.92301
G1 X119.31 Y105.321 E25.943
G1 X120.426 Y105.443 E25.96296
G1 X121.541 Y105.604 E25.98299
G1 X122.646 Y105.806 E26.00295
G1 X123.744 Y106.046 E26.02293
G1 X124.805 Y106.318 E26.0424
G1 X125.883 Y106.635 E26.06238
G1 X126.947 Y106.991 E26.08232
G1 X128.003 Y107.385 E26.10236
G1 X129.041 Y107.817 E26.12234
G1 X130.025 Y108.266 E26.14157
G1 X130.778 Y108.38 E26.15511
G1 X131.55 Y108.342 E26.16885
G1 X131.936 Y108.269 E26.17583
G1 X132.098 Y108.305 E26.17878
G1 X132.368 Y108.53 E26.18503
G1 X132.504 Y108.853 E26.19126
G1 X132.476 Y109.203 E26.1975
G1 X132.288 Y109.503 E26.20379
G1 X131.987 Y109.681 E26.21001
G1 X131.201 Y109.8 E26.22414
G1 X131.16 Y109.802 E26.22487
G1 X130.355 Y109.762 E26.2392
G1 X129.852 Y109.648 E26.24836
G1 X128.842 Y109.188 E26.26809
G1 X127.797 Y108.752 E26.28822
G1 X127.79 Y108.752 E26.28834
G1 X126.768 Y108.372 E26.30773
G1 X125.713 Y108.021 E26.32749
G1 X124.654 Y107.71 E26.34711
G1 X123.607 Y107.443 E26.36632
G1 X122.521 Y107.206 E26.38608
G1 X121.42 Y107.007 E26.40596
G1 X120.324 Y106.849 E26.42565
G1 X119.214 Y106.729 E26.44549
G1 X118.113 Y106.651 E26.46512
G1 X116.995 Y106.611 E26.485
G1 X115.862 Y106.612 E26.50514
G1 X114.744 Y106.653 E26.52503
G1 X113.643 Y106.732 E26.54465
G1 X112.532 Y106.854 E26.56452
G1 X111.438 Y107.012 E26.58417
G1 X110.337 Y107.212 E26.60406
G1 X109.252 Y107.45 E26.6238
G1 X108.203 Y107.719 E26.64305
G1 X107.146 Y108.03 E26.66264
G1 X106.093 Y108.382 E26.68238
G1 X105.044 Y108.774 E26.70228
G1 X104.016 Y109.201 E26.72207
G1 X103.008 Y109.662 E26.74177
G1 X102.953 Y109.679 E26.7428
G1 X102.172 Y109.798 E26.75684
G1 X102.129 Y109.8 E26.7576
G1 X101.345 Y109.76 E26.77156
G1 X100.919 Y109.67 E26.7793
G1 X100.809 Y109.608 E26.78154
G1 X100.558 Y109.299 E26.78862
G1 X100.49 Y108.907 E26.79569
G1 X100.618 Y108.538 E26.80264
G1 X100.817 Y108.328 E26.80778
M204 S625
M205 X6 Y6
G1 F1500 E20.30778
;MESH:Spring.stl
G0 F5000 X103.068 Y108.676
G0 X109.149 Y107.003
G0 X111.36 Y106.559
G0 X113.598 Y106.276
G0 X115.85 Y106.153
G0 X118.134 Y106.192
G0 X120.381 Y106.393
G0 X122.606 Y106.754
G0 X124.36 Y107.168
G0 X129.88 Y108.769
G0 X129.908 Y108.674
M104 S195
M204 S500
M205 X5 Y5
;TYPE:WALL-OUTER
G1 F1500 E26.80778
G1 F1200 X130.755 Y108.802 E26.82301
G1 X131.597 Y108.76 E26.83799
G1 X131.891 Y108.703 E26.84331
G1 X131.923 Y108.697 E26.84389
G1 X132.015 Y108.764 E26.84592
G1 X132.083 Y108.9 E26.84862
G1 X132.082 Y109.051 E26.8513
G1 X132.067 Y109.08 E26.85188
G1 X132.01 Y109.184 E26.85399
G1 X131.88 Y109.272 E26.85678
G1 X131.16 Y109.381 E26.86973
G1 X130.391 Y109.343 E26.88341
G1 X130.007 Y109.257 E26.89041
G1 X129.007 Y108.801 E26.90995
G1 X127.967 Y108.37 E26.92996
G1 X126.911 Y107.977 E26.94999
G1 X125.843 Y107.622 E26.96999
G1 X124.762 Y107.304 E26.99002
G1 X123.699 Y107.033 E27.00952
G1 X122.599 Y106.793 E27.02954
G1 X121.491 Y106.593 E27.04955
G1 X120.376 Y106.432 E27.06958
G1 X119.256 Y106.311 E27.0896
G1 X118.132 Y106.231 E27.10963
G1 X117.007 Y106.191 E27.12964
G1 X115.85 Y106.192 E27.15021
G1 X114.725 Y106.233 E27.17022
G1 X113.601 Y106.315 E27.19025
G1 X112.482 Y106.437 E27.21026
G1 X111.366 Y106.598 E27.23031
G1 X110.258 Y106.799 E27.25032
G1 X109.158 Y107.041 E27.27034
G1 X108.096 Y107.312 E27.28983
G1 X107.016 Y107.631 E27.30985
G1 X105.948 Y107.987 E27.32986
G1 X104.893 Y108.382 E27.34988
G1 X103.852 Y108.813 E27.36991
G1 X102.86 Y109.268 E27.38931
G1 X102.13 Y109.379 E27.40244
G1 X101.379 Y109.341 E27.4158
G1 X101.107 Y109.282 E27.42075
G1 X101.071 Y109.275 E27.4214
G1 X100.954 Y109.149 E27.42446
G1 X100.93 Y109.05 E27.42627
G1 X100.91 Y108.965 E27.42782
G1 X100.919 Y108.93 E27.42846
G1 X100.959 Y108.787 E27.4311
G1 X101.045 Y108.695 E27.43334
G1 X101.132 Y108.708 E27.43491
G1 X101.755 Y108.802 E27.44611
G1 X102.6 Y108.76 E27.46115
G1 X103.062 Y108.658 E27.46956
G1 X104.092 Y108.189 E27.48967
G1 X105.116 Y107.765 E27.50937
G1 X106.164 Y107.375 E27.52925
G1 X107.216 Y107.024 E27.54897
G1 X108.244 Y106.722 E27.56801
G1 X109.319 Y106.447 E27.58774
G1 X110.402 Y106.212 E27.60744
G1 X111.501 Y106.013 E27.62729
G1 X112.593 Y105.856 E27.6469
G1 X113.703 Y105.735 E27.66675
G1 X114.801 Y105.657 E27.68632
G1 X115.917 Y105.618 E27.70617
G1 X117.049 Y105.619 E27.72629
G1 X118.165 Y105.659 E27.74614
G1 X119.264 Y105.739 E27.76573
G1 X120.374 Y105.86 E27.78557
G1 X121.465 Y106.018 E27.80517
G1 X122.563 Y106.218 E27.82501
G1 X123.647 Y106.454 E27.84473
G1 X124.693 Y106.722 E27.86392
G1 X125.749 Y107.033 E27.88349
G1 X126.802 Y107.385 E27.90323
G1 X127.841 Y107.773 E27.92294
G1 X128.872 Y108.201 E27.94279
G1 X129.908 Y108.674 E27.96303
M204 S625
M205 X6 Y6
G0 F5000 X130.105 Y108.703
G0 X130.315 Y109.031
M204 S500
M205 X5 Y5
;TYPE:SKIN
G1 F1200 X130.591 Y109.059 E27.96577
G1 X131.557 Y109.036 E27.97532
G1 X131.77 Y109.001 E27.97745
M204 S625
M205 X6 Y6
G0 F5000 X131.836 Y109.067
G0 X130.121 Y109.084
G0 X130.012 Y108.976
M204 S500
M205 X5 Y5
G1 F1200 X129.584 Y108.795 E27.98051
G1 X127.851 Y108.052 E27.99289
G1 X125.934 Y107.373 E28.00625
G1 X124.203 Y106.878 E28.01808
G1 X122.291 Y106.452 E28.03095
G1 X120.238 Y106.131 E28.0446
G1 X118.069 Y105.942 E28.05891
G1 X115.807 Y105.908 E28.07377
G1 X113.695 Y106.023 E28.08767
G1 X111.495 Y106.298 E28.10223
G1 X109.425 Y106.702 E28.11609
G1 X107.469 Y107.222 E28.12939
G1 X105.616 Y107.843 E28.14222
G1 X103.682 Y108.632 E28.15595
G1 X102.801 Y108.988 E28.16219
G1 X101.907 Y109.084 E28.1681
G1 X101.153 Y109.073 E28.17305
M204 S625
M205 X6 Y6
G0 F5000 X101.192 Y109.08
;MESH:NONMESH
G0 F600 X101.192 Y109.08 Z0.33
G0 F5000 X101.497 Y109.056
;TIME_ELAPSED:86.004349
;LAYER:1
M106 S85
M204 S750
M205 X7.5 Y7.5
;TYPE:WALL-INNER
;MESH:Spring.stl
G1 F1450.6 X101.421 Y109.052 E28.17327
G1 X101.32 Y109.029 E28.17356
G1 X101.422 Y109.044 E28.17356
G1 X101.497 Y109.056 E28.17356
M204 S2812
M205 X18 Y18
G0 F10000 X102.254 Y109.067
M204 S750
M205 X7.5 Y7.5
G1 F1450.6 X102.121 Y109.088 E28.17394
G1 X101.986 Y109.081 E28.17433
G1 X102.12 Y109.074 E28.17433
G1 X102.254 Y109.067 E28.17434
M204 S2812
M205 X18 Y18
G0 F10000 X108.096 Y107.308
G0 X110.288 Y106.788
G0 X112.512 Y106.428
G0 X114.755 Y106.227
G0 X117.006 Y106.187
G0 X119.256 Y106.307
G0 X121.491 Y106.588
G0 X123.7 Y107.029
G0 X130.979 Y109.081
M204 S750
M205 X7.5 Y7.5
G1 F1450.6 X131.151 Y109.073 E28.17483
G1 X131.322 Y109.064 E28.17531
G1 X131.152 Y109.09 E28.17532
G1 X130.979 Y109.081 E28.17534
M204 S2812
M205 X18 Y18
G0 F10000 X130.341 Y109.033
M204 S750
M205 X7.5 Y7.5
G1 F1450.6 X130.432 Y109.046 E28.1756
G1 X130.51 Y109.058 E28.17582
G1 X130.431 Y109.054 E28.17583
G1 X130.341 Y109.033 E28.17583
M204 S2812
M205 X18 Y18
G0 F10000 X129.918 Y108.64
M204 S500
M205 X5 Y5
;TYPE:WALL-OUTER
G1 F1160.5 X130.757 Y108.767 E28.17862
G1 X131.592 Y108.725 E28.18138
G1 X131.905 Y108.668 E28.18242
G1 X131.937 Y108.663 E28.18253
G1 X132.045 Y108.745 E28.18298
G1 X132.119 Y108.897 E28.18353
G1 X132.119 Y108.93 E28.18364
G1 X132.114 Y109.065 E28.18409
G1 X132.033 Y109.211 E28.18463
G1 X131.881 Y109.309 E28.18523
G1 X131.164 Y109.416 E28.18762
G1 X130.387 Y109.378 E28.19018
G1 X129.965 Y109.277 E28.19161
G1 X129.021 Y108.846 E28.19502
G1 X127.982 Y108.413 E28.19873
G1 X126.928 Y108.02 E28.20243
G1 X125.861 Y107.664 E28.20613
G1 X124.781 Y107.346 E28.20984
G1 X123.691 Y107.067 E28.21354
G1 X122.592 Y106.827 E28.21725
G1 X121.485 Y106.627 E28.22095
G1 X120.372 Y106.466 E28.22465
G1 X119.253 Y106.346 E28.22836
G1 X118.13 Y106.266 E28.23206
G1 X117.006 Y106.226 E28.23576
G1 X115.881 Y106.226 E28.23947
G1 X114.757 Y106.266 E28.24317
G1 X113.634 Y106.347 E28.24688
G1 X112.516 Y106.467 E28.25058
G1 X111.402 Y106.627 E28.25428
G1 X110.295 Y106.827 E28.25799
G1 X109.196 Y107.068 E28.26169
G1 X108.106 Y107.346 E28.26539
G1 X107.027 Y107.664 E28.26909
G1 X105.96 Y108.02 E28.2728
G1 X104.906 Y108.414 E28.2765
G1 X103.866 Y108.846 E28.28021
G1 X102.868 Y109.303 E28.28382
G1 X102.134 Y109.414 E28.28627
G1 X101.378 Y109.376 E28.28876
G1 X101.047 Y109.301 E28.28987
G1 X100.92 Y109.158 E28.2905
G1 X100.876 Y108.966 E28.29115
G1 X100.875 Y108.959 E28.29118
G1 X100.933 Y108.762 E28.29185
G1 X101.033 Y108.658 E28.29233
G1 X101.04 Y108.659 E28.29235
G1 X101.757 Y108.767 E28.29474
G1 X102.597 Y108.725 E28.29751
G1 X103.086 Y108.609 E28.29916
G1 X104.051 Y108.169 E28.30265
G1 X105.082 Y107.741 E28.30633
G1 X106.123 Y107.352 E28.30998
G1 X107.17 Y107.002 E28.31362
G1 X108.235 Y106.689 E28.31727
G1 X109.317 Y106.412 E28.32095
G1 X110.402 Y106.176 E28.3246
G1 X111.489 Y105.979 E28.32824
G1 X112.589 Y105.821 E28.3319
G1 X113.693 Y105.702 E28.33555
G1 X114.807 Y105.622 E28.33923
G1 X115.916 Y105.583 E28.34288
G1 X117.021 Y105.583 E28.34652
G1 X118.13 Y105.622 E28.35017
G1 X119.244 Y105.702 E28.35385
G1 X120.348 Y105.821 E28.35751
G1 X121.448 Y105.979 E28.36116
G1 X122.535 Y106.176 E28.3648
G1 X123.62 Y106.412 E28.36846
G1 X124.702 Y106.689 E28.37213
G1 X125.767 Y107.002 E28.37579
G1 X126.814 Y107.352 E28.37942
G1 X127.855 Y107.741 E28.38308
G1 X128.886 Y108.169 E28.38675
G1 X129.918 Y108.64 E28.39049
M204 S2812
M205 X18 Y18
G0 F10000 X130.115 Y108.669
G0 X129.904 Y108.92
M204 S500
M205 X5 Y5
;TYPE:SKIN
G1 F1450.6 X129.72 Y108.857 E28.39103
G1 X127.814 Y108.04 E28.3968
G1 X125.799 Y107.332 E28.40275
G1 X123.864 Y106.793 E28.40834
G1 X121.816 Y106.365 E28.41417
G1 X119.865 Y106.09 E28.41965
G1 X118.033 Y105.941 E28.42477
G1 X115.839 Y105.907 E28.43088
G1 X113.748 Y106.019 E28.43671
G1 X111.781 Y106.254 E28.44222
G1 X109.965 Y106.585 E28.44736
G1 X107.998 Y107.068 E28.453
G1 X106.194 Y107.633 E28.45826
G1 X104.597 Y108.241 E28.46302
G1 X103.278 Y108.817 E28.46703
G1 X102.57 Y109.031 E28.46909
G1 X102.414 Y108.938 E28.46959
M204 S2812
M205 X18 Y18
G0 F10000 X102.366 Y109.012
G0 X109.187 Y107.03
G0 X111.396 Y106.588
G0 X113.631 Y106.308
G0 X115.881 Y106.187
G0 X118.132 Y106.227
G0 X120.376 Y106.427
G0 X122.599 Y106.788
G0 X124.791 Y107.308
G0 X126.009 Y107.69
G0 X129.968 Y109.104
G0 X130.097 Y108.975
M204 S500
M205 X5 Y5
G1 F1450.6 X130.181 Y109.138 E28.47029
M204 S2812
M205 X18 Y18
G0 F10000 X130.192 Y109.023
;MESH:NONMESH
G0 F600 X130.192 Y109.023 Z0.39
G0 F10000 X124.791 Y107.308
G0 X122.599 Y106.788
G0 X120.376 Y106.427
G0 X118.132 Y106.227
G0 X115.881 Y106.187
G0 X113.631 Y106.308
G0 X111.396 Y106.588
G0 X109.187 Y107.03
G0 X107.016 Y107.626
G0 X104.892 Y108.377
G0 X104.031 Y108.759
G0 X101.495 Y109.056
;TIME_ELAPSED:91.778354
;LAYER:2
M106 S170
M204 S1000
M205 X10 Y10
;TYPE:WALL-INNER
;MESH:Spring.stl
G1 F1619.1 X101.425 Y109.052 E28.47049
G1 X101.336 Y109.032 E28.47075
G1 X101.425 Y109.045
G1 X101.495 Y109.056 E28.47075
M204 S5000
M205 X30 Y30
G0 F15000 X102.254 Y109.067
M204 S1000
M205 X10 Y10
G1 F1619.1 X102.121 Y109.088 E28.47113
G1 X101.987 Y109.081 E28.47151
G1 X102.12 Y109.075 E28.47152
G1 X102.254 Y109.067 E28.47153
M204 S5000
M205 X30 Y30
G0 F15000 X108.096 Y107.308
G0 X110.288 Y106.788
G0 X112.512 Y106.428
G0 X114.755 Y106.227
G0 X117.006 Y106.187
G0 X119.256 Y106.307
G0 X121.491 Y106.588
G0 X123.7 Y107.029
G0 X130.979 Y109.081
M204 S1000
M205 X10 Y10
G1 F1619.1 X131.151 Y109.073 E28.47201
G1 X131.324 Y109.064 E28.4725
G1 X131.152 Y109.09 E28.47251
G1 X130.979 Y109.081 E28.47253
M204 S5000
M205 X30 Y30
G0 F15000 X130.35 Y109.034
M204 S1000
M205 X10 Y10
G1 F1619.1 X130.434 Y109.046 E28.47277
G1 X130.51 Y109.058 E28.47299
G1 X130.433 Y109.054 E28.47299
G1 X130.35 Y109.034 E28.47299
M204 S5000
M205 X30 Y30
G0 F15000 X129.918 Y108.64
M204 S500
M205 X5 Y5
;TYPE:WALL-OUTER
G1 F1079.4 X130.757 Y108.767 E28.47579
G1 X131.591 Y108.725 E28.47854
G1 X131.906 Y108.67 E28.47959
G1 X131.938 Y108.665 E28.47969
G1 X132.047 Y108.748 E28.48015
G1 X132.119 Y108.898 E28.48069
G1 X132.118 Y108.931 E28.4808
G1 X132.113 Y109.067 E28.48125
G1 X132.032 Y109.211 E28.48179
G1 X131.877 Y109.31 E28.4824
G1 X131.164 Y109.416 E28.48477
G1 X130.387 Y109.378 E28.48733
G1 X129.953 Y109.272 E28.4888
G1 X129.021 Y108.846 E28.49218
G1 X127.982 Y108.413 E28.49588
G1 X126.928 Y108.02 E28.49959
G1 X125.861 Y107.664 E28.50329
G1 X124.781 Y107.346 E28.50699
G1 X123.691 Y107.067 E28.5107
G1 X122.592 Y106.827 E28.5144
G1 X121.485 Y106.627 E28.5181
G1 X120.372 Y106.466 E28.52181
G1 X119.253 Y106.346 E28.52551
G1 X118.13 Y106.266 E28.52922
G1 X117.006 Y106.226 E28.53292
G1 X115.881 Y106.226 E28.53662
G1 X114.757 Y106.266 E28.54032
G1 X113.634 Y106.347 E28.54403
G1 X112.516 Y106.467 E28.54773
G1 X111.402 Y106.627 E28.55144
G1 X110.295 Y106.827 E28.55514
G1 X109.196 Y107.068 E28.55884
G1 X108.106 Y107.346 E28.56255
G1 X107.027 Y107.664 E28.56625
G1 X105.96 Y108.02 E28.56995
G1 X104.906 Y108.414 E28.57366
G1 X103.866 Y108.846 E28.57736
G1 X102.868 Y109.303 E28.58098
G1 X102.134 Y109.414 E28.58342
G1 X101.38 Y109.376 E28.58591
G1 X101.046 Y109.299 E28.58703
G1 X100.919 Y109.156 E28.58766
G1 X100.877 Y108.965 E28.58831
G1 X100.876 Y108.957 E28.58833
G1 X100.935 Y108.76 E28.58901
G1 X101.032 Y108.658 E28.58947
G1 X101.04 Y108.659 E28.5895
G1 X101.757 Y108.767 E28.59189
G1 X102.597 Y108.725 E28.59466
G1 X103.098 Y108.604 E28.59635
G1 X104.051 Y108.169 E28.5998
G1 X105.082 Y107.741 E28.60348
G1 X106.123 Y107.352 E28.60714
G1 X107.17 Y107.002 E28.61077
G1 X108.235 Y106.689 E28.61442
G1 X109.317 Y106.412 E28.6181
G1 X110.402 Y106.176 E28.62175
G1 X111.489 Y105.979 E28.62539
G1 X112.589 Y105.821 E28.62905
G1 X113.693 Y105.702 E28.6327
G1 X114.807 Y105.622 E28.63638
G1 X115.916 Y105.583 E28.64003
G1 X117.021 Y105.583 E28.64367
G1 X118.13 Y105.622 E28.64732
G1 X119.244 Y105.702 E28.651
G1 X120.348 Y105.821 E28.65466
G1 X121.448 Y105.979 E28.65831
G1 X122.535 Y106.176 E28.66195
G1 X123.62 Y106.412 E28.66561
G1 X124.702 Y106.689 E28.66928
G1 X125.767 Y107.002 E28.67294
G1 X126.814 Y107.352 E28.67657
G1 X127.855 Y107.741 E28.68023
G1 X128.886 Y108.169 E28.6839
G1 X129.918 Y108.64 E28.68764
M204 S5000
M205 X30 Y30
G0 F15000 X130.115 Y108.669
G0 X130.113 Y108.829
M204 S500
M205 X5 Y5
;TYPE:SKIN
G1 F1619.1 X130.244 Y108.96 E28.68794
M204 S5000
M205 X30 Y30
G0 F15000 X129.998 Y108.961
M204 S500
M205 X5 Y5
G1 F1619.1 X129.585 Y108.796 E28.68918
G1 X127.851 Y108.052 E28.69445
G1 X125.935 Y107.373 E28.70012
G1 X123.872 Y106.795 E28.7061
G1 X121.988 Y106.397 E28.71148
G1 X120.237 Y106.13 E28.71642
G1 X118.07 Y105.943 E28.72249
G1 X116.052 Y105.905 E28.72812
G1 X113.925 Y106.005 E28.73406
G1 X111.925 Y106.233 E28.73968
G1 X110.034 Y106.569 E28.74504
G1 X108.045 Y107.055 E28.75075
G1 X106.162 Y107.647 E28.75626
G1 X104.199 Y108.406 E28.76214
G1 X102.798 Y108.985 E28.76637
G1 X102.442 Y109.124 E28.76743
M204 S5000
M205 X30 Y30
G0 F15000 X102.659 Y109.164
;MESH:NONMESH
G0 F600 X102.659 Y109.164 Z0.45
G0 F15000 X101.499 Y109.056
;TIME_ELAPSED:97.080412
;LAYER:3
M106 S255
M204 S1000
M205 X10 Y10
;TYPE:WALL-INNER
;MESH:Spring.stl
G1 F1588.4 X101.417 Y109.052 E28.76766
G1 X101.317 Y109.029 E28.76795
G1 X101.418 Y109.044 E28.76796
G1 X101.499 Y109.056 E28.76796
M204 S5000
M205 X30 Y30
G0 F15000 X102.254 Y109.068
M204 S1000
M205 X10 Y10
G1 F1588.4 X102.121 Y109.088 E28.76834
G1 X101.986 Y109.081 E28.76872
G1 X102.12 Y109.075 E28.76873
G1 X102.254 Y109.068 E28.76874
M204 S5000
M205 X30 Y30
G0 F15000 X108.096 Y107.308
G0 X110.288 Y106.788
G0 X112.512 Y106.428
G0 X114.755 Y106.227
G0 X117.006 Y106.187
G0 X119.256 Y106.307
G0 X121.491 Y106.588
G0 X123.7 Y107.029
G0 X130.979 Y109.081
M204 S1000
M205 X10 Y10
G1 F1588.4 X131.151 Y109.073 E28.76922
G1 X131.323 Y109.064 E28.76971
G1 X131.152 Y109.09 E28.76972
G1 X130.979 Y109.081 E28.76974
M204 S5000
M205 X30 Y30
G0 F15000 X130.356 Y109.035
M204 S1000
M205 X10 Y10
G1 F1588.4 X130.435 Y109.046 E28.76996
G1 X130.509 Y109.058 E28.77017
G1 X130.434 Y109.054 E28.77018
G1 X130.356 Y109.035 E28.77018
M204 S5000
M205 X30 Y30
G0 F15000 X129.918 Y108.64
M204 S500
M205 X5 Y5
;TYPE:WALL-OUTER
G1 F1058.9 X130.757 Y108.767 E28.77297
G1 X131.591 Y108.725 E28.77572
G1 X131.906 Y108.672 E28.77678
G1 X131.94 Y108.667 E28.77689
G1 X132.048 Y108.75 E28.77734
G1 X132.119 Y108.9 E28.77788
G1 X132.118 Y108.935 E28.778
G1 X132.112 Y109.069 E28.77844
G1 X132.031 Y109.212 E28.77898
G1 X131.873 Y109.31 E28.77959
G1 X131.164 Y109.416 E28.78195
G1 X130.389 Y109.378 E28.78451
G1 X129.94 Y109.266 E28.78603
G1 X129.021 Y108.846 E28.78936
G1 X127.982 Y108.413 E28.79306
G1 X126.928 Y108.02 E28.79676
G1 X125.861 Y107.664 E28.80047
G1 X124.781 Y107.346 E28.80417
G1 X123.691 Y107.067 E28.80788
G1 X122.592 Y106.827 E28.81158
G1 X121.485 Y106.627 E28.81528
G1 X120.372 Y106.466 E28.81899
G1 X119.253 Y106.346 E28.82269
G1 X118.13 Y106.266 E28.8264
G1 X117.006 Y106.226 E28.8301
G1 X115.881 Y106.226 E28.8338
G1 X114.757 Y106.266 E28.8375
G1 X113.634 Y106.347 E28.84121
G1 X112.516 Y106.467 E28.84491
G1 X111.402 Y106.627 E28.84862
G1 X110.295 Y106.827 E28.85232
G1 X109.196 Y107.068 E28.85602
G1 X108.106 Y107.346 E28.85973
G1 X107.027 Y107.664 E28.86343
G1 X105.96 Y108.02 E28.86713
G1 X104.906 Y108.414 E28.87084
G1 X103.866 Y108.846 E28.87454
G1 X102.868 Y109.303 E28.87816
G1 X102.134 Y109.414 E28.8806
G1 X101.376 Y109.376 E28.8831
G1 X101.044 Y109.298 E28.88422
G1 X100.919 Y109.153 E28.88485
G1 X100.877 Y108.963 E28.88549
G1 X100.875 Y108.953 E28.88553
G1 X100.936 Y108.757 E28.8862
G1 X101.031 Y108.657 E28.88666
G1 X101.041 Y108.658 E28.88669
G1 X101.757 Y108.767 E28.88907
G1 X102.598 Y108.725 E28.89184
G1 X103.111 Y108.598 E28.89358
G1 X104.051 Y108.169 E28.89699
G1 X105.082 Y107.741 E28.90066
G1 X106.123 Y107.352 E28.90432
G1 X107.17 Y107.002 E28.90795
G1 X108.235 Y106.689 E28.91161
G1 X109.317 Y106.412 E28.91528
G1 X110.402 Y106.176 E28.91894
G1 X111.489 Y105.979 E28.92258
G1 X112.589 Y105.821 E28.92623
G1 X113.693 Y105.702 E28.92989
G1 X114.807 Y105.622 E28.93357
G1 X115.916 Y105.583 E28.93722
G1 X117.021 Y105.583 E28.94086
G1 X118.13 Y105.622 E28.94451
G1 X119.244 Y105.702 E28.94819
G1 X120.348 Y105.821 E28.95184
G1 X121.448 Y105.979 E28.9555
G1 X122.535 Y106.176 E28.95914
G1 X123.62 Y106.412 E28.96279
G1 X124.702 Y106.689 E28.96647
G1 X125.767 Y107.002 E28.97012
G1 X126.814 Y107.352 E28.97376
G1 X127.855 Y107.741 E28.97741
G1 X128.886 Y108.169 E28.98109
G1 X129.918 Y108.64 E28.98482
M204 S5000
M205 X30 Y30
G0 F15000 X130.115 Y108.669
G0 X129.904 Y108.92
M204 S500
M205 X5 Y5
;TYPE:SKIN
G1 F1588.4 X130.096 Y108.975 E28.98537
G1 X130.191 Y109.128 E28.98586
G1 X129.037 Y108.549 E28.98939
G1 X127.095 Y107.769 E28.99511
G1 X125.037 Y107.104 E29.00102
G1 X123.058 Y106.609 E29.0066
G1 X121.179 Y106.261 E29.01182
G1 X119.191 Y106.021 E29.01729
G1 X117.077 Y105.908 E29.02308
G1 X115.072 Y105.933 E29.02856
G1 X113.198 Y106.074 E29.03369
G1 X111.193 Y106.347 E29.03922
G1 X109.332 Y106.723 E29.04441
G1 X107.297 Y107.273 E29.05017
G1 X105.414 Y107.919 E29.05561
G1 X103.734 Y108.609 E29.06058
G1 X102.88 Y108.968 E29.06311
G1 X102.414 Y108.939 E29.06439
M204 S5000
M205 X30 Y30
G0 F15000 X102.659 Y109.166
;MESH:NONMESH
G0 F600 X102.659 Y109.166 Z0.51
G0 F15000 X101.499 Y109.056
;TIME_ELAPSED:102.520417
;LAYER:4
M204 S1000
M205 X10 Y10
;TYPE:WALL-INNER
;MESH:Spring.stl
G1 F1582.1 X101.42 Y109.052 E29.06461
G1 X101.328 Y109.03 E29.06488
G1 X101.421 Y109.044 E29.06488
G1 X101.499 Y109.056 E29.06488
M204 S5000
M205 X30 Y30
G0 F15000 X102.254 Y109.068
M204 S1000
M205 X10 Y10
G1 F1582.1 X102.121 Y109.088 E29.06526
G1 X101.987 Y109.081 E29.06564
G1 X102.12 Y109.075 E29.06565
G1 X102.254 Y109.068 E29.06565
M204 S5000
M205 X30 Y30
G0 F15000 X108.096 Y107.308
G0 X110.288 Y106.788
G0 X112.512 Y106.428
G0 X114.755 Y106.227
G0 X117.006 Y106.187
G0 X119.256 Y106.307
G0 X121.491 Y106.588
G0 X123.7 Y107.029
G0 X130.979 Y109.081
M204 S1000
M205 X10 Y10
G1 F1582.1 X131.151 Y109.073 E29.06614
G1 X131.324 Y109.064 E29.06663
G1 X131.152 Y109.09 E29.06664
G1 X130.979 Y109.081 E29.06666
M204 S5000
M205 X30 Y30
G0 F15000 X130.373 Y109.038
M204 S1000
M205 X10 Y10
G1 F1582.1 X130.44 Y109.047 E29.06685
G1 X130.508 Y109.058 E29.06704
G1 X130.439 Y109.055 E29.06705
G1 X130.373 Y109.038 E29.06705
M204 S5000
M205 X30 Y30
G0 F15000 X129.918 Y108.64
M204 S500
M205 X5 Y5
;TYPE:WALL-OUTER
G1 F1054.7 X130.757 Y108.767 E29.06985
G1 X131.59 Y108.725 E29.07259
G1 X131.91 Y108.673 E29.07366
G1 X131.944 Y108.668 E29.07377
G1 X132.049 Y108.749 E29.07421
G1 X132.119 Y108.902 E29.07476
G1 X132.118 Y108.937 E29.07488
G1 X132.111 Y109.071 E29.07532
G1 X132.029 Y109.214 E29.07586
G1 X131.868 Y109.311 E29.07648
G1 X131.164 Y109.416 E29.07882
G1 X130.391 Y109.378 E29.08137
G1 X129.926 Y109.259 E29.08295
G1 X129.021 Y108.846 E29.08623
G1 X127.982 Y108.413 E29.08993
G1 X126.928 Y108.02 E29.09363
G1 X125.861 Y107.664 E29.09734
G1 X124.781 Y107.346 E29.10104
G1 X123.691 Y107.067 E29.10475
G1 X122.592 Y106.827 E29.10845
G1 X121.485 Y106.627 E29.11215
G1 X120.372 Y106.466 E29.11585
G1 X119.253 Y106.346 E29.11956
G1 X118.13 Y106.266 E29.12326
G1 X117.006 Y106.226 E29.12697
G1 X115.881 Y106.226 E29.13067
G1 X114.757 Y106.266 E29.13437
G1 X113.634 Y106.347 E29.13808
G1 X112.516 Y106.467 E29.14178
G1 X111.402 Y106.627 E29.14549
G1 X110.295 Y106.827 E29.14919
G1 X109.196 Y107.068 E29.15289
G1 X108.106 Y107.346 E29.1566
G1 X107.027 Y107.664 E29.1603
G1 X105.96 Y108.02 E29.164
G1 X104.906 Y108.414 E29.16771
G1 X103.866 Y108.846 E29.17141
G1 X102.868 Y109.303 E29.17503
G1 X102.134 Y109.414 E29.17747
G1 X101.377 Y109.376 E29.17996
G1 X101.042 Y109.296 E29.1811
G1 X100.917 Y109.15 E29.18173
G1 X100.878 Y108.963 E29.18236
G1 X100.876 Y108.953 E29.18239
G1 X100.938 Y108.754 E29.18308
G1 X101.031 Y108.657 E29.18352
G1 X101.041 Y108.658 E29.18355
G1 X101.757 Y108.767 E29.18594
G1 X102.598 Y108.725 E29.18871
G1 X103.124 Y108.592 E29.1905
G1 X104.051 Y108.169 E29.19385
G1 X105.082 Y107.741 E29.19753
G1 X106.123 Y107.352 E29.20118
G1 X107.17 Y107.002 E29.20482
G1 X108.235 Y106.689 E29.20847
G1 X109.317 Y106.412 E29.21215
G1 X110.402 Y106.176 E29.2158
G1 X111.489 Y105.979 E29.21944
G1 X112.589 Y105.821 E29.2231
G1 X113.693 Y105.702 E29.22675
G1 X114.807 Y105.622 E29.23043
G1 X115.916 Y105.583 E29.23408
G1 X117.021 Y105.583 E29.23772
G1 X118.13 Y105.622 E29.24137
G1 X119.244 Y105.702 E29.24505
G1 X120.348 Y105.821 E29.24871
G1 X121.448 Y105.979 E29.25236
G1 X122.535 Y106.176 E29.256
G1 X123.62 Y106.412 E29.25966
G1 X124.702 Y106.689 E29.26333
G1 X125.767 Y107.002 E29.26699
G1 X126.814 Y107.352 E29.27062
G1 X127.855 Y107.741 E29.27428
G1 X128.886 Y108.169 E29.27795
G1 X129.918 Y108.64 E29.28169
M204 S5000
M205 X30 Y30
G0 F15000 X130.115 Y108.669
G0 X130.188 Y108.904
M204 S500
M205 X5 Y5
;TYPE:SKIN
G1 F1582.1 X129.998 Y108.962 E29.28224
G1 X127.851 Y108.052 E29.28868
G1 X125.935 Y107.373 E29.29429
G1 X123.872 Y106.795 E29.30021
G1 X121.988 Y106.397 E29.30553
G1 X120.237 Y106.13 E29.31042
G1 X118.07 Y105.943 E29.31643
G1 X116.052 Y105.905 E29.32201
G1 X113.925 Y106.005 E29.32789
G1 X111.925 Y106.233 E29.33345
G1 X110.034 Y106.569 E29.33875
G1 X108.045 Y107.055 E29.34441
G1 X106.162 Y107.647 E29.34986
G1 X104.199 Y108.406 E29.35568
G1 X102.798 Y108.985 E29.35986
G1 X102.441 Y109.123 E29.36092
M204 S5000
M205 X30 Y30
G0 F15000 X102.659 Y109.166
;MESH:NONMESH
G0 F600 X102.659 Y109.166 Z0.57
G0 F15000 X101.496 Y109.056
;TIME_ELAPSED:107.908393
;LAYER:5
M204 S1000
M205 X10 Y10
;TYPE:WALL-INNER
;MESH:Spring.stl
G1 F1587.6 X101.422 Y109.052 E29.36113
G1 X101.339 Y109.032 E29.36137
G1 X101.423 Y109.044 E29.36137
G1 X101.496 Y109.056 E29.36137
M204 S5000
M205 X30 Y30
G0 F15000 X102.253 Y109.068
M204 S1000
M205 X10 Y10
G1 F1587.6 X102.121 Y109.088 E29.36175
G1 X101.987 Y109.081 E29.36213
G1 X102.12 Y109.075 E29.36213
G1 X102.253 Y109.068 E29.36214
M204 S5000
M205 X30 Y30
G0 F15000 X108.096 Y107.308
G0 X110.288 Y106.788
G0 X112.512 Y106.428
G0 X114.755 Y106.227
G0 X117.006 Y106.187
G0 X119.256 Y106.307
G0 X121.491 Y106.588
G0 X123.7 Y107.029
G0 X130.979 Y109.081
M204 S1000
M205 X10 Y10
G1 F1587.6 X131.15 Y109.073 E29.36263
G1 X131.318 Y109.064 E29.3631
G1 X131.151 Y109.09 E29.36312
G1 X130.979 Y109.081 E29.36313
M204 S5000
M205 X30 Y30
G0 F15000 X130.371 Y109.037
M204 S1000
M205 X10 Y10
G1 F1587.6 X130.439 Y109.047 E29.36333
G1 X130.51 Y109.058 E29.36353
G1 X130.438 Y109.055 E29.36353
G1 X130.371 Y109.037 E29.36354
M204 S5000
M205 X30 Y30
G0 F15000 X129.918 Y108.64
M204 S500
M205 X5 Y5
;TYPE:WALL-OUTER
G1 F1058.4 X130.757 Y108.767 E29.36633
G1 X131.59 Y108.725 E29.36908
G1 X131.91 Y108.674 E29.37014
G1 X131.944 Y108.669 E29.37026
G1 X132.051 Y108.753 E29.3707
G1 X132.119 Y108.903 E29.37125
G1 X132.118 Y108.938 E29.37136
G1 X132.11 Y109.073 E29.37181
G1 X132.024 Y109.221 E29.37237
G1 X131.903 Y109.304 E29.37285
G1 X131.164 Y109.416 E29.37531
G1 X130.388 Y109.378 E29.37787
G1 X129.918 Y109.256 E29.37947
G1 X129.021 Y108.846 E29.38272
G1 X127.982 Y108.413 E29.38642
G1 X126.928 Y108.02 E29.39012
G1 X125.861 Y107.664 E29.39383
G1 X124.781 Y107.346 E29.39753
G1 X123.691 Y107.067 E29.40124
G1 X122.592 Y106.827 E29.40494
G1 X121.485 Y106.627 E29.40864
G1 X120.372 Y106.466 E29.41234
G1 X119.253 Y106.346 E29.41605
G1 X118.13 Y106.266 E29.41975
G1 X117.006 Y106.226 E29.42346
G1 X115.881 Y106.226 E29.42716
G1 X114.757 Y106.266 E29.43086
G1 X113.634 Y106.347 E29.43457
G1 X112.516 Y106.467 E29.43827
G1 X111.402 Y106.627 E29.44198
G1 X110.295 Y106.827 E29.44568
G1 X109.196 Y107.068 E29.44938
G1 X108.106 Y107.346 E29.45309
G1 X107.027 Y107.664 E29.45679
G1 X105.96 Y108.02 E29.46049
G1 X104.906 Y108.414 E29.4642
G1 X103.866 Y108.846 E29.4679
G1 X102.868 Y109.303 E29.47152
G1 X102.134 Y109.414 E29.47396
G1 X101.378 Y109.376 E29.47645
G1 X101.04 Y109.295 E29.4776
G1 X100.917 Y109.149 E29.47822
G1 X100.879 Y108.962 E29.47885
G1 X100.877 Y108.948 E29.4789
G1 X100.939 Y108.753 E29.47957
G1 X101.032 Y108.658 E29.48001
G1 X101.046 Y108.66 E29.48006
G1 X101.757 Y108.767 E29.48242
G1 X102.598 Y108.725 E29.48519
G1 X103.137 Y108.587 E29.48703
G1 X104.051 Y108.169 E29.49033
G1 X105.082 Y107.741 E29.49401
G1 X106.123 Y107.352 E29.49767
G1 X107.17 Y107.002 E29.5013
G1 X108.235 Y106.689 E29.50496
G1 X109.317 Y106.412 E29.50863
G1 X110.402 Y106.176 E29.51229
G1 X111.489 Y105.979 E29.51592
G1 X112.589 Y105.821 E29.51958
G1 X113.693 Y105.702 E29.52324
G1 X114.807 Y105.622 E29.52691
G1 X115.916 Y105.583 E29.53057
G1 X117.021 Y105.583 E29.5342
G1 X118.13 Y105.622 E29.53786
G1 X119.244 Y105.702 E29.54153
G1 X120.348 Y105.821 E29.54519
G1 X121.448 Y105.979 E29.54885
G1 X122.535 Y106.176 E29.55248
G1 X123.62 Y106.412 E29.55614
G1 X124.702 Y106.689 E29.55982
G1 X125.767 Y107.002 E29.56347
G1 X126.814 Y107.352 E29.5671
G1 X127.855 Y107.741 E29.57076
G1 X128.886 Y108.169 E29.57444
G1 X129.918 Y108.64 E29.57817
M204 S5000
M205 X30 Y30
G0 F15000 X130.115 Y108.669
G0 X129.904 Y108.92
M204 S500
M205 X5 Y5
;TYPE:SKIN
G1 F1587.6 X130.096 Y108.975 E29.57872
G1 X130.201 Y109.118 E29.5792
G1 X128.865 Y108.474 E29.58326
G1 X126.912 Y107.704 E29.589
G1 X124.845 Y107.05 E29.59493
G1 X122.854 Y106.565 E29.60053
G1 X120.962 Y106.23 E29.60579
G1 X118.961 Y106.003 E29.61129
G1 X116.833 Y105.904 E29.61712
G1 X114.813 Y105.944 E29.62265
G1 X112.643 Y106.134 E29.6286
G1 X110.588 Y106.457 E29.63429
G1 X108.671 Y106.889 E29.63966
G1 X106.938 Y107.385 E29.64459
G1 X105.017 Y108.069 E29.65017
G1 X103.278 Y108.817 E29.65535
G1 X102.57 Y109.03 E29.65737
G1 X102.414 Y108.939 E29.65786
M204 S5000
M205 X30 Y30
G0 F15000 X102.657 Y109.167
;MESH:NONMESH
G0 F600 X102.657 Y109.167 Z0.63
G0 F15000 X101.496 Y109.056
;TIME_ELAPSED:113.352880
;LAYER:6
M204 S1000
M205 X10 Y10
;TYPE:WALL-INNER
;MESH:Spring.stl
G1 F1581.6 X101.428 Y109.053 E29.65806
G1 X101.356 Y109.035 E29.65827
G1 X101.429 Y109.045 E29.65827
G1 X101.496 Y109.056 E29.65827
M204 S5000
M205 X30 Y30
G0 F15000 X102.253 Y109.068
M204 S1000
M205 X10 Y10
G1 F1581.6 X102.121 Y109.088 E29.65864
G1 X101.987 Y109.081 E29.65902
G1 X102.12 Y109.075 E29.65903
G1 X102.253 Y109.068 E29.65904
M204 S5000
M205 X30 Y30
G0 F15000 X108.096 Y107.308
G0 X110.288 Y106.788
G0 X112.512 Y106.428
G0 X114.755 Y106.227
G0 X117.006 Y106.187
G0 X119.256 Y106.307
G0 X121.491 Y106.588
G0 X123.7 Y107.029
G0 X130.979 Y109.081
M204 S1000
M205 X10 Y10
G1 F1581.6 X131.15 Y109.073 E29.65952
G1 X131.317 Y109.064 E29.65999
G1 X131.151 Y109.09 E29.66001
G1 X130.979 Y109.081 E29.66002
M204 S5000
M205 X30 Y30
G0 F15000 X130.371 Y109.037
M204 S1000
M205 X10 Y10
G1 F1581.6 X130.437 Y109.047 E29.66021
G1 X130.509 Y109.058 E29.66042
G1 X130.436 Y109.055 E29.66042
G1 X130.371 Y109.037 E29.66043
M204 S5000
M205 X30 Y30
G0 F15000 X129.918 Y108.64
M204 S500
M205 X5 Y5
;TYPE:WALL-OUTER
G1 F1054.4 X130.757 Y108.767 E29.66322
G1 X131.59 Y108.725 E29.66597
G1 X131.912 Y108.676 E29.66704
G1 X131.946 Y108.671 E29.66715
G1 X132.05 Y108.753 E29.66759
G1 X132.119 Y108.907 E29.66814
G1 X132.118 Y108.942 E29.66826
G1 X132.11 Y109.074 E29.66869
G1 X132.022 Y109.222 E29.66926
G1 X131.901 Y109.304 E29.66974
G1 X131.164 Y109.416 E29.67219
G1 X130.389 Y109.378 E29.67475
G1 X129.905 Y109.25 E29.6764
G1 X129.021 Y108.846 E29.6796
G1 X127.982 Y108.413 E29.6833
G1 X126.928 Y108.02 E29.687
G1 X125.861 Y107.664 E29.69071
G1 X124.781 Y107.346 E29.69441
G1 X123.691 Y107.067 E29.69812
G1 X122.592 Y106.827 E29.70182
G1 X121.485 Y106.627 E29.70552
G1 X120.372 Y106.466 E29.70923
G1 X119.253 Y106.346 E29.71293
G1 X118.13 Y106.266 E29.71664
G1 X117.006 Y106.226 E29.72034
G1 X115.881 Y106.226 E29.72404
G1 X114.757 Y106.266 E29.72774
G1 X113.634 Y106.347 E29.73145
G1 X112.516 Y106.467 E29.73515
G1 X111.402 Y106.627 E29.73886
G1 X110.295 Y106.827 E29.74256
G1 X109.196 Y107.068 E29.74626
G1 X108.106 Y107.346 E29.74997
G1 X107.027 Y107.664 E29.75367
G1 X105.96 Y108.02 E29.75737
G1 X104.906 Y108.414 E29.76108
G1 X103.866 Y108.846 E29.76478
G1 X102.868 Y109.303 E29.7684
G1 X102.134 Y109.414 E29.77084
G1 X101.38 Y109.376 E29.77333
G1 X101.034 Y109.291 E29.7745
G1 X100.924 Y109.171 E29.77503
G1 X100.872 Y108.971 E29.77571
G1 X100.923 Y108.775 E29.77638
G1 X101.033 Y108.658 E29.77691
G1 X101.757 Y108.767 E29.77932
G1 X102.599 Y108.725 E29.7821
G1 X103.149 Y108.58 E29.78397
G1 X104.051 Y108.169 E29.78723
G1 X105.082 Y107.741 E29.79091
G1 X106.123 Y107.352 E29.79456
G1 X107.17 Y107.002 E29.7982
G1 X108.235 Y106.689 E29.80185
G1 X109.317 Y106.412 E29.80553
G1 X110.402 Y106.176 E29.80918
G1 X111.489 Y105.979 E29.81282
G1 X112.589 Y105.821 E29.81648
G1 X113.693 Y105.702 E29.82013
G1 X114.807 Y105.622 E29.82381
G1 X115.916 Y105.583 E29.82746
G1 X117.021 Y105.583 E29.8311
G1 X118.13 Y105.622 E29.83475
G1 X119.244 Y105.702 E29.83843
G1 X120.348 Y105.821 E29.84208
G1 X121.448 Y105.979 E29.84574
G1 X122.535 Y106.176 E29.84938
G1 X123.62 Y106.412 E29.85303
G1 X124.702 Y106.689 E29.85671
G1 X125.767 Y107.002 E29.86037
G1 X126.814 Y107.352 E29.864
G1 X127.855 Y107.741 E29.86766
G1 X128.886 Y108.169 E29.87133
G1 X129.918 Y108.64 E29.87507
M204 S5000
M205 X30 Y30
G0 F15000 X130.115 Y108.669
G0 X130.188 Y108.904
M204 S500
M205 X5 Y5
;TYPE:SKIN
G1 F1581.6 X129.997 Y108.961 E29.87562
G1 X127.851 Y108.052 E29.88207
G1 X125.935 Y107.373 E29.8877
G1 X123.872 Y106.795 E29.89363
G1 X121.988 Y106.397 E29.89896
G1 X120.237 Y106.13 E29.90386
G1 X118.07 Y105.943 E29.90988
G1 X116.052 Y105.905 E29.91547
G1 X113.925 Y106.005 E29.92137
G1 X111.925 Y106.233 E29.92694
G1 X110.034 Y106.569 E29.93225
G1 X108.045 Y107.055 E29.93792
G1 X106.162 Y107.647 E29.94339
G1 X104.199 Y108.406 E29.94921
G1 X102.798 Y108.985 E29.95341
G1 X102.591 Y109.026 E29.95399
M204 S5000
M205 X30 Y30
G0 F15000 X102.513 Y109.195
M204 S500
M205 X5 Y5
G1 F1581.6 X102.368 Y109.05 E29.95433
M204 S5000
M205 X30 Y30
;MESH:NONMESH
G0 F600 X102.368 Y109.05 Z0.69
G0 F15000 X102.252 Y109.068
;TIME_ELAPSED:118.748745
;LAYER:7
M204 S1000
M205 X10 Y10
;TYPE:WALL-INNER
;MESH:Spring.stl
G1 F1611.8 X102.121 Y109.088 E29.95471
G1 X101.987 Y109.081 E29.95508
G1 X102.12 Y109.075 E29.95509
G1 X102.252 Y109.068 E29.9551
M204 S5000
M205 X30 Y30
G0 F15000 X108.096 Y107.308
G0 X110.288 Y106.788
G0 X112.512 Y106.428
G0 X114.755 Y106.227
G0 X117.006 Y106.187
G0 X119.256 Y106.307
G0 X121.491 Y106.588
G0 X123.7 Y107.029
G0 X130.979 Y109.081
M204 S1000
M205 X10 Y10
G1 F1611.8 X131.15 Y109.073 E29.95558
G1 X131.318 Y109.064 E29.95606
G1 X131.151 Y109.09 E29.95607
G1 X130.979 Y109.081 E29.95609
M204 S5000
M205 X30 Y30
G0 F15000 X130.379 Y109.039
M204 S1000
M205 X10 Y10
G1 F1611.8 X130.44 Y109.047 E29.95626
G1 X130.509 Y109.058 E29.95646
G1 X130.439 Y109.055 E29.95646
G1 X130.379 Y109.039 E29.95647
M204 S5000
M205 X30 Y30
G0 F15000 X129.918 Y108.64
M204 S500
M205 X5 Y5
;TYPE:WALL-OUTER
G1 F1074.5 X130.757 Y108.767 E29.95926
G1 X131.589 Y108.725 E29.962
G1 X131.914 Y108.676 E29.96308
G1 X131.948 Y108.671 E29.9632
G1 X132.052 Y108.756 E29.96364
G1 X132.119 Y108.908 E29.96419
G1 X132.117 Y108.943 E29.9643
G1 X132.109 Y109.077 E29.96474
G1 X132.021 Y109.224 E29.96531
G1 X131.902 Y109.304 E29.96578
G1 X131.164 Y109.416 E29.96824
G1 X130.39 Y109.378 E29.97079
G1 X129.894 Y109.245 E29.97248
G1 X129.021 Y108.846 E29.97564
G1 X127.982 Y108.413 E29.97934
G1 X126.928 Y108.02 E29.98305
G1 X125.861 Y107.664 E29.98675
G1 X124.781 Y107.346 E29.99046
