;START_OF_HEADER
;HEADER_VERSION:0.1
;FLAVOR:Griffin
;GENERATOR.NAME:Cura_SteamEngine
;GENERATOR.VERSION:4.7.1
;GENERATOR.BUILD_DATE:2020-09-02
;TARGET_MACHINE.NAME:Ultimaker 3
;EXTRUDER_TRAIN.0.INITIAL_TEMPERATURE:210
;EXTRUDER_TRAIN.0.MATERIAL.VOLUME_USED:13093
;EXTRUDER_TRAIN.0.MATERIAL.GUID:506c9f0d-e3aa-4bd4-b2d2-23e2425b1aa9
;EXTRUDER_TRAIN.0.NOZZLE.DIAMETER:0.4
;EXTRUDER_TRAIN.0.NOZZLE.NAME:AA 0.4
;BUILD_PLATE.TYPE:glass
;BUILD_PLATE.INITIAL_TEMPERATURE:60
;PRINT.TIME:5600
;PRINT.GROUPS:1
;PRINT.SIZE.MIN.X:9
;PRINT.SIZE.MIN.Y:6
;PRINT.SIZE.MIN.Z:0.27
;PRINT.SIZE.MAX.X:208.414
;PRINT.SIZE.MAX.Y:136.43
;PRINT.SIZE.MAX.Z:3.87
;END_OF_HEADER
;Generated with Cura_SteamEngine 4.7.1
T0
M82 ;absolute extrusion mode

G92 E0
M109 S210
G0 F15000 X9 Y6 Z2
G280
G1 F1500 E-6.5
;LAYER_COUNT:9
;LAYER:0
M107
M204 S625
M205 X6 Y6
G1 F600 Z2.27
G0 F4285.7 X36.272 Y79.414 Z2.27
M204 S500
M205 X5 Y5
;TYPE:SKIRT
G1 F600 Z0.27
G1 F1500 E0
G1 F1200 X37.223 Y79.134 E0.01762
G1 X38.62 Y78.83 E0.04304
G1 X39.598 Y78.69 E0.0606
G1 X41.02 Y78.588 E0.08594
G1 X41.516 Y78.57 E0.09476
G1 X191.484 Y78.57 E2.76059
G1 X191.98 Y78.588 E2.76941
G1 X193.402 Y78.69 E2.79476
G1 X194.38 Y78.83 E2.81232
G1 X195.777 Y79.134 E2.83773
G1 X196.728 Y79.414 E2.85536
G1 X198.061 Y79.912 E2.88065
G1 X198.952 Y80.319 E2.89806
G1 X200.207 Y81.003 E2.92347
G1 X201.045 Y81.541 E2.94117
G1 X202.188 Y82.397 E2.96656
G1 X202.934 Y83.044 E2.98411
G1 X203.94 Y84.05 E3.0094
G1 X204.589 Y84.799 E3.02702
G1 X205.444 Y85.942 E3.05239
G1 X205.978 Y86.773 E3.06995
G1 X206.663 Y88.028 E3.09536
G1 X207.072 Y88.923 E3.11286
G1 X207.57 Y90.256 E3.13815
G1 X207.85 Y91.207 E3.15577
G1 X208.154 Y92.604 E3.18119
G1 X208.294 Y93.582 E3.19875
G1 X208.396 Y95.003 E3.22407
G1 X208.414 Y95.499 E3.2329
G1 X208.414 Y119.5 E3.65954
G1 X208.396 Y119.996 E3.66836
G1 X208.294 Y121.418 E3.6937
G1 X208.154 Y122.394 E3.71123
G1 X207.851 Y123.788 E3.73659
G1 X207.571 Y124.741 E3.75425
G1 X207.072 Y126.077 E3.7796
G1 X206.663 Y126.972 E3.79709
G1 X205.978 Y128.227 E3.8225
G1 X205.444 Y129.058 E3.84006
G1 X204.589 Y130.201 E3.86544
G1 X203.94 Y130.95 E3.88305
G1 X202.934 Y131.956 E3.90834
G1 X202.188 Y132.603 E3.9259
G1 X201.045 Y133.459 E3.95128
G1 X200.205 Y133.998 E3.96902
G1 X198.949 Y134.682 E3.99445
G1 X198.062 Y135.087 E4.01178
G1 X196.73 Y135.585 E4.03706
G1 X195.777 Y135.866 E4.05472
G1 X194.38 Y136.17 E4.08013
G1 X193.402 Y136.31 E4.09769
G1 X191.98 Y136.412 E4.12304
G1 X191.484 Y136.43 E4.13186
G1 X41.516 Y136.43 E6.79769
G1 X41.02 Y136.412 E6.80651
G1 X39.598 Y136.31 E6.83185
G1 X38.62 Y136.17 E6.84941
G1 X37.223 Y135.866 E6.87483
G1 X36.27 Y135.585 E6.89249
G1 X34.938 Y135.087 E6.91777
G1 X34.051 Y134.682 E6.9351
G1 X32.795 Y133.998 E6.96052
G1 X31.955 Y133.459 E6.97827
G1 X30.812 Y132.603 E7.00365
G1 X30.066 Y131.956 E7.0212
G1 X29.06 Y130.95 E7.04649
G1 X28.411 Y130.201 E7.06411
G1 X27.556 Y129.058 E7.08948
G1 X27.022 Y128.227 E7.10704
G1 X26.337 Y126.972 E7.13246
G1 X25.928 Y126.077 E7.14995
G1 X25.429 Y124.741 E7.1753
G1 X25.149 Y123.788 E7.19296
G1 X24.846 Y122.394 E7.21832
G1 X24.706 Y121.418 E7.23584
G1 X24.604 Y119.997 E7.26117
G1 X24.586 Y119.501 E7.26999
G1 X24.586 Y95.5 E7.69663
G1 X24.604 Y95.004 E7.70545
G1 X24.706 Y93.582 E7.7308
G1 X24.846 Y92.606 E7.74832
G1 X25.149 Y91.212 E7.77368
G1 X25.429 Y90.259 E7.79134
G1 X25.928 Y88.923 E7.81669
G1 X26.337 Y88.028 E7.83418
G1 X27.022 Y86.773 E7.8596
G1 X27.556 Y85.942 E7.87716
G1 X28.411 Y84.799 E7.90253
G1 X29.06 Y84.05 E7.92015
G1 X30.066 Y83.044 E7.94544
G1 X30.812 Y82.397 E7.96299
G1 X31.955 Y81.541 E7.98837
G1 X32.793 Y81.003 E8.00608
G1 X34.048 Y80.319 E8.03148
G1 X34.939 Y79.912 E8.0489
G1 X36.272 Y79.414 E8.07419
M204 S625
M205 X6 Y6
G0 F4285.7 X36.419 Y79.808
M204 S500
M205 X5 Y5
G1 F1200 X37.313 Y79.545 E8.09076
G1 X38.71 Y79.241 E8.11617
G1 X39.628 Y79.109 E8.13266
G1 X41.05 Y79.007 E8.158
G1 X41.516 Y78.99 E8.16629
G1 X191.484 Y78.99 E10.83212
G1 X191.95 Y79.007 E10.8404
G1 X193.372 Y79.109 E10.86575
G1 X194.29 Y79.241 E10.88223
G1 X195.687 Y79.545 E10.90765
G1 X196.581 Y79.808 E10.92421
G1 X197.914 Y80.306 E10.94951
G1 X198.751 Y80.688 E10.96586
G1 X200.006 Y81.372 E10.99127
G1 X200.793 Y81.877 E11.00789
G1 X201.936 Y82.733 E11.03328
G1 X202.637 Y83.341 E11.04977
G1 X203.643 Y84.347 E11.07506
G1 X204.253 Y85.051 E11.09162
G1 X205.108 Y86.194 E11.11699
G1 X205.609 Y86.974 E11.13347
G1 X206.294 Y88.229 E11.15889
G1 X206.678 Y89.07 E11.17532
G1 X207.176 Y90.403 E11.20062
G1 X207.439 Y91.297 E11.21718
G1 X207.743 Y92.694 E11.2426
G1 X207.875 Y93.612 E11.25908
G1 X207.977 Y95.033 E11.28441
G1 X207.994 Y95.499 E11.2927
G1 X207.994 Y119.5 E11.71934
G1 X207.977 Y119.966 E11.72763
G1 X207.875 Y121.388 E11.75297
G1 X207.743 Y122.305 E11.76944
G1 X207.44 Y123.699 E11.7948
G1 X207.177 Y124.594 E11.81138
G1 X206.678 Y125.93 E11.83673
G1 X206.294 Y126.771 E11.85316
G1 X205.609 Y128.026 E11.87858
G1 X205.108 Y128.806 E11.89506
G1 X204.253 Y129.949 E11.92043
G1 X203.643 Y130.653 E11.93699
G1 X202.637 Y131.659 E11.96228
G1 X201.936 Y132.267 E11.97877
G1 X200.793 Y133.123 E12.00416
G1 X200.004 Y133.629 E12.02082
G1 X198.748 Y134.313 E12.04624
G1 X197.915 Y134.694 E12.06253
G1 X196.583 Y135.192 E12.0878
G1 X195.687 Y135.455 E12.1044
G1 X194.29 Y135.759 E12.12982
G1 X193.372 Y135.891 E12.1463
G1 X191.95 Y135.993 E12.17165
G1 X191.484 Y136.01 E12.17993
G1 X41.516 Y136.01 E14.84576
G1 X41.05 Y135.993 E14.85405
G1 X39.628 Y135.891 E14.87939
G1 X38.71 Y135.759 E14.89588
G1 X37.313 Y135.455 E14.92129
G1 X36.417 Y135.192 E14.93789
G1 X35.085 Y134.694 E14.96317
G1 X34.252 Y134.313 E14.97945
G1 X32.996 Y133.629 E15.00488
G1 X32.207 Y133.123 E15.02154
G1 X31.064 Y132.267 E15.04692
G1 X30.363 Y131.659 E15.06342
G1 X29.357 Y130.653 E15.08871
G1 X28.747 Y129.949 E15.10527
G1 X27.892 Y128.806 E15.13064
G1 X27.391 Y128.026 E15.14712
G1 X26.706 Y126.771 E15.17253
G1 X26.322 Y125.93 E15.18897
G1 X25.823 Y124.594 E15.21432
G1 X25.56 Y123.699 E15.2309
G1 X25.257 Y122.305 E15.25626
G1 X25.125 Y121.388 E15.27273
G1 X25.023 Y119.967 E15.29805
G1 X25.006 Y119.501 E15.30634
G1 X25.006 Y95.5 E15.73298
G1 X25.023 Y95.034 E15.74127
G1 X25.125 Y93.612 E15.76662
G1 X25.257 Y92.695 E15.78308
G1 X25.56 Y91.301 E15.80844
G1 X25.823 Y90.406 E15.82502
G1 X26.322 Y89.07 E15.85038
G1 X26.706 Y88.229 E15.86681
G1 X27.391 Y86.974 E15.89223
G1 X27.892 Y86.194 E15.9087
G1 X28.747 Y85.051 E15.93408
G1 X29.357 Y84.347 E15.95064
G1 X30.363 Y83.341 E15.97593
G1 X31.064 Y82.733 E15.99242
G1 X32.207 Y81.877 E16.01781
G1 X32.994 Y81.372 E16.03443
G1 X34.249 Y80.688 E16.05983
G1 X35.086 Y80.306 E16.07619
G1 X36.419 Y79.808 E16.10148
M204 S625
M205 X6 Y6
G0 F4285.7 X36.566 Y80.201
M204 S500
M205 X5 Y5
G1 F1200 X37.402 Y79.955 E16.11698
G1 X38.799 Y79.651 E16.14239
G1 X39.658 Y79.528 E16.15781
G1 X41.08 Y79.426 E16.18316
G1 X41.516 Y79.41 E16.19091
G1 X191.484 Y79.41 E18.85674
G1 X191.92 Y79.426 E18.8645
G1 X193.342 Y79.528 E18.88984
G1 X194.201 Y79.651 E18.90526
G1 X195.598 Y79.955 E18.93068
G1 X196.434 Y80.201 E18.94617
G1 X197.767 Y80.699 E18.97146
G1 X198.55 Y81.057 E18.98677
G1 X199.805 Y81.741 E19.01217
G1 X200.542 Y82.213 E19.02773
G1 X201.685 Y83.069 E19.05312
G1 X202.34 Y83.638 E19.06854
G1 X203.346 Y84.644 E19.09383
G1 X203.917 Y85.302 E19.10932
G1 X204.772 Y86.445 E19.13469
G1 X205.241 Y87.175 E19.15011
G1 X205.926 Y88.43 E19.17553
G1 X206.285 Y89.217 E19.1909
G1 X206.783 Y90.55 E19.2162
G1 X207.029 Y91.386 E19.23169
G1 X207.333 Y92.783 E19.2571
G1 X207.456 Y93.642 E19.27253
G1 X207.558 Y95.063 E19.29785
G1 X207.574 Y95.499 E19.30561
G1 X207.574 Y119.5 E19.73225
G1 X207.558 Y119.936 E19.74001
G1 X207.456 Y121.358 E19.76535
G1 X207.333 Y122.216 E19.78076
G1 X207.03 Y123.61 E19.80612
G1 X206.784 Y124.447 E19.82162
G1 X206.285 Y125.783 E19.84697
G1 X205.926 Y126.57 E19.86235
G1 X205.241 Y127.825 E19.88777
G1 X204.772 Y128.555 E19.90319
G1 X203.917 Y129.698 E19.92856
G1 X203.346 Y130.356 E19.94405
G1 X202.34 Y131.362 E19.96934
G1 X201.685 Y131.931 E19.98476
G1 X200.542 Y132.787 E20.01015
G1 X199.804 Y133.26 E20.02573
G1 X198.548 Y133.944 E20.05115
G1 X197.768 Y134.3 E20.06639
G1 X196.436 Y134.798 E20.09167
G1 X195.598 Y135.045 E20.1072
G1 X194.201 Y135.349 E20.13262
G1 X193.342 Y135.472 E20.14804
G1 X191.92 Y135.574 E20.17338
G1 X191.484 Y135.59 E20.18114
G1 X41.516 Y135.59 E22.84697
G1 X41.08 Y135.574 E22.85472
G1 X39.658 Y135.472 E22.88006
G1 X38.799 Y135.349 E22.89549
G1 X37.402 Y135.045 E22.9209
G1 X36.564 Y134.798 E22.93643
G1 X35.232 Y134.3 E22.96171
G1 X34.452 Y133.944 E22.97695
G1 X33.196 Y133.26 E23.00238
G1 X32.458 Y132.787 E23.01796
G1 X31.315 Y131.931 E23.04334
G1 X30.66 Y131.362 E23.05876
G1 X29.654 Y130.356 E23.08405
G1 X29.083 Y129.698 E23.09954
G1 X28.228 Y128.555 E23.12491
G1 X27.759 Y127.825 E23.14034
G1 X27.074 Y126.57 E23.16575
G1 X26.715 Y125.783 E23.18113
G1 X26.216 Y124.447 E23.20648
G1 X25.97 Y123.61 E23.22199
G1 X25.667 Y122.216 E23.24735
G1 X25.544 Y121.358 E23.26276
G1 X25.442 Y119.937 E23.28808
G1 X25.426 Y119.501 E23.29584
G1 X25.426 Y95.5 E23.72248
G1 X25.442 Y95.064 E23.73023
G1 X25.544 Y93.642 E23.75557
G1 X25.667 Y92.784 E23.77098
G1 X25.97 Y91.39 E23.79634
G1 X26.216 Y90.553 E23.81185
G1 X26.715 Y89.217 E23.8372
G1 X27.074 Y88.43 E23.85258
G1 X27.759 Y87.175 E23.87799
G1 X28.228 Y86.445 E23.89342
G1 X29.083 Y85.302 E23.91879
G1 X29.654 Y84.644 E23.93428
G1 X30.66 Y83.638 E23.95957
G1 X31.315 Y83.069 E23.97499
G1 X32.458 Y82.213 E24.00037
G1 X33.195 Y81.741 E24.01593
G1 X34.45 Y81.057 E24.04134
G1 X35.233 Y80.699 E24.05664
G1 X36.566 Y80.201 E24.08194
M204 S625
M205 X6 Y6
G0 F4285.7 X36.713 Y80.595
M204 S500
M205 X5 Y5
G1 F1200 X37.491 Y80.366 E24.09635
G1 X38.888 Y80.062 E24.12177
G1 X39.688 Y79.947 E24.13613
G1 X41.11 Y79.845 E24.16148
G1 X41.516 Y79.83 E24.1687
G1 X191.484 Y79.83 E26.83453
G1 X191.89 Y79.845 E26.84175
G1 X193.312 Y79.947 E26.86709
G1 X194.112 Y80.062 E26.88146
G1 X195.509 Y80.366 E26.90687
G1 X196.287 Y80.595 E26.92129
G1 X197.62 Y81.093 E26.94658
G1 X198.349 Y81.425 E26.96082
G1 X199.604 Y82.109 E26.98623
G1 X200.29 Y82.55 E27.00073
G1 X201.433 Y83.406 E27.02611
G1 X202.043 Y83.935 E27.04046
G1 X203.049 Y84.941 E27.06575
G1 X203.58 Y85.554 E27.08017
G1 X204.435 Y86.697 E27.10554
G1 X204.872 Y87.377 E27.11991
G1 X205.557 Y88.632 E27.14533
G1 X205.891 Y89.364 E27.15963
G1 X206.389 Y90.697 E27.18492
G1 X206.618 Y91.475 E27.19934
G1 X206.922 Y92.872 E27.22475
G1 X207.037 Y93.672 E27.23912
G1 X207.139 Y95.093 E27.26445
G1 X207.154 Y95.499 E27.27167
G1 X207.154 Y119.5 E27.69831
G1 X207.139 Y119.906 E27.70553
G1 X207.037 Y121.328 E27.73087
G1 X206.923 Y122.126 E27.7452
G1 X206.62 Y123.52 E27.77056
G1 X206.391 Y124.3 E27.78501
G1 X205.892 Y125.636 E27.81036
G1 X205.557 Y126.368 E27.82467
G1 X204.872 Y127.623 E27.85009
G1 X204.435 Y128.303 E27.86446
G1 X203.58 Y129.446 E27.88983
G1 X203.049 Y130.059 E27.90425
G1 X202.043 Y131.065 E27.92954
G1 X201.433 Y131.594 E27.94389
G1 X200.29 Y132.45 E27.96927
G1 X199.603 Y132.891 E27.98379
G1 X198.347 Y133.575 E28.00921
G1 X197.621 Y133.907 E28.0234
G1 X196.289 Y134.405 E28.04868
G1 X195.509 Y134.634 E28.06313
G1 X194.112 Y134.938 E28.08854
G1 X193.312 Y135.053 E28.10291
G1 X191.89 Y135.155 E28.12825
G1 X191.484 Y135.17 E28.13547
G1 X41.516 Y135.17 E30.8013
G1 X41.11 Y135.155 E30.80852
G1 X39.688 Y135.053 E30.83387
G1 X38.888 Y134.938 E30.84823
G1 X37.491 Y134.634 E30.87365
G1 X36.711 Y134.405 E30.8881
G1 X35.379 Y133.907 E30.91338
G1 X34.653 Y133.575 E30.92757
G1 X33.397 Y132.891 E30.95299
G1 X32.71 Y132.45 E30.9675
G1 X31.567 Y131.594 E30.99288
G1 X30.957 Y131.065 E31.00724
G1 X29.951 Y130.059 E31.03253
G1 X29.42 Y129.446 E31.04694
G1 X28.565 Y128.303 E31.07232
G1 X28.128 Y127.623 E31.08669
G1 X27.443 Y126.368 E31.1121
G1 X27.108 Y125.636 E31.12641
G1 X26.609 Y124.3 E31.15176
G1 X26.38 Y123.52 E31.16621
G1 X26.077 Y122.126 E31.19157
G1 X25.963 Y121.328 E31.2059
G1 X25.861 Y119.907 E31.23122
G1 X25.846 Y119.501 E31.23845
G1 X25.846 Y95.5 E31.66509
G1 X25.861 Y95.094 E31.67231
G1 X25.963 Y93.672 E31.69765
G1 X26.077 Y92.874 E31.71198
G1 X26.38 Y91.48 E31.73734
G1 X26.609 Y90.7 E31.75179
G1 X27.108 Y89.364 E31.77714
G1 X27.443 Y88.632 E31.79145
G1 X28.128 Y87.377 E31.81687
G1 X28.565 Y86.697 E31.83124
G1 X29.42 Y85.554 E31.85661
G1 X29.951 Y84.941 E31.87103
G1 X30.957 Y83.935 E31.89632
G1 X31.567 Y83.406 E31.91067
G1 X32.71 Y82.55 E31.93605
G1 X33.396 Y82.109 E31.95055
G1 X34.651 Y81.425 E31.97596
G1 X35.38 Y81.093 E31.9902
G1 X36.713 Y80.595 E32.01549
M204 S625
M205 X6 Y6
G0 F4285.7 X36.86 Y80.988
M204 S500
M205 X5 Y5
G1 F1200 X37.581 Y80.776 E32.02885
G1 X38.978 Y80.472 E32.05426
G1 X39.718 Y80.365 E32.06755
G1 X41.14 Y80.263 E32.0929
G1 X41.516 Y80.25 E32.09958
G1 X191.484 Y80.25 E34.76541
G1 X191.86 Y80.263 E34.7721
G1 X193.282 Y80.365 E34.79744
G1 X194.022 Y80.472 E34.81073
G1 X195.419 Y80.776 E34.83615
G1 X196.14 Y80.988 E34.84951
G1 X197.473 Y81.486 E34.8748
G1 X198.148 Y81.794 E34.88799
G1 X199.403 Y82.478 E34.9134
G1 X200.038 Y82.886 E34.92681
G1 X201.181 Y83.742 E34.9522
G1 X201.746 Y84.232 E34.96549
G1 X202.752 Y85.238 E34.99078
G1 X203.244 Y85.805 E35.00413
G1 X204.099 Y86.948 E35.0295
G1 X204.503 Y87.578 E35.0428
G1 X205.188 Y88.833 E35.06822
G1 X205.498 Y89.511 E35.08147
G1 X205.996 Y90.844 E35.10677
G1 X206.208 Y91.565 E35.12013
G1 X206.512 Y92.962 E35.14554
G1 X206.619 Y93.702 E35.15883
G1 X206.721 Y95.123 E35.18416
G1 X206.734 Y95.499 E35.19084
G1 X206.734 Y119.5 E35.61749
G1 X206.721 Y119.876 E35.62417
G1 X206.619 Y121.298 E35.64952
G1 X206.512 Y122.037 E35.66279
G1 X206.209 Y123.431 E35.68815
G1 X205.997 Y124.153 E35.70152
G1 X205.498 Y125.489 E35.72687
G1 X205.188 Y126.167 E35.74013
G1 X204.503 Y127.422 E35.76554
G1 X204.099 Y128.052 E35.77885
G1 X203.244 Y129.195 E35.80422
G1 X202.752 Y129.762 E35.81756
G1 X201.746 Y130.768 E35.84285
G1 X201.181 Y131.258 E35.85615
G1 X200.038 Y132.114 E35.88153
G1 X199.402 Y132.523 E35.89497
G1 X198.146 Y133.207 E35.9204
G1 X197.474 Y133.514 E35.93353
G1 X196.142 Y134.012 E35.95881
G1 X195.419 Y134.224 E35.9722
G1 X194.022 Y134.528 E35.99761
G1 X193.282 Y134.635 E36.01091
G1 X191.86 Y134.737 E36.03625
G1 X191.484 Y134.75 E36.04294
G1 X41.516 Y134.75 E38.70876
G1 X41.14 Y134.737 E38.71545
G1 X39.718 Y134.635 E38.74079
G1 X38.978 Y134.528 E38.75408
G1 X37.581 Y134.224 E38.7795
G1 X36.858 Y134.012 E38.79289
G1 X35.526 Y133.514 E38.81817
G1 X34.854 Y133.207 E38.8313
G1 X33.598 Y132.523 E38.85673
G1 X32.962 Y132.114 E38.87017
G1 X31.819 Y131.258 E38.89555
G1 X31.254 Y130.768 E38.90885
G1 X30.248 Y129.762 E38.93414
G1 X29.756 Y129.195 E38.94748
G1 X28.901 Y128.052 E38.97285
G1 X28.497 Y127.422 E38.98616
G1 X27.812 Y126.167 E39.01157
G1 X27.502 Y125.489 E39.02483
G1 X27.003 Y124.153 E39.05018
G1 X26.791 Y123.431 E39.06355
G1 X26.488 Y122.037 E39.08891
G1 X26.381 Y121.298 E39.10218
G1 X26.279 Y119.877 E39.12751
G1 X26.266 Y119.501 E39.1342
G1 X26.266 Y95.5 E39.56084
G1 X26.279 Y95.124 E39.56753
G1 X26.381 Y93.702 E39.59287
G1 X26.488 Y92.963 E39.60614
G1 X26.791 Y91.569 E39.6315
G1 X27.003 Y90.847 E39.64488
G1 X27.502 Y89.511 E39.67023
G1 X27.812 Y88.833 E39.68348
G1 X28.497 Y87.578 E39.70889
G1 X28.901 Y86.948 E39.7222
G1 X29.756 Y85.805 E39.74757
G1 X30.248 Y85.238 E39.76092
G1 X31.254 Y84.232 E39.78621
G1 X31.819 Y83.742 E39.7995
G1 X32.962 Y82.886 E39.82488
G1 X33.597 Y82.478 E39.8383
G1 X34.852 Y81.794 E39.86371
G1 X35.527 Y81.486 E39.8769
G1 X36.86 Y80.988 E39.90219
M204 S625
M205 X6 Y6
G0 F4285.7 X37.007 Y81.381
M204 S500
M205 X5 Y5
G1 F1200 X37.67 Y81.186 E39.91448
G1 X39.067 Y80.882 E39.93989
G1 X39.748 Y80.784 E39.95212
G1 X41.17 Y80.682 E39.97746
G1 X41.516 Y80.67 E39.98362
G1 X191.484 Y80.67 E42.64945
G1 X191.83 Y80.682 E42.6556
G1 X193.252 Y80.784 E42.68094
G1 X193.933 Y80.882 E42.69317
G1 X195.33 Y81.186 E42.71859
G1 X195.993 Y81.381 E42.73087
G1 X197.326 Y81.879 E42.75617
G1 X197.947 Y82.163 E42.7683
G1 X199.202 Y82.847 E42.79371
G1 X199.786 Y83.222 E42.80605
G1 X200.929 Y84.078 E42.83143
G1 X201.449 Y84.529 E42.84367
G1 X202.455 Y85.535 E42.86896
G1 X202.908 Y86.057 E42.88124
G1 X203.763 Y87.2 E42.90662
G1 X204.135 Y87.779 E42.91885
G1 X204.82 Y89.034 E42.94427
G1 X205.105 Y89.658 E42.95646
G1 X205.603 Y90.991 E42.98176
G1 X205.798 Y91.654 E42.99404
G1 X206.102 Y93.051 E43.01946
G1 X206.2 Y93.732 E43.03169
G1 X206.302 Y95.153 E43.05701
G1 X206.314 Y95.499 E43.06316
G1 X206.314 Y119.5 E43.48981
G1 X206.302 Y119.846 E43.49596
G1 X206.2 Y121.268 E43.5213
G1 X206.102 Y121.948 E43.53351
G1 X205.799 Y123.342 E43.55887
G1 X205.604 Y124.006 E43.57117
G1 X205.105 Y125.342 E43.59653
G1 X204.82 Y125.966 E43.60872
G1 X204.135 Y127.221 E43.63414
G1 X203.763 Y127.8 E43.64637
G1 X202.908 Y128.943 E43.67174
G1 X202.455 Y129.465 E43.68403
G1 X201.449 Y130.471 E43.70932
G1 X200.929 Y130.922 E43.72155
G1 X199.786 Y131.778 E43.74694
G1 X199.201 Y132.154 E43.7593
G1 X197.945 Y132.838 E43.78472
G1 X197.326 Y133.12 E43.79681
G1 X195.994 Y133.618 E43.82209
G1 X195.33 Y133.814 E43.8344
G1 X193.933 Y134.118 E43.85981
G1 X193.252 Y134.216 E43.87204
G1 X191.83 Y134.318 E43.89739
G1 X191.484 Y134.33 E43.90354
G1 X41.516 Y134.33 E46.56937
G1 X41.17 Y134.318 E46.57552
G1 X39.748 Y134.216 E46.60086
G1 X39.067 Y134.118 E46.61309
G1 X37.67 Y133.814 E46.63851
G1 X37.006 Y133.618 E46.65082
G1 X35.674 Y133.12 E46.67609
G1 X35.055 Y132.838 E46.68818
G1 X33.799 Y132.154 E46.71361
G1 X33.214 Y131.778 E46.72597
G1 X32.071 Y130.922 E46.75135
G1 X31.551 Y130.471 E46.76359
G1 X30.545 Y129.465 E46.78888
G1 X30.092 Y128.943 E46.80116
G1 X29.237 Y127.8 E46.82654
G1 X28.865 Y127.221 E46.83877
G1 X28.18 Y125.966 E46.86419
G1 X27.895 Y125.342 E46.87638
G1 X27.396 Y124.006 E46.90173
G1 X27.201 Y123.342 E46.91403
G1 X26.898 Y121.948 E46.93939
G1 X26.8 Y121.268 E46.95161
G1 X26.698 Y119.847 E46.97693
G1 X26.686 Y119.501 E46.98308
G1 X26.686 Y95.5 E47.40973
G1 X26.698 Y95.154 E47.41588
G1 X26.8 Y93.732 E47.44122
G1 X26.898 Y93.052 E47.45343
G1 X27.201 Y91.658 E47.47879
G1 X27.396 Y90.994 E47.49109
G1 X27.895 Y89.658 E47.51645
G1 X28.18 Y89.034 E47.52864
G1 X28.865 Y87.779 E47.55406
G1 X29.237 Y87.2 E47.56629
G1 X30.092 Y86.057 E47.59166
G1 X30.545 Y85.535 E47.60395
G1 X31.551 Y84.529 E47.62924
G1 X32.071 Y84.078 E47.64147
G1 X33.214 Y83.222 E47.66686
G1 X33.798 Y82.847 E47.6792
G1 X35.053 Y82.163 E47.7046
G1 X35.674 Y81.879 E47.71674
G1 X37.007 Y81.381 E47.74204
M204 S625
M205 X6 Y6
G0 F4285.7 X37.154 Y81.775
M204 S500
M205 X5 Y5
G1 F1200 X37.759 Y81.597 E47.75325
G1 X39.156 Y81.293 E47.77866
G1 X39.778 Y81.203 E47.78983
G1 X41.2 Y81.101 E47.81517
G1 X41.516 Y81.09 E47.8208
G1 X191.484 Y81.09 E50.48662
G1 X191.8 Y81.101 E50.49224
G1 X193.222 Y81.203 E50.51759
G1 X193.844 Y81.293 E50.52876
G1 X195.241 Y81.597 E50.55417
G1 X195.846 Y81.775 E50.56538
G1 X197.179 Y82.273 E50.59068
G1 X197.746 Y82.532 E50.60176
G1 X199.001 Y83.216 E50.62717
G1 X199.535 Y83.558 E50.63844
G1 X200.678 Y84.414 E50.66382
G1 X201.152 Y84.826 E50.67499
G1 X202.158 Y85.832 E50.70028
G1 X202.571 Y86.308 E50.71148
G1 X203.426 Y87.451 E50.73685
G1 X203.766 Y87.98 E50.74803
G1 X204.451 Y89.235 E50.77344
G1 X204.711 Y89.805 E50.78458
G1 X205.209 Y91.138 E50.80988
G1 X205.387 Y91.743 E50.82109
G1 X205.691 Y93.14 E50.8465
G1 X205.781 Y93.762 E50.85767
G1 X205.883 Y95.183 E50.883
G1 X205.894 Y95.499 E50.88862
G1 X205.894 Y119.5 E51.31526
G1 X205.883 Y119.816 E51.32088
G1 X205.781 Y121.238 E51.34622
G1 X205.691 Y121.859 E51.35738
G1 X205.388 Y123.253 E51.38273
G1 X205.21 Y123.859 E51.39396
G1 X204.711 Y125.195 E51.41931
G1 X204.451 Y125.765 E51.43045
G1 X203.766 Y127.02 E51.45587
G1 X203.426 Y127.549 E51.46704
G1 X202.571 Y128.692 E51.49242
G1 X202.158 Y129.168 E51.50362
G1 X201.152 Y130.174 E51.52891
G1 X200.678 Y130.586 E51.54007
G1 X199.535 Y131.442 E51.56546
G1 X199 Y131.785 E51.57675
G1 X197.744 Y132.469 E51.60218
G1 X197.179 Y132.727 E51.61322
G1 X195.847 Y133.225 E51.6385
G1 X195.241 Y133.403 E51.64972
G1 X193.844 Y133.707 E51.67514
G1 X193.222 Y133.797 E51.68631
G1 X191.8 Y133.899 E51.71165
G1 X191.484 Y133.91 E51.71727
G1 X41.516 Y133.91 E54.3831
G1 X41.2 Y133.899 E54.38872
G1 X39.778 Y133.797 E54.41406
G1 X39.156 Y133.707 E54.42523
G1 X37.759 Y133.403 E54.45065
G1 X37.153 Y133.225 E54.46188
G1 X35.821 Y132.727 E54.48715
G1 X35.256 Y132.469 E54.4982
G1 X34 Y131.785 E54.52362
G1 X33.465 Y131.442 E54.53492
G1 X32.322 Y130.586 E54.5603
G1 X31.848 Y130.174 E54.57146
G1 X30.842 Y129.168 E54.59675
G1 X30.429 Y128.692 E54.60796
G1 X29.574 Y127.549 E54.63333
G1 X29.234 Y127.02 E54.64451
G1 X28.549 Y125.765 E54.66992
G1 X28.289 Y125.195 E54.68106
G1 X27.79 Y123.859 E54.70641
G1 X27.612 Y123.253 E54.71764
G1 X27.309 Y121.859 E54.743
G1 X27.219 Y121.238 E54.75415
G1 X27.117 Y119.817 E54.77947
G1 X27.106 Y119.501 E54.7851
G1 X27.106 Y95.5 E55.21174
G1 X27.117 Y95.184 E55.21736
G1 X27.219 Y93.762 E55.2427
G1 X27.309 Y93.141 E55.25385
G1 X27.612 Y91.747 E55.27921
G1 X27.79 Y91.141 E55.29044
G1 X28.289 Y89.805 E55.31579
G1 X28.549 Y89.235 E55.32693
G1 X29.234 Y87.98 E55.35234
G1 X29.574 Y87.451 E55.36352
G1 X30.429 Y86.308 E55.38889
G1 X30.842 Y85.832 E55.4001
G1 X31.848 Y84.826 E55.42539
G1 X32.322 Y84.414 E55.43655
G1 X33.465 Y83.558 E55.46193
G1 X33.999 Y83.216 E55.47321
G1 X35.254 Y82.532 E55.49861
G1 X35.821 Y82.273 E55.50969
G1 X37.154 Y81.775 E55.53499
M204 S625
M205 X6 Y6
G0 F4285.7 X37.301 Y82.168
M204 S500
M205 X5 Y5
G1 F1200 X37.849 Y82.007 E55.54514
G1 X39.246 Y81.703 E55.57056
G1 X39.809 Y81.622 E55.58067
G1 X41.231 Y81.52 E55.60601
G1 X41.516 Y81.51 E55.61108
G1 X191.484 Y81.51 E58.27691
G1 X191.769 Y81.52 E58.28198
G1 X193.191 Y81.622 E58.30732
G1 X193.754 Y81.703 E58.31743
G1 X195.151 Y82.007 E58.34284
G1 X195.699 Y82.168 E58.353
G1 X197.032 Y82.666 E58.37829
G1 X197.545 Y82.901 E58.38832
G1 X198.8 Y83.585 E58.41373
G1 X199.283 Y83.894 E58.42392
G1 X200.426 Y84.75 E58.44931
G1 X200.855 Y85.123 E58.45941
G1 X201.861 Y86.129 E58.4847
G1 X202.235 Y86.56 E58.49484
G1 X203.09 Y87.703 E58.52022
G1 X203.397 Y88.181 E58.53032
G1 X204.082 Y89.436 E58.55573
G1 X204.318 Y89.952 E58.56582
G1 X204.816 Y91.285 E58.59111
G1 X204.977 Y91.833 E58.60127
G1 X205.281 Y93.23 E58.62668
G1 X205.362 Y93.792 E58.63677
G1 X205.464 Y95.213 E58.6621
G1 X205.474 Y95.499 E58.66719
G1 X205.474 Y119.5 E59.09383
G1 X205.464 Y119.785 E59.0989
G1 X205.362 Y121.207 E59.12424
G1 X205.281 Y121.769 E59.13433
G1 X204.978 Y123.163 E59.15969
G1 X204.817 Y123.712 E59.16986
G1 X204.318 Y125.048 E59.19521
G1 X204.082 Y125.564 E59.2053
G1 X203.397 Y126.819 E59.23071
G1 X203.09 Y127.297 E59.24081
G1 X202.235 Y128.44 E59.26619
G1 X201.861 Y128.871 E59.27633
G1 X200.855 Y129.877 E59.30162
G1 X200.426 Y130.25 E59.31172
G1 X199.283 Y131.106 E59.33711
G1 X198.799 Y131.416 E59.34733
G1 X197.543 Y132.1 E59.37275
G1 X197.032 Y132.333 E59.38273
G1 X195.7 Y132.831 E59.40801
G1 X195.151 Y132.993 E59.41818
G1 X193.754 Y133.297 E59.4436
G1 X193.191 Y133.378 E59.45371
G1 X191.769 Y133.48 E59.47905
G1 X191.484 Y133.49 E59.48412
G1 X41.516 Y133.49 E62.14995
G1 X41.231 Y133.48 E62.15502
G1 X39.809 Y133.378 E62.18036
G1 X39.246 Y133.297 E62.19047
G1 X37.849 Y132.993 E62.21589
G1 X37.3 Y132.831 E62.22606
G1 X35.968 Y132.333 E62.25134
G1 X35.457 Y132.1 E62.26132
G1 X34.201 Y131.416 E62.28674
G1 X33.717 Y131.106 E62.29696
G1 X32.574 Y130.25 E62.32235
G1 X32.145 Y129.877 E62.33245
G1 X31.139 Y128.871 E62.35774
G1 X30.765 Y128.44 E62.36788
G1 X29.91 Y127.297 E62.39326
G1 X29.603 Y126.819 E62.40336
G1 X28.918 Y125.564 E62.42877
G1 X28.682 Y125.048 E62.43886
G1 X28.183 Y123.712 E62.46421
G1 X28.022 Y123.163 E62.47438
G1 X27.719 Y121.769 E62.49974
G1 X27.638 Y121.208 E62.50981
G1 X27.536 Y119.787 E62.53514
G1 X27.526 Y119.501 E62.54023
G1 X27.526 Y95.5 E62.96687
G1 X27.536 Y95.215 E62.97194
G1 X27.638 Y93.793 E62.99728
G1 X27.719 Y93.231 E63.00737
G1 X28.022 Y91.837 E63.03273
G1 X28.183 Y91.288 E63.0429
G1 X28.682 Y89.952 E63.06825
G1 X28.918 Y89.436 E63.07834
G1 X29.603 Y88.181 E63.10375
G1 X29.91 Y87.703 E63.11385
G1 X30.765 Y86.56 E63.13922
G1 X31.139 Y86.129 E63.14937
G1 X32.145 Y85.123 E63.17466
G1 X32.574 Y84.75 E63.18476
G1 X33.717 Y83.894 E63.21015
G1 X34.2 Y83.585 E63.22034
G1 X35.455 Y82.901 E63.24575
G1 X35.968 Y82.666 E63.25578
G1 X37.301 Y82.168 E63.28107
M204 S625
M205 X6 Y6
G0 F4285.7 X37.448 Y82.562
M204 S500
M205 X5 Y5
G1 F1200 X37.938 Y82.418 E63.29015
G1 X39.335 Y82.114 E63.31557
G1 X39.839 Y82.041 E63.32462
G1 X41.261 Y81.939 E63.34996
G1 X41.516 Y81.93 E63.3545
G1 X191.484 Y81.93 E66.02032
G1 X191.739 Y81.939 E66.02486
G1 X193.161 Y82.041 E66.0502
G1 X193.665 Y82.114 E66.05925
G1 X195.062 Y82.418 E66.08467
G1 X195.552 Y82.562 E66.09375
G1 X196.885 Y83.06 E66.11904
G1 X197.344 Y83.269 E66.12801
G1 X198.599 Y83.953 E66.15341
G1 X199.031 Y84.231 E66.16255
G1 X200.174 Y85.087 E66.18793
G1 X200.558 Y85.42 E66.19697
G1 X201.564 Y86.426 E66.22226
G1 X201.899 Y86.812 E66.23134
G1 X202.754 Y87.955 E66.25671
G1 X203.029 Y88.383 E66.26576
G1 X203.714 Y89.638 E66.29117
G1 X203.924 Y90.099 E66.30018
G1 X204.422 Y91.432 E66.32547
G1 X204.566 Y91.922 E66.33455
G1 X204.87 Y93.319 E66.35997
G1 X204.943 Y93.822 E66.369
G1 X205.045 Y95.243 E66.39433
G1 X205.054 Y95.499 E66.39888
G1 X205.054 Y119.5 E66.82552
G1 X205.045 Y119.755 E66.83006
G1 X204.943 Y121.177 E66.8554
G1 X204.871 Y121.68 E66.86443
G1 X204.568 Y123.074 E66.88979
G1 X204.423 Y123.565 E66.89889
G1 X203.924 Y124.901 E66.92424
G1 X203.714 Y125.362 E66.93325
G1 X203.029 Y126.617 E66.95866
G1 X202.754 Y127.045 E66.9677
G1 X201.899 Y128.188 E66.99308
G1 X201.564 Y128.574 E67.00216
G1 X200.558 Y129.58 E67.02745
G1 X200.174 Y129.913 E67.03649
G1 X199.031 Y130.769 E67.06187
G1 X198.598 Y131.047 E67.07102
G1 X197.342 Y131.731 E67.09644
G1 X196.885 Y131.94 E67.10537
G1 X195.553 Y132.438 E67.13065
G1 X195.062 Y132.582 E67.13975
G1 X193.665 Y132.886 E67.16516
G1 X193.161 Y132.959 E67.17422
G1 X191.739 Y133.061 E67.19956
G1 X191.484 Y133.07 E67.20409
G1 X41.516 Y133.07 E69.86992
G1 X41.261 Y133.061 E69.87446
G1 X39.839 Y132.959 E69.8998
G1 X39.335 Y132.886 E69.90885
G1 X37.938 Y132.582 E69.93427
G1 X37.447 Y132.438 E69.94336
G1 X36.115 Y131.94 E69.96864
G1 X35.658 Y131.731 E69.97757
G1 X34.402 Y131.047 E70.003
G1 X33.969 Y130.769 E70.01214
G1 X32.826 Y129.913 E70.03753
G1 X32.442 Y129.58 E70.04656
G1 X31.436 Y128.574 E70.07185
G1 X31.101 Y128.188 E70.08094
G1 X30.246 Y127.045 E70.10631
G1 X29.971 Y126.617 E70.11535
G1 X29.286 Y125.362 E70.14077
G1 X29.076 Y124.901 E70.14977
G1 X28.577 Y123.565 E70.17512
G1 X28.432 Y123.074 E70.18423
G1 X28.129 Y121.68 E70.20958
G1 X28.057 Y121.178 E70.2186
G1 X27.955 Y119.757 E70.24392
G1 X27.946 Y119.501 E70.24848
G1 X27.946 Y95.5 E70.67512
G1 X27.955 Y95.245 E70.67965
G1 X28.057 Y93.823 E70.705
G1 X28.129 Y93.32 E70.71403
G1 X28.432 Y91.926 E70.73939
G1 X28.577 Y91.435 E70.74849
G1 X29.076 Y90.099 E70.77384
G1 X29.286 Y89.638 E70.78284
G1 X29.971 Y88.383 E70.80826
G1 X30.246 Y87.955 E70.8173
G1 X31.101 Y86.812 E70.84268
G1 X31.436 Y86.426 E70.85176
G1 X32.442 Y85.42 E70.87705
G1 X32.826 Y85.087 E70.88609
G1 X33.969 Y84.231 E70.91147
G1 X34.401 Y83.953 E70.9206
G1 X35.656 Y83.269 E70.94601
G1 X36.115 Y83.06 E70.95497
G1 X37.448 Y82.562 E70.98027
M204 S625
M205 X6 Y6
G0 F4285.7 X37.595 Y82.955
M204 S500
M205 X5 Y5
G1 F1200 X38.027 Y82.828 E70.98827
G1 X39.424 Y82.524 E71.01369
G1 X39.869 Y82.46 E71.02168
G1 X41.291 Y82.358 E71.04702
G1 X41.516 Y82.35 E71.05102
G1 X191.484 Y82.35 E73.71685
G1 X191.709 Y82.358 E73.72085
G1 X193.131 Y82.46 E73.7462
G1 X193.576 Y82.524 E73.75419
G1 X194.973 Y82.828 E73.7796
G1 X195.405 Y82.955 E73.78761
G1 X196.738 Y83.453 E73.8129
G1 X197.143 Y83.638 E73.82082
G1 X198.398 Y84.322 E73.84622
G1 X198.779 Y84.567 E73.85428
G1 X199.922 Y85.423 E73.87966
G1 X200.261 Y85.717 E73.88764
G1 X201.267 Y86.723 E73.91293
G1 X201.562 Y87.063 E73.92093
G1 X202.417 Y88.206 E73.9463
G1 X202.66 Y88.584 E73.95429
G1 X203.345 Y89.839 E73.9797
G1 X203.531 Y90.246 E73.98766
G1 X204.029 Y91.579 E74.01295
G1 X204.156 Y92.011 E74.02096
G1 X204.46 Y93.408 E74.04637
G1 X204.524 Y93.852 E74.05435
G1 X204.626 Y95.273 E74.07967
G1 X204.634 Y95.499 E74.08369
G1 X204.634 Y119.5 E74.51033
G1 X204.626 Y119.725 E74.51433
G1 X204.524 Y121.147 E74.53968
G1 X204.46 Y121.591 E74.54765
G1 X204.157 Y122.985 E74.57301
G1 X204.03 Y123.418 E74.58103
G1 X203.531 Y124.754 E74.60638
G1 X203.345 Y125.161 E74.61434
G1 X202.66 Y126.416 E74.63975
G1 X202.417 Y126.794 E74.64774
G1 X201.562 Y127.937 E74.67311
G1 X201.267 Y128.277 E74.68111
G1 X200.261 Y129.283 E74.7064
G1 X199.922 Y129.577 E74.71438
G1 X198.779 Y130.433 E74.73977
G1 X198.398 Y130.678 E74.74782
G1 X197.142 Y131.362 E74.77324
G1 X196.738 Y131.547 E74.78114
G1 X195.406 Y132.045 E74.80642
G1 X194.973 Y132.172 E74.81444
G1 X193.576 Y132.476 E74.83985
G1 X193.131 Y132.54 E74.84784
G1 X191.709 Y132.642 E74.87319
G1 X191.484 Y132.65 E74.87719
G1 X41.516 Y132.65 E77.54302
G1 X41.291 Y132.642 E77.54702
G1 X39.869 Y132.54 E77.57236
G1 X39.424 Y132.476 E77.58035
G1 X38.027 Y132.172 E77.60577
G1 X37.594 Y132.045 E77.61379
G1 X36.262 Y131.547 E77.63907
G1 X35.858 Y131.362 E77.64696
G1 X34.602 Y130.678 E77.67239
G1 X34.221 Y130.433 E77.68044
G1 X33.078 Y129.577 E77.70582
G1 X32.739 Y129.283 E77.7138
G1 X31.733 Y128.277 E77.73909
G1 X31.438 Y127.937 E77.74709
G1 X30.583 Y126.794 E77.77247
G1 X30.34 Y126.416 E77.78045
G1 X29.655 Y125.161 E77.80587
G1 X29.469 Y124.754 E77.81382
G1 X28.97 Y123.418 E77.83917
G1 X28.843 Y122.985 E77.8472
G1 X28.54 Y121.591 E77.87255
G1 X28.476 Y121.148 E77.88051
G1 X28.374 Y119.727 E77.90584
G1 X28.366 Y119.501 E77.90986
G1 X28.366 Y95.5 E78.3365
G1 X28.374 Y95.275 E78.3405
G1 X28.476 Y93.853 E78.36584
G1 X28.54 Y93.409 E78.37381
G1 X28.843 Y92.015 E78.39917
G1 X28.97 Y91.582 E78.40719
G1 X29.469 Y90.246 E78.43255
G1 X29.655 Y89.839 E78.4405
G1 X30.34 Y88.584 E78.46592
G1 X30.583 Y88.206 E78.4739
G1 X31.438 Y87.063 E78.49928
G1 X31.733 Y86.723 E78.50728
G1 X32.739 Y85.717 E78.53257
G1 X33.078 Y85.423 E78.54055
G1 X34.221 Y84.567 E78.56593
G1 X34.602 Y84.322 E78.57398
G1 X35.857 Y83.638 E78.59939
G1 X36.262 Y83.453 E78.6073
G1 X37.595 Y82.955 E78.6326
M204 S625
M205 X6 Y6
G0 F4285.7 X37.742 Y83.349
M204 S500
M205 X5 Y5
G1 F1200 X38.117 Y83.238 E78.63955
G1 X39.514 Y82.934 E78.66496
G1 X39.899 Y82.879 E78.67188
G1 X41.321 Y82.777 E78.69722
G1 X41.516 Y82.77 E78.70069
G1 X191.484 Y82.77 E81.36652
G1 X191.679 Y82.777 E81.36998
G1 X193.101 Y82.879 E81.39533
G1 X193.486 Y82.934 E81.40224
G1 X194.883 Y83.238 E81.42765
G1 X195.258 Y83.349 E81.43461
G1 X196.591 Y83.847 E81.4599
G1 X196.942 Y84.007 E81.46676
G1 X198.197 Y84.691 E81.49217
G1 X198.527 Y84.903 E81.49914
G1 X199.67 Y85.759 E81.52452
G1 X199.964 Y86.014 E81.53144
G1 X200.97 Y87.02 E81.55673
G1 X201.226 Y87.315 E81.56367
G1 X202.081 Y88.458 E81.58905
G1 X202.291 Y88.785 E81.59595
G1 X202.976 Y90.04 E81.62137
G1 X203.137 Y90.393 E81.62827
G1 X203.635 Y91.726 E81.65356
G1 X203.746 Y92.101 E81.66051
G1 X204.05 Y93.498 E81.68593
G1 X204.105 Y93.883 E81.69284
G1 X204.207 Y95.304 E81.71817
G1 X204.214 Y95.499 E81.72163
G1 X204.214 Y119.5 E82.14828
G1 X204.207 Y119.695 E82.15174
G1 X204.105 Y121.117 E82.17709
G1 X204.05 Y121.502 E82.184
G1 X203.747 Y122.896 E82.20936
G1 X203.636 Y123.271 E82.21631
G1 X203.137 Y124.607 E82.24166
G1 X202.976 Y124.96 E82.24856
G1 X202.291 Y126.215 E82.27397
G1 X202.081 Y126.542 E82.28088
G1 X201.226 Y127.685 E82.30626
G1 X200.97 Y127.98 E82.3132
G1 X199.964 Y128.986 E82.33849
G1 X199.67 Y129.241 E82.34541
G1 X198.527 Y130.097 E82.37079
G1 X198.197 Y130.31 E82.37777
G1 X196.941 Y130.994 E82.40319
G1 X196.591 Y131.153 E82.41003
G1 X195.259 Y131.651 E82.43531
G1 X194.883 Y131.762 E82.44228
G1 X193.486 Y132.066 E82.46769
G1 X193.101 Y132.121 E82.4746
G1 X191.679 Y132.223 E82.49995
G1 X191.484 Y132.23 E82.50341
G1 X41.516 Y132.23 E85.16924
G1 X41.321 Y132.223 E85.17271
G1 X39.899 Y132.121 E85.19805
G1 X39.514 Y132.066 E85.20497
G1 X38.117 Y131.762 E85.23038
G1 X37.741 Y131.651 E85.23735
G1 X36.409 Y131.153 E85.26263
G1 X36.059 Y130.994 E85.26946
G1 X34.803 Y130.31 E85.29488
G1 X34.473 Y130.097 E85.30187
G1 X33.33 Y129.241 E85.32725
G1 X33.036 Y128.986 E85.33417
G1 X32.03 Y127.98 E85.35946
G1 X31.774 Y127.685 E85.3664
G1 X30.919 Y126.542 E85.39177
G1 X30.709 Y126.215 E85.39868
G1 X30.024 Y124.96 E85.4241
G1 X29.863 Y124.607 E85.43099
G1 X29.364 Y123.271 E85.45635
G1 X29.253 Y122.896 E85.4633
G1 X28.95 Y121.502 E85.48866
G1 X28.895 Y121.117 E85.49557
G1 X28.793 Y119.696 E85.52089
G1 X28.786 Y119.501 E85.52436
G1 X28.786 Y95.5 E85.951
G1 X28.793 Y95.305 E85.95447
G1 X28.895 Y93.883 E85.97981
G1 X28.95 Y93.498 E85.98673
G1 X29.253 Y92.104 E86.01209
G1 X29.364 Y91.729 E86.01904
G1 X29.863 Y90.393 E86.04439
G1 X30.024 Y90.04 E86.05129
G1 X30.709 Y88.785 E86.0767
G1 X30.919 Y88.458 E86.08361
G1 X31.774 Y87.315 E86.10898
G1 X32.03 Y87.02 E86.11593
G1 X33.036 Y86.014 E86.14122
G1 X33.33 Y85.759 E86.14813
G1 X34.473 Y84.903 E86.17352
G1 X34.803 Y84.691 E86.18049
G1 X36.058 Y84.007 E86.2059
G1 X36.409 Y83.847 E86.21275
G1 X37.742 Y83.349 E86.23805
M204 S625
M205 X6 Y6
G0 F4285.7 X37.889 Y83.742
M204 S500
M205 X5 Y5
G1 F1200 X38.206 Y83.649 E86.24392
G1 X39.603 Y83.345 E86.26934
G1 X39.929 Y83.298 E86.27519
G1 X41.351 Y83.196 E86.30053
G1 X41.516 Y83.19 E86.30347
G1 X191.484 Y83.19 E88.9693
G1 X191.649 Y83.196 E88.97223
G1 X193.071 Y83.298 E88.99757
G1 X193.397 Y83.345 E89.00343
G1 X194.794 Y83.649 E89.02884
G1 X195.111 Y83.742 E89.03471
G1 X196.444 Y84.24 E89.06001
G1 X196.741 Y84.376 E89.06582
G1 X197.996 Y85.06 E89.09122
G1 X198.276 Y85.239 E89.09713
G1 X199.419 Y86.095 E89.12252
G1 X199.667 Y86.311 E89.12836
G1 X200.673 Y87.317 E89.15365
G1 X200.89 Y87.566 E89.15952
G1 X201.745 Y88.709 E89.1849
G1 X201.923 Y88.986 E89.19075
G1 X202.608 Y90.241 E89.21616
G1 X202.744 Y90.54 E89.222
G1 X203.242 Y91.873 E89.2473
G1 X203.335 Y92.19 E89.25317
G1 X203.639 Y93.587 E89.27858
G1 X203.686 Y93.913 E89.28444
G1 X203.788 Y95.334 E89.30976
G1 X203.794 Y95.499 E89.3127
G1 X203.794 Y119.5 E89.73934
G1 X203.788 Y119.665 E89.74228
G1 X203.686 Y121.087 E89.76762
G1 X203.639 Y121.413 E89.77347
G1 X203.336 Y122.807 E89.79883
G1 X203.243 Y123.124 E89.8047
G1 X202.744 Y124.46 E89.83005
G1 X202.608 Y124.759 E89.83589
G1 X201.923 Y126.014 E89.86131
G1 X201.745 Y126.291 E89.86716
G1 X200.89 Y127.434 E89.89254
G1 X200.673 Y127.683 E89.89841
G1 X199.667 Y128.689 E89.9237
G1 X199.419 Y128.905 E89.92954
G1 X198.276 Y129.761 E89.95493
G1 X197.996 Y129.941 E89.96084
G1 X196.74 Y130.625 E89.98627
G1 X196.444 Y130.76 E89.99205
G1 X195.112 Y131.258 E90.01733
G1 X194.794 Y131.351 E90.02322
G1 X193.397 Y131.655 E90.04863
G1 X193.071 Y131.702 E90.05449
G1 X191.649 Y131.804 E90.07983
G1 X191.484 Y131.81 E90.08276
G1 X41.516 Y131.81 E92.74859
G1 X41.351 Y131.804 E92.75153
G1 X39.929 Y131.702 E92.77687
G1 X39.603 Y131.655 E92.78272
G1 X38.206 Y131.351 E92.80814
G1 X37.888 Y131.258 E92.81403
G1 X36.556 Y130.76 E92.83931
G1 X36.26 Y130.625 E92.84509
G1 X35.004 Y129.941 E92.87051
G1 X34.724 Y129.761 E92.87643
G1 X33.581 Y128.905 E92.90181
G1 X33.333 Y128.689 E92.90766
G1 X32.327 Y127.683 E92.93295
G1 X32.11 Y127.434 E92.93882
G1 X31.255 Y126.291 E92.96419
G1 X31.077 Y126.014 E92.97005
G1 X30.392 Y124.759 E92.99546
G1 X30.256 Y124.46 E93.0013
G1 X29.757 Y123.124 E93.02665
G1 X29.664 Y122.807 E93.03252
G1 X29.361 Y121.413 E93.05788
G1 X29.314 Y121.087 E93.06374
G1 X29.212 Y119.666 E93.08906
G1 X29.206 Y119.501 E93.092
G1 X29.206 Y95.5 E93.51864
G1 X29.212 Y95.335 E93.52157
G1 X29.314 Y93.913 E93.54692
G1 X29.361 Y93.587 E93.55277
G1 X29.664 Y92.193 E93.57813
G1 X29.757 Y91.876 E93.584
G1 X30.256 Y90.54 E93.60935
G1 X30.392 Y90.241 E93.61519
G1 X31.077 Y88.986 E93.64061
G1 X31.255 Y88.709 E93.64646
G1 X32.11 Y87.566 E93.67183
G1 X32.327 Y87.317 E93.67771
G1 X33.333 Y86.311 E93.703
G1 X33.581 Y86.095 E93.70884
G1 X34.724 Y85.239 E93.73423
G1 X35.004 Y85.06 E93.74013
G1 X36.259 Y84.376 E93.76554
G1 X36.556 Y84.24 E93.77135
G1 X37.889 Y83.742 E93.79664
M204 S625
M205 X6 Y6
G0 F4285.7 X38.036 Y84.136
M204 S500
M205 X5 Y5
G1 F1200 X38.295 Y84.059 E93.80144
G1 X39.692 Y83.755 E93.82686
G1 X39.959 Y83.717 E93.83165
G1 X41.381 Y83.615 E93.857
G1 X41.516 Y83.61 E93.8594
G1 X191.484 Y83.61 E96.52522
G1 X191.619 Y83.615 E96.52763
G1 X193.041 Y83.717 E96.55297
G1 X193.308 Y83.755 E96.55776
G1 X194.705 Y84.059 E96.58318
G1 X194.964 Y84.136 E96.58798
G1 X196.297 Y84.634 E96.61327
G1 X196.54 Y84.744 E96.61802
G1 X197.795 Y85.428 E96.64342
G1 X198.024 Y85.575 E96.64826
G1 X199.167 Y86.431 E96.67364
G1 X199.37 Y86.608 E96.67843
G1 X200.376 Y87.614 E96.70372
G1 X200.553 Y87.818 E96.70852
G1 X201.408 Y88.961 E96.7339
G1 X201.554 Y89.188 E96.73869
G1 X202.239 Y90.443 E96.76411
G1 X202.35 Y90.687 E96.76887
G1 X202.848 Y92.02 E96.79417
G1 X202.925 Y92.279 E96.79897
G1 X203.229 Y93.676 E96.82439
G1 X203.267 Y93.943 E96.82918
G1 X203.369 Y95.364 E96.85451
G1 X203.374 Y95.499 E96.85691
G1 X203.374 Y119.5 E97.28355
G1 X203.369 Y119.635 E97.28595
G1 X203.267 Y121.057 E97.31129
G1 X203.229 Y121.323 E97.31607
G1 X202.926 Y122.717 E97.34143
G1 X202.85 Y122.977 E97.34624
G1 X202.351 Y124.313 E97.37159
G1 X202.239 Y124.557 E97.37637
G1 X201.554 Y125.812 E97.40178
G1 X201.408 Y126.039 E97.40658
G1 X200.553 Y127.182 E97.43195
G1 X200.376 Y127.386 E97.43675
G1 X199.37 Y128.392 E97.46204
G1 X199.167 Y128.569 E97.46683
G1 X198.024 Y129.425 E97.49221
G1 X197.795 Y129.572 E97.49705
G1 X196.539 Y130.256 E97.52247
G1 X196.297 Y130.366 E97.5272
G1 X194.965 Y130.864 E97.55248
G1 X194.705 Y130.941 E97.5573
G1 X193.308 Y131.245 E97.58271
G1 X193.041 Y131.283 E97.58751
G1 X191.619 Y131.385 E97.61285
G1 X191.484 Y131.39 E97.61525
G1 X41.516 Y131.39 E100.28108
G1 X41.381 Y131.385 E100.28348
G1 X39.959 Y131.283 E100.30882
G1 X39.692 Y131.245 E100.31362
G1 X38.295 Y130.941 E100.33903
G1 X38.035 Y130.864 E100.34385
G1 X36.703 Y130.366 E100.36913
G1 X36.461 Y130.256 E100.37385
G1 X35.205 Y129.572 E100.39928
G1 X34.976 Y129.425 E100.40411
G1 X33.833 Y128.569 E100.4295
G1 X33.63 Y128.392 E100.43429
G1 X32.624 Y127.386 E100.45958
G1 X32.447 Y127.182 E100.46438
G1 X31.592 Y126.039 E100.48975
G1 X31.446 Y125.812 E100.49455
G1 X30.761 Y124.557 E100.51996
G1 X30.649 Y124.313 E100.52474
G1 X30.15 Y122.977 E100.55009
G1 X30.074 Y122.717 E100.5549
G1 X29.771 Y121.323 E100.58026
G1 X29.733 Y121.057 E100.58504
G1 X29.631 Y119.636 E100.61036
G1 X29.626 Y119.501 E100.61276
G1 X29.626 Y95.5 E101.0394
G1 X29.631 Y95.365 E101.04181
G1 X29.733 Y93.943 E101.06715
G1 X29.771 Y93.677 E101.07192
G1 X30.074 Y92.283 E101.09728
G1 X30.15 Y92.023 E101.1021
G1 X30.649 Y90.687 E101.12745
G1 X30.761 Y90.443 E101.13222
G1 X31.446 Y89.188 E101.15764
G1 X31.592 Y88.961 E101.16243
G1 X32.447 Y87.818 E101.18781
G1 X32.624 Y87.614 E101.19261
G1 X33.63 Y86.608 E101.2179
G1 X33.833 Y86.431 E101.22269
G1 X34.976 Y85.575 E101.24807
G1 X35.205 Y85.428 E101.25291
G1 X36.46 Y84.744 E101.27831
G1 X36.703 Y84.634 E101.28306
G1 X38.036 Y84.136 E101.30835
M204 S625
M205 X6 Y6
G0 F4285.7 X38.183 Y84.529
M204 S500
M205 X5 Y5
G1 F1200 X38.384 Y84.47 E101.31207
G1 X39.781 Y84.166 E101.33749
G1 X39.989 Y84.136 E101.34122
G1 X41.411 Y84.034 E101.36657
G1 X41.516 Y84.03 E101.36843
G1 X191.484 Y84.03 E104.03426
G1 X191.589 Y84.034 E104.03613
G1 X193.011 Y84.136 E104.06147
G1 X193.219 Y84.166 E104.06521
G1 X194.616 Y84.47 E104.09062
G1 X194.817 Y84.529 E104.09435
G1 X196.15 Y85.027 E104.11964
G1 X196.339 Y85.113 E104.12333
G1 X197.594 Y85.797 E104.14874
G1 X197.772 Y85.911 E104.1525
G1 X198.915 Y86.767 E104.17788
G1 X199.073 Y86.905 E104.18161
G1 X200.079 Y87.911 E104.2069
G1 X200.217 Y88.069 E104.21063
G1 X201.072 Y89.212 E104.236
G1 X201.185 Y89.389 E104.23974
G1 X201.87 Y90.644 E104.26515
G1 X201.957 Y90.834 E104.26887
G1 X202.455 Y92.167 E104.29416
G1 X202.514 Y92.368 E104.29788
G1 X202.818 Y93.765 E104.3233
G1 X202.848 Y93.973 E104.32703
G1 X202.95 Y95.394 E104.35236
G1 X202.954 Y95.499 E104.35423
G1 X202.954 Y119.5 E104.78087
G1 X202.95 Y119.605 E104.78274
G1 X202.848 Y121.027 E104.80808
G1 X202.818 Y121.234 E104.8118
G1 X202.515 Y122.628 E104.83715
G1 X202.456 Y122.83 E104.8409
G1 X201.957 Y124.166 E104.86625
G1 X201.87 Y124.356 E104.86996
G1 X201.185 Y125.611 E104.89538
G1 X201.072 Y125.788 E104.89911
G1 X200.217 Y126.931 E104.92448
G1 X200.079 Y127.089 E104.92821
G1 X199.073 Y128.095 E104.9535
G1 X198.915 Y128.233 E104.95723
G1 X197.772 Y129.089 E104.98262
G1 X197.594 Y129.203 E104.98637
G1 X196.338 Y129.887 E105.0118
G1 X196.15 Y129.973 E105.01547
G1 X194.818 Y130.471 E105.04075
G1 X194.616 Y130.53 E105.04449
G1 X193.219 Y130.834 E105.0699
G1 X193.011 Y130.864 E105.07364
G1 X191.589 Y130.966 E105.09898
G1 X191.484 Y130.97 E105.10085
G1 X41.516 Y130.97 E107.76668
G1 X41.411 Y130.966 E107.76854
G1 X39.989 Y130.864 E107.79389
G1 X39.781 Y130.834 E107.79762
G1 X38.384 Y130.53 E107.82304
G1 X38.182 Y130.471 E107.82678
G1 X36.85 Y129.973 E107.85206
G1 X36.662 Y129.887 E107.85573
G1 X35.406 Y129.203 E107.88115
G1 X35.228 Y129.089 E107.88491
G1 X34.085 Y128.233 E107.9103
G1 X33.927 Y128.095 E107.91402
G1 X32.921 Y127.089 E107.93931
G1 X32.783 Y126.931 E107.94304
G1 X31.928 Y125.788 E107.96842
G1 X31.815 Y125.611 E107.97215
G1 X31.13 Y124.356 E107.99757
G1 X31.043 Y124.166 E108.00128
G1 X30.544 Y122.83 E108.02663
G1 X30.485 Y122.628 E108.03037
G1 X30.182 Y121.234 E108.05573
G1 X30.152 Y121.027 E108.05945
G1 X30.05 Y119.606 E108.08477
G1 X30.046 Y119.501 E108.08664
G1 X30.046 Y95.5 E108.51328
G1 X30.05 Y95.395 E108.51515
G1 X30.152 Y93.973 E108.54049
G1 X30.182 Y93.766 E108.54421
G1 X30.485 Y92.372 E108.56957
G1 X30.544 Y92.17 E108.57331
G1 X31.043 Y90.834 E108.59866
G1 X31.13 Y90.644 E108.60238
G1 X31.815 Y89.389 E108.62779
G1 X31.928 Y89.212 E108.63152
G1 X32.783 Y88.069 E108.6569
G1 X32.921 Y87.911 E108.66063
G1 X33.927 Y86.905 E108.68592
G1 X34.085 Y86.767 E108.68964
G1 X35.228 Y85.911 E108.71503
G1 X35.406 Y85.797 E108.71879
G1 X36.661 Y85.113 E108.74419
G1 X36.85 Y85.027 E108.74788
G1 X38.183 Y84.529 E108.77318
M204 S625
M205 X6 Y6
G0 F4285.7 X38.33 Y84.922
M204 S500
M205 X5 Y5
G1 F1200 X38.474 Y84.88 E108.77585
G1 X39.871 Y84.576 E108.80126
G1 X40.019 Y84.555 E108.80392
G1 X41.441 Y84.453 E108.82926
G1 X41.516 Y84.45 E108.83059
G1 X191.484 Y84.45 E111.49642
G1 X191.559 Y84.453 E111.49776
G1 X192.981 Y84.555 E111.5231
G1 X193.129 Y84.576 E111.52576
G1 X194.526 Y84.88 E111.55117
G1 X194.67 Y84.922 E111.55384
G1 X196.003 Y85.42 E111.57913
G1 X196.138 Y85.482 E111.58177
G1 X197.393 Y86.166 E111.60718
G1 X197.52 Y86.248 E111.60987
G1 X198.663 Y87.104 E111.63525
G1 X198.776 Y87.202 E111.63791
G1 X199.782 Y88.208 E111.6632
G1 X199.881 Y88.321 E111.66587
G1 X200.736 Y89.464 E111.69124
G1 X200.817 Y89.59 E111.69391
G1 X201.502 Y90.845 E111.71932
G1 X201.564 Y90.981 E111.72198
G1 X202.062 Y92.314 E111.74727
G1 X202.104 Y92.458 E111.74994
G1 X202.408 Y93.855 E111.77535
G1 X202.429 Y94.003 E111.77801
G1 X202.531 Y95.424 E111.80334
G1 X202.534 Y95.499 E111.80467
G1 X202.534 Y119.5 E112.23131
G1 X202.531 Y119.575 E112.23265
G1 X202.429 Y120.997 E112.25799
G1 X202.408 Y121.145 E112.26064
G1 X202.105 Y122.539 E112.286
G1 X202.063 Y122.683 E112.28867
G1 X201.564 Y124.019 E112.31402
G1 X201.502 Y124.155 E112.31668
G1 X200.817 Y125.41 E112.34209
G1 X200.736 Y125.536 E112.34476
G1 X199.881 Y126.679 E112.37013
G1 X199.782 Y126.792 E112.3728
G1 X198.776 Y127.798 E112.39809
G1 X198.663 Y127.896 E112.40075
G1 X197.52 Y128.752 E112.42613
G1 X197.393 Y128.834 E112.42882
G1 X196.137 Y129.518 E112.45424
G1 X196.003 Y129.58 E112.45687
G1 X194.671 Y130.078 E112.48215
G1 X194.526 Y130.12 E112.48483
G1 X193.129 Y130.424 E112.51024
G1 X192.981 Y130.445 E112.5129
G1 X191.559 Y130.547 E112.53824
G1 X191.484 Y130.55 E112.53958
G1 X41.516 Y130.55 E115.2054
G1 X41.441 Y130.547 E115.20674
G1 X40.019 Y130.445 E115.23208
G1 X39.871 Y130.424 E115.23474
G1 X38.474 Y130.12 E115.26015
G1 X38.329 Y130.078 E115.26284
G1 X36.997 Y129.58 E115.28811
G1 X36.863 Y129.518 E115.29074
G1 X35.607 Y128.834 E115.31616
G1 X35.48 Y128.752 E115.31885
G1 X34.337 Y127.896 E115.34423
G1 X34.224 Y127.798 E115.34689
G1 X33.218 Y126.792 E115.37218
G1 X33.119 Y126.679 E115.37485
G1 X32.264 Y125.536 E115.40023
G1 X32.183 Y125.41 E115.40289
G1 X31.498 Y124.155 E115.4283
G1 X31.436 Y124.019 E115.43096
G1 X30.937 Y122.683 E115.45631
G1 X30.895 Y122.539 E115.45898
G1 X30.592 Y121.145 E115.48434
G1 X30.571 Y120.997 E115.48699
G1 X30.469 Y119.576 E115.51232
G1 X30.466 Y119.501 E115.51365
G1 X30.466 Y95.5 E115.94029
G1 X30.469 Y95.425 E115.94163
G1 X30.571 Y94.003 E115.96697
G1 X30.592 Y93.855 E115.96963
G1 X30.895 Y92.461 E115.99499
G1 X30.937 Y92.317 E115.99765
G1 X31.436 Y90.981 E116.023
G1 X31.498 Y90.845 E116.02566
G1 X32.183 Y89.59 E116.05108
G1 X32.264 Y89.464 E116.05374
G1 X33.119 Y88.321 E116.07911
G1 X33.218 Y88.208 E116.08178
G1 X34.224 Y87.202 E116.10707
G1 X34.337 Y87.104 E116.10973
G1 X35.48 Y86.248 E116.13512
G1 X35.607 Y86.166 E116.1378
G1 X36.862 Y85.482 E116.16321
G1 X36.997 Y85.42 E116.16585
G1 X38.33 Y84.922 E116.19115
M204 S625
M205 X6 Y6
G0 F4285.7 X38.477 Y85.316
M204 S500
M205 X5 Y5
G1 F1200 X38.563 Y85.29 E116.19274
G1 X39.96 Y84.986 E116.21816
G1 X40.049 Y84.974 E116.21975
G1 X41.471 Y84.872 E116.2451
G1 X41.516 Y84.87 E116.2459
G1 X191.484 Y84.87 E118.91172
G1 X191.529 Y84.872 E118.91253
G1 X192.951 Y84.974 E118.93787
G1 X193.04 Y84.986 E118.93946
G1 X194.437 Y85.29 E118.96488
G1 X194.523 Y85.316 E118.96648
G1 X195.856 Y85.814 E118.99177
G1 X195.937 Y85.851 E118.99335
G1 X197.192 Y86.535 E119.01876
G1 X197.269 Y86.584 E119.02038
G1 X198.412 Y87.44 E119.04577
G1 X198.479 Y87.499 E119.04735
G1 X199.485 Y88.505 E119.07264
G1 X199.544 Y88.573 E119.07424
G1 X200.399 Y89.716 E119.09962
G1 X200.448 Y89.791 E119.10121
G1 X201.133 Y91.046 E119.12663
G1 X201.17 Y91.128 E119.12822
G1 X201.668 Y92.461 E119.15352
G1 X201.694 Y92.547 E119.15512
G1 X201.998 Y93.944 E119.18053
G1 X202.01 Y94.033 E119.18213
G1 X202.112 Y95.454 E119.20745
G1 X202.114 Y95.499 E119.20825
G1 X202.114 Y119.5 E119.63489
G1 X202.112 Y119.545 E119.63569
G1 X202.01 Y120.967 E119.66104
G1 X201.998 Y121.056 E119.66263
G1 X201.695 Y122.45 E119.68799
G1 X201.669 Y122.536 E119.68959
G1 X201.17 Y123.872 E119.71494
G1 X201.133 Y123.954 E119.71654
G1 X200.448 Y125.209 E119.74195
G1 X200.399 Y125.284 E119.74355
G1 X199.544 Y126.427 E119.76892
G1 X199.485 Y126.495 E119.77052
G1 X198.479 Y127.501 E119.79581
G1 X198.412 Y127.56 E119.7974
G1 X197.269 Y128.416 E119.82278
G1 X197.192 Y128.465 E119.8244
G1 X195.936 Y129.149 E119.84983
G1 X195.856 Y129.186 E119.85139
G1 X194.524 Y129.684 E119.87667
G1 X194.437 Y129.71 E119.87829
G1 X193.04 Y130.014 E119.9037
G1 X192.951 Y130.026 E119.9053
G1 X191.529 Y130.128 E119.93064
G1 X191.484 Y130.13 E119.93144
G1 X41.516 Y130.13 E122.59727
G1 X41.471 Y130.128 E122.59807
G1 X40.049 Y130.026 E122.62341
G1 X39.96 Y130.014 E122.62501
G1 X38.563 Y129.71 E122.65042
G1 X38.476 Y129.684 E122.65203
G1 X37.144 Y129.186 E122.67731
G1 X37.064 Y129.149 E122.67888
G1 X35.808 Y128.465 E122.7043
G1 X35.731 Y128.416 E122.70593
G1 X34.588 Y127.56 E122.73131
G1 X34.521 Y127.501 E122.7329
G1 X33.515 Y126.495 E122.75819
G1 X33.456 Y126.427 E122.75979
G1 X32.601 Y125.284 E122.78516
G1 X32.552 Y125.209 E122.78675
G1 X31.867 Y123.954 E122.81217
G1 X31.83 Y123.872 E122.81377
G1 X31.331 Y122.536 E122.83912
G1 X31.305 Y122.45 E122.84072
G1 X31.002 Y121.056 E122.86607
G1 X30.99 Y120.967 E122.86767
G1 X30.888 Y119.546 E122.89299
G1 X30.886 Y119.501 E122.8938
G1 X30.886 Y95.5 E123.32044
G1 X30.888 Y95.455 E123.32124
G1 X30.99 Y94.033 E123.34658
G1 X31.002 Y93.944 E123.34818
G1 X31.305 Y92.55 E123.37353
G1 X31.331 Y92.464 E123.37513
G1 X31.83 Y91.128 E123.40048
G1 X31.867 Y91.046 E123.40208
G1 X32.552 Y89.791 E123.4275
G1 X32.601 Y89.716 E123.42909
G1 X33.456 Y88.573 E123.45446
G1 X33.515 Y88.505 E123.45606
G1 X34.521 Y87.499 E123.48135
G1 X34.588 Y87.44 E123.48294
G1 X35.731 Y86.584 E123.50832
G1 X35.808 Y86.535 E123.50995
G1 X37.063 Y85.851 E123.53535
G1 X37.144 Y85.814 E123.53694
G1 X38.477 Y85.316 E123.56223
M204 S625
M205 X6 Y6
G0 F4285.7 X38.624 Y85.709
M204 S500
M205 X5 Y5
G1 F1200 X38.652 Y85.701 E123.56275
G1 X40.049 Y85.397 E123.58816
G1 X40.079 Y85.393 E123.5887
G1 X41.516 Y85.29 E123.61431
G1 X191.484 Y85.29 E126.28014
G1 X192.921 Y85.393 E126.30575
G1 X192.951 Y85.397 E126.30629
G1 X194.348 Y85.701 E126.3317
G1 X194.376 Y85.709 E126.33222
G1 X195.709 Y86.207 E126.35751
G1 X195.736 Y86.22 E126.35805
G1 X196.991 Y86.904 E126.38345
G1 X197.017 Y86.92 E126.384
G1 X198.16 Y87.776 E126.40938
G1 X198.182 Y87.796 E126.40991
G1 X199.188 Y88.802 E126.4352
G1 X199.208 Y88.824 E126.43573
G1 X200.063 Y89.967 E126.4611
G1 X200.079 Y89.992 E126.46163
G1 X200.764 Y91.247 E126.48704
G1 X200.777 Y91.275 E126.48759
G1 X201.275 Y92.608 E126.51289
G1 X201.283 Y92.636 E126.51341
G1 X201.587 Y94.033 E126.53882
G1 X201.591 Y94.063 E126.53936
G1 X201.694 Y95.499 E126.56495
G1 X201.693 Y119.515 E126.99186
G1 X201.591 Y120.937 E127.0172
G1 X201.587 Y120.967 E127.01774
G1 X201.284 Y122.361 E127.0431
G1 X201.276 Y122.389 E127.04361
G1 X200.777 Y123.725 E127.06896
G1 X200.764 Y123.753 E127.06951
G1 X200.079 Y125.008 E127.09493
G1 X200.063 Y125.033 E127.09546
G1 X199.208 Y126.176 E127.12083
G1 X199.188 Y126.198 E127.12136
G1 X198.182 Y127.204 E127.14665
G1 X198.16 Y127.224 E127.14718
G1 X197.017 Y128.08 E127.17256
G1 X196.991 Y128.096 E127.1731
G1 X195.709 Y128.793 E127.19904
G1 X194.377 Y129.291 E127.22432
G1 X194.348 Y129.299 E127.22486
G1 X192.951 Y129.603 E127.25027
G1 X192.921 Y129.607 E127.25081
G1 X191.484 Y129.71 E127.27642
G1 X41.516 Y129.71 E129.94225
G1 X40.079 Y129.607 E129.96785
G1 X40.049 Y129.603 E129.96839
G1 X38.652 Y129.299 E129.99381
G1 X38.623 Y129.291 E129.99434
G1 X37.291 Y128.793 E130.01962
G1 X36.009 Y128.096 E130.04556
G1 X35.983 Y128.08 E130.0461
G1 X34.84 Y127.224 E130.07149
G1 X34.818 Y127.204 E130.07201
G1 X33.812 Y126.198 E130.0973
G1 X33.792 Y126.176 E130.09783
G1 X32.937 Y125.033 E130.12321
G1 X32.921 Y125.008 E130.12373
G1 X32.236 Y123.753 E130.14915
G1 X32.223 Y123.725 E130.1497
G1 X31.724 Y122.389 E130.17505
G1 X31.716 Y122.361 E130.17557
G1 X31.413 Y120.967 E130.20093
G1 X31.409 Y120.937 E130.20146
G1 X31.306 Y119.501 E130.22706
G1 X31.307 Y95.485 E130.65396
G1 X31.409 Y94.063 E130.67931
G1 X31.413 Y94.033 E130.67984
G1 X31.716 Y92.639 E130.7052
G1 X31.724 Y92.611 E130.70572
G1 X32.223 Y91.275 E130.73107
G1 X32.236 Y91.247 E130.73162
G1 X32.921 Y89.992 E130.75704
G1 X32.937 Y89.967 E130.75756
G1 X33.792 Y88.824 E130.78294
G1 X33.812 Y88.802 E130.78346
G1 X34.818 Y87.796 E130.80875
G1 X34.84 Y87.776 E130.80928
G1 X35.983 Y86.92 E130.83467
G1 X36.009 Y86.904 E130.83521
G1 X37.264 Y86.22 E130.86062
G1 X37.291 Y86.207 E130.86115
G1 X38.624 Y85.709 E130.88644
M204 S625
M205 X6 Y6
G1 F1500 E124.38644
;MESH:Middle body cover.stl
G0 F4285.7 X41.531 Y85.969
G0 X71.032 Y88.498
G0 X161.603 Y88.496
G0 X192.827 Y86.146
G0 X192.875 Y85.81
M204 S500
M205 X5 Y5
;TYPE:WALL-OUTER
G1 F1500 E130.88644
G1 F1200 X194.24 Y86.107 E130.91128
G1 X195.552 Y86.596 E130.93617
G1 X196.776 Y87.264 E130.96095
G1 X197.899 Y88.105 E130.98589
G1 X198.879 Y89.085 E131.01053
G1 X199.719 Y90.208 E131.03546
G1 X200.388 Y91.432 E131.06025
G1 X200.877 Y92.744 E131.08514
G1 X201.174 Y94.109 E131.10997
G1 X201.274 Y95.5 E131.13476
G1 X201.274 Y119.5 E131.56139
G1 X201.174 Y120.891 E131.58618
G1 X200.877 Y122.256 E131.61101
G1 X200.388 Y123.568 E131.6359
G1 X199.719 Y124.792 E131.6607
G1 X198.879 Y125.915 E131.68562
G1 X197.899 Y126.895 E131.71026
G1 X196.776 Y127.736 E131.7352
G1 X195.552 Y128.404 E131.75999
G1 X194.24 Y128.893 E131.78488
G1 X192.875 Y129.19 E131.80971
G1 X191.483 Y129.29 E131.83452
G1 X41.517 Y129.29 E134.50031
G1 X40.125 Y129.19 E134.52512
G1 X38.76 Y128.893 E134.54995
G1 X37.448 Y128.404 E134.57484
G1 X36.224 Y127.736 E134.59963
G1 X35.101 Y126.895 E134.62456
G1 X34.121 Y125.915 E134.6492
G1 X33.281 Y124.792 E134.67413
G1 X32.612 Y123.568 E134.69893
G1 X32.123 Y122.256 E134.72382
G1 X31.826 Y120.891 E134.74865
G1 X31.726 Y119.5 E134.77344
G1 X31.726 Y95.5 E135.20006
G1 X31.826 Y94.109 E135.22485
G1 X32.123 Y92.744 E135.24968
G1 X32.612 Y91.432 E135.27457
G1 X33.281 Y90.208 E135.29937
G1 X34.121 Y89.085 E135.3243
G1 X35.101 Y88.105 E135.34893
G1 X36.224 Y87.264 E135.37387
G1 X37.448 Y86.596 E135.39866
G1 X38.76 Y86.107 E135.42355
G1 X40.125 Y85.81 E135.44838
G1 X41.517 Y85.71 E135.47319
G1 X191.483 Y85.71 E138.13898
G1 X192.875 Y85.81 E138.16379
M204 S625
M205 X6 Y6
G0 F4285.7 X193.07 Y85.852
G0 X192.971 Y86.303
G0 X122.389 Y92.442
G0 X122.384 Y89.022
G0 X111.428 Y89.022
G0 X33.724 Y106.054
G0 X33.556 Y106.348
M204 S500
M205 X5 Y5
G1 F1200 X33.067 Y106.348 E138.17248
G1 X32.799 Y106.465 E138.17768
G1 X32.477 Y106.791 E138.18582
G1 X32.369 Y107.061 E138.19099
G1 X32.371 Y107.521 E138.19917
G1 X32.488 Y107.789 E138.20437
G1 X32.814 Y108.111 E138.21251
G1 X33.084 Y108.219 E138.21768
G1 X33.544 Y108.217 E138.22586
G1 X33.812 Y108.101 E138.23105
G1 X34.134 Y107.775 E138.2392
G1 X34.238 Y107.515 E138.24417
G1 X34.267 Y107.254 E138.24884
G1 X34.146 Y106.812 E138.25699
G1 X33.966 Y106.582 E138.26218
G1 X33.556 Y106.348 E138.27057
M204 S625
M205 X6 Y6
G0 F4285.7 X33.356 Y106.348
G0 X33.356 Y105.886
G0 X53.733 Y97.588
G0 X70.601 Y86.177
G0 X71.407 Y86.248
G0 X71.556 Y86.348
M204 S500
M205 X5 Y5
G1 F1200 X71.067 Y86.348 E138.27926
G1 X70.799 Y86.465 E138.28446
G1 X70.477 Y86.791 E138.29261
G1 X70.369 Y87.061 E138.29778
G1 X70.371 Y87.521 E138.30595
G1 X70.488 Y87.789 E138.31115
G1 X70.814 Y88.111 E138.3193
G1 X71.084 Y88.219 E138.32447
G1 X71.544 Y88.217 E138.33264
G1 X71.812 Y88.101 E138.33783
G1 X72.134 Y87.775 E138.34598
G1 X72.238 Y87.515 E138.35096
G1 X72.267 Y87.254 E138.35563
G1 X72.146 Y86.812 E138.36377
G1 X71.966 Y86.582 E138.36896
G1 X71.556 Y86.348 E138.37736
M204 S625
M205 X6 Y6
G0 F4285.7 X71.356 Y86.348
G0 X71.356 Y86.248
G0 X54.307 Y97.126
G0 X54.038 Y96.919
M204 S500
M205 X5 Y5
G1 F1200 X54.404 Y96.44 E138.38807
G1 X54.636 Y95.882 E138.39881
G1 X54.715 Y95.284 E138.40954
G1 X54.636 Y94.685 E138.42028
G1 X54.404 Y94.128 E138.431
G1 X54.038 Y93.649 E138.44172
G1 X53.559 Y93.282 E138.45244
G1 X53.001 Y93.05 E138.46319
G1 X52.417 Y92.974 E138.47365
G1 X42.389 Y92.974 E138.65191
G1 X41.804 Y93.05 E138.6624
G1 X41.247 Y93.282 E138.67312
G1 X40.768 Y93.649 E138.68385
G1 X40.401 Y94.128 E138.69458
G1 X40.169 Y94.685 E138.7053
G1 X40.091 Y95.284 E138.71604
G1 X40.169 Y95.882 E138.72676
G1 X40.401 Y96.44 E138.7375
G1 X40.768 Y96.919 E138.74823
G1 X41.247 Y97.285 E138.75895
G1 X41.804 Y97.517 E138.76967
G1 X42.389 Y97.594 E138.78016
G1 X52.417 Y97.594 E138.95842
G1 X53.001 Y97.517 E138.96889
G1 X53.559 Y97.285 E138.97963
G1 X54.038 Y96.919 E138.99035
M204 S625
M205 X6 Y6
G0 F4285.7 X54.159 Y96.76
G0 X54.316 Y97.197
M204 S500
M205 X5 Y5
;TYPE:WALL-INNER
G1 F1200 X54.745 Y96.637 E139.00109
G1 X55.016 Y95.984 E139.01187
G1 X55.108 Y95.284 E139.02262
G1 X55.016 Y94.583 E139.0334
G1 X54.745 Y93.931 E139.04415
G1 X54.316 Y93.371 E139.0549
G1 X53.756 Y92.941 E139.06566
G1 X53.103 Y92.67 E139.07643
G1 X52.442 Y92.584 E139.08659
G1 X42.364 Y92.584 E139.24014
G1 X41.702 Y92.67 E139.25031
G1 X41.05 Y92.942 E139.26108
G1 X40.49 Y93.371 E139.27183
G1 X40.061 Y93.931 E139.28258
G1 X39.789 Y94.583 E139.29334
G1 X39.698 Y95.284 E139.30411
G1 X39.789 Y95.984 E139.31487
G1 X40.06 Y96.637 E139.32564
G1 X40.49 Y97.197 E139.3364
G1 X41.05 Y97.626 E139.34714
G1 X41.702 Y97.897 E139.3579
G1 X42.363 Y97.984 E139.36806
G1 X52.443 Y97.984 E139.52164
G1 X53.103 Y97.897 E139.53179
G1 X53.756 Y97.626 E139.54256
G1 X54.316 Y97.197 E139.55331
M204 S625
M205 X6 Y6
G0 F4285.7 X54.573 Y97.454
M204 S500
M205 X5 Y5
G1 F1200 X55.059 Y96.819 E139.56549
G1 X55.367 Y96.078 E139.57772
G1 X55.471 Y95.284 E139.58992
G1 X55.367 Y94.489 E139.60214
G1 X55.059 Y93.749 E139.61435
G1 X54.573 Y93.114 E139.62653
G1 X53.938 Y92.627 E139.63873
G1 X53.197 Y92.319 E139.65095
G1 X52.465 Y92.224 E139.6622
G1 X42.341 Y92.224 E139.81645
G1 X41.608 Y92.319 E139.82772
G1 X40.868 Y92.628 E139.83993
G1 X40.233 Y93.114 E139.85212
G1 X39.747 Y93.749 E139.8643
G1 X39.438 Y94.489 E139.87652
G1 X39.335 Y95.284 E139.88873
G1 X39.438 Y96.078 E139.90093
G1 X39.746 Y96.819 E139.91316
G1 X40.233 Y97.454 E139.92535
G1 X40.868 Y97.94 E139.93754
G1 X41.608 Y98.248 E139.94975
G1 X42.339 Y98.344 E139.96098
G1 X52.467 Y98.344 E140.1153
G1 X53.197 Y98.248 E140.12652
G1 X53.938 Y97.94 E140.13874
G1 X54.573 Y97.454 E140.15093
M204 S625
M205 X6 Y6
G0 F4285.7 X54.997 Y115.284
G0 X54.761 Y116.309
G0 X54.307 Y117.126
G0 X54.038 Y116.919
M204 S500
M205 X5 Y5
;TYPE:WALL-OUTER
G1 F1200 X54.404 Y116.44 E140.16164
G1 X54.636 Y115.882 E140.17239
G1 X54.715 Y115.284 E140.18311
G1 X54.636 Y114.685 E140.19385
G1 X54.404 Y114.128 E140.20457
G1 X54.038 Y113.649 E140.21529
G1 X53.559 Y113.282 E140.22602
G1 X53.001 Y113.05 E140.23676
G1 X52.417 Y112.974 E140.24723
G1 X42.389 Y112.974 E140.42549
G1 X41.804 Y113.05 E140.43597
G1 X41.247 Y113.282 E140.4467
G1 X40.768 Y113.649 E140.45742
G1 X40.401 Y114.128 E140.46815
G1 X40.169 Y114.685 E140.47888
G1 X40.091 Y115.284 E140.48961
G1 X40.169 Y115.882 E140.50033
G1 X40.401 Y116.44 E140.51108
G1 X40.768 Y116.919 E140.5218
G1 X41.247 Y117.285 E140.53252
G1 X41.804 Y117.517 E140.54324
G1 X42.389 Y117.594 E140.55373
G1 X52.417 Y117.594 E140.73199
G1 X53.001 Y117.517 E140.74246
G1 X53.559 Y117.285 E140.7532
G1 X54.038 Y116.919 E140.76392
M204 S625
M205 X6 Y6
G0 F4285.7 X54.159 Y116.76
G0 X54.316 Y117.197
M204 S500
M205 X5 Y5
;TYPE:WALL-INNER
G1 F1200 X54.745 Y116.637 E140.77467
G1 X55.016 Y115.984 E140.78544
G1 X55.108 Y115.284 E140.7962
G1 X55.016 Y114.583 E140.80697
G1 X54.745 Y113.931 E140.81773
G1 X54.316 Y113.371 E140.82848
G1 X53.756 Y112.941 E140.83923
G1 X53.103 Y112.67 E140.85001
G1 X52.442 Y112.584 E140.86016
G1 X42.364 Y112.584 E141.01372
G1 X41.702 Y112.67 E141.02389
G1 X41.05 Y112.942 E141.03465
G1 X40.49 Y113.371 E141.0454
G1 X40.061 Y113.931 E141.05615
G1 X39.789 Y114.583 E141.06691
G1 X39.698 Y115.284 E141.07768
G1 X39.789 Y115.984 E141.08844
G1 X40.06 Y116.637 E141.09921
G1 X40.49 Y117.197 E141.10997
G1 X41.05 Y117.626 E141.12072
G1 X41.702 Y117.897 E141.13148
G1 X42.363 Y117.984 E141.14163
G1 X52.443 Y117.984 E141.29522
G1 X53.103 Y117.897 E141.30536
G1 X53.756 Y117.626 E141.31613
G1 X54.316 Y117.197 E141.32688
M204 S625
M205 X6 Y6
G0 F4285.7 X54.573 Y117.454
M204 S500
M205 X5 Y5
G1 F1200 X55.059 Y116.819 E141.33907
G1 X55.367 Y116.078 E141.35129
G1 X55.471 Y115.284 E141.36349
G1 X55.367 Y114.489 E141.37571
G1 X55.059 Y113.749 E141.38792
G1 X54.573 Y113.114 E141.40011
G1 X53.938 Y112.627 E141.4123
G1 X53.197 Y112.319 E141.42453
G1 X52.465 Y112.224 E141.43577
G1 X42.341 Y112.224 E141.59003
G1 X41.608 Y112.319 E141.60129
G1 X40.868 Y112.628 E141.61351
G1 X40.233 Y113.114 E141.62569
G1 X39.747 Y113.749 E141.63787
G1 X39.438 Y114.489 E141.65009
G1 X39.335 Y115.284 E141.66231
G1 X39.438 Y116.078 E141.67451
G1 X39.746 Y116.819 E141.68673
G1 X40.233 Y117.454 E141.69893
G1 X40.868 Y117.94 E141.71111
G1 X41.608 Y118.248 E141.72332
G1 X42.339 Y118.344 E141.73456
G1 X52.467 Y118.344 E141.88887
G1 X53.197 Y118.248 E141.90009
G1 X53.938 Y117.94 E141.91232
G1 X54.573 Y117.454 E141.9245
M204 S625
M205 X6 Y6
G0 F4285.7 X71.724 Y126.054
G0 X71.556 Y126.348
M204 S500
M205 X5 Y5
;TYPE:WALL-OUTER
G1 F1200 X71.067 Y126.348 E141.93319
G1 X70.799 Y126.465 E141.93839
G1 X70.477 Y126.791 E141.94654
G1 X70.369 Y127.061 E141.95171
G1 X70.371 Y127.521 E141.95988
G1 X70.488 Y127.789 E141.96508
G1 X70.814 Y128.111 E141.97323
G1 X71.084 Y128.219 E141.9784
G1 X71.544 Y128.217 E141.98657
G1 X71.812 Y128.101 E141.99176
G1 X72.134 Y127.775 E141.99991
G1 X72.238 Y127.515 E142.00489
G1 X72.267 Y127.254 E142.00956
G1 X72.146 Y126.812 E142.0177
G1 X71.966 Y126.582 E142.02289
G1 X71.556 Y126.348 E142.03128
M204 S625
M205 X6 Y6
G0 F4285.7 X71.356 Y126.348
G0 X71.659 Y125.958
M204 S500
M205 X5 Y5
;TYPE:WALL-INNER
G1 F1200 X70.986 Y125.958 E142.04154
G1 X70.574 Y126.138 E142.04839
G1 X70.144 Y126.573 E142.05771
G1 X69.979 Y126.987 E142.0645
G1 X69.981 Y127.603 E142.07388
G1 X70.161 Y128.014 E142.08072
G1 X70.596 Y128.444 E142.09004
G1 X70.846 Y128.544 E142.09414
G1 X71.01 Y128.609 E142.09683
G1 X71.626 Y128.607 E142.10622
G1 X71.771 Y128.544 E142.10863
G1 X72.036 Y128.429 E142.11303
G1 X72.467 Y127.993 E142.12237
G1 X72.62 Y127.611 E142.12864
G1 X72.663 Y127.223 E142.13459
G1 X72.501 Y126.633 E142.14391
G1 X72.226 Y126.281 E142.15071
G1 X71.659 Y125.958 E142.16066
M204 S625
M205 X6 Y6
G0 F4285.7 X92.037 Y111.793
G0 X91.869 Y111.499
M204 S500
M205 X5 Y5
;TYPE:WALL-OUTER
G1 F1200 X92.678 Y110.769 E142.18003
G1 X93.319 Y109.889 E142.19938
G1 X93.762 Y108.893 E142.21876
G1 X93.988 Y107.827 E142.23813
G1 X93.988 Y106.738 E142.25749
G1 X93.762 Y105.672 E142.27686
G1 X93.319 Y104.677 E142.29622
G1 X92.678 Y103.796 E142.31558
G1 X91.869 Y103.066 E142.33495
G1 X90.925 Y102.522 E142.35432
G1 X89.889 Y102.185 E142.37369
G1 X88.817 Y102.073 E142.39285
G1 X78.795 Y102.073 E142.571
G1 X77.722 Y102.185 E142.59017
G1 X76.686 Y102.522 E142.60954
G1 X75.743 Y103.066 E142.62889
G1 X74.933 Y103.796 E142.64828
G1 X74.292 Y104.677 E142.66764
G1 X73.849 Y105.672 E142.687
G1 X73.623 Y106.738 E142.70637
G1 X73.623 Y107.827 E142.72573
G1 X73.849 Y108.893 E142.7451
G1 X74.292 Y109.889 E142.76448
G1 X74.933 Y110.769 E142.78383
G1 X75.743 Y111.499 E142.80322
G1 X76.686 Y112.043 E142.82257
G1 X77.722 Y112.38 E142.84193
G1 X78.795 Y112.493 E142.86111
G1 X88.817 Y112.493 E143.03926
G1 X89.889 Y112.38 E143.05842
G1 X90.925 Y112.043 E143.07779
G1 X91.869 Y111.499 E143.09716
M204 S625
M205 X6 Y6
G0 F4285.7 X92.017 Y111.365
G0 X92.1 Y111.816
M204 S500
M205 X5 Y5
;TYPE:WALL-INNER
G1 F1200 X92.969 Y111.031 E143.115
G1 X93.659 Y110.085 E143.13284
G1 X94.135 Y109.014 E143.1507
G1 X94.378 Y107.868 E143.16855
G1 X94.378 Y106.697 E143.18639
G1 X94.135 Y105.551 E143.20424
G1 X93.659 Y104.481 E143.22208
G1 X92.969 Y103.534 E143.23994
G1 X92.1 Y102.749 E143.25778
G1 X91.084 Y102.164 E143.27564
G1 X89.97 Y101.801 E143.29349
G1 X88.837 Y101.683 E143.31085
G1 X78.775 Y101.683 E143.46416
G1 X77.641 Y101.801 E143.48153
G1 X76.527 Y102.164 E143.49938
G1 X75.512 Y102.749 E143.51723
G1 X74.642 Y103.534 E143.53509
G1 X73.952 Y104.481 E143.55294
G1 X73.476 Y105.551 E143.57078
G1 X73.233 Y106.697 E143.58863
G1 X73.233 Y107.868 E143.60648
G1 X73.476 Y109.014 E143.62433
G1 X73.952 Y110.085 E143.64218
G1 X74.642 Y111.031 E143.66002
G1 X75.512 Y111.816 E143.67788
G1 X76.527 Y112.401 E143.69573
G1 X77.64 Y112.764 E143.71356
G1 X78.775 Y112.883 E143.73095
G1 X88.837 Y112.883 E143.88426
G1 X89.971 Y112.764 E143.90164
G1 X91.084 Y112.401 E143.91947
G1 X92.1 Y111.816 E143.93734
M204 S625
M205 X6 Y6
G0 F4285.7 X92.313 Y112.109
M204 S500
M205 X5 Y5
G1 F1200 X93.238 Y111.273 E143.95633
G1 X93.972 Y110.266 E143.97532
G1 X94.479 Y109.126 E143.99433
G1 X94.486 Y109.089 E143.9949
G1 X94.738 Y107.906 E144.01333
G1 X94.738 Y106.659 E144.03233
G1 X94.479 Y105.439 E144.05134
G1 X93.972 Y104.3 E144.07033
G1 X93.238 Y103.292 E144.08933
G1 X92.313 Y102.456 E144.10833
G1 X91.231 Y101.833 E144.12735
G1 X90.045 Y101.447 E144.14635
G1 X88.856 Y101.323 E144.16457
G1 X78.756 Y101.323 E144.31846
G1 X77.566 Y101.447 E144.33669
G1 X76.38 Y101.833 E144.35569
G1 X75.299 Y102.456 E144.3747
G1 X74.373 Y103.292 E144.39371
G1 X73.639 Y104.3 E144.41271
G1 X73.132 Y105.439 E144.43171
G1 X73.125 Y105.476 E144.43228
G1 X72.873 Y106.659 E144.45071
G1 X72.873 Y107.906 E144.46971
G1 X73.132 Y109.126 E144.48871
G1 X73.639 Y110.266 E144.50772
G1 X74.373 Y111.273 E144.52671
G1 X75.299 Y112.109 E144.54572
G1 X76.38 Y112.732 E144.56473
G1 X77.565 Y113.118 E144.58372
G1 X78.756 Y113.243 E144.60196
G1 X88.856 Y113.243 E144.75585
G1 X90.046 Y113.118 E144.77408
G1 X91.231 Y112.732 E144.79307
G1 X92.313 Y112.109 E144.81209
M204 S625
M205 X6 Y6
G0 F4285.7 X111.428 Y89.022
G0 X111.696 Y89.29
M204 S500
M205 X5 Y5
;TYPE:WALL-OUTER
G1 F1200 X111.696 Y125.71 E145.4595
G1 X122.116 Y125.71 E145.64472
G1 X122.116 Y89.29 E146.29212
G1 X111.696 Y89.29 E146.47735
M204 S625
M205 X6 Y6
G0 F4285.7 X111.696 Y89.49
G0 X111.306 Y88.9
M204 S500
M205 X5 Y5
;TYPE:WALL-INNER
G1 F1200 X111.306 Y126.1 E147.04415
G1 X122.506 Y126.1 E147.2148
G1 X122.506 Y88.9 E147.7816
G1 X111.306 Y88.9 E147.95225
M204 S625
M205 X6 Y6
G0 F4285.7 X110.946 Y88.54
M204 S500
M205 X5 Y5
G1 F1200 X110.946 Y126.46 E148.53002
G1 X122.866 Y126.46 E148.71164
G1 X122.866 Y88.54 E149.28941
G1 X110.946 Y88.54 E149.47103
M204 S625
M205 X6 Y6
G0 F4285.7 X161.407 Y86.248
G0 X161.556 Y86.348
M204 S500
M205 X5 Y5
;TYPE:WALL-OUTER
G1 F1200 X161.067 Y86.348 E149.47972
G1 X160.799 Y86.465 E149.48492
G1 X160.477 Y86.791 E149.49306
G1 X160.369 Y87.061 E149.49823
G1 X160.371 Y87.521 E149.50641
G1 X160.488 Y87.789 E149.51161
G1 X160.814 Y88.111 E149.51975
G1 X161.084 Y88.219 E149.52492
G1 X161.544 Y88.217 E149.5331
G1 X161.812 Y88.101 E149.53829
G1 X162.134 Y87.775 E149.54643
G1 X162.238 Y87.515 E149.55141
G1 X162.267 Y87.254 E149.55608
G1 X162.146 Y86.812 E149.56423
G1 X161.966 Y86.582 E149.56942
G1 X161.556 Y86.348 E149.57781
M204 S625
M205 X6 Y6
G0 F4285.7 X161.356 Y86.348
G0 X161.356 Y86.248
G0 X160.601 Y86.177
G0 X160.026 Y86.996
G0 X159.336 Y107.863
G0 X159.094 Y109
G0 X158.721 Y109.843
G0 X157.037 Y111.793
G0 X156.869 Y111.499
M204 S500
M205 X5 Y5
G1 F1200 X157.678 Y110.769 E149.59718
G1 X158.319 Y109.889 E149.61653
G1 X158.762 Y108.893 E149.63591
G1 X158.988 Y107.827 E149.65528
G1 X158.988 Y106.738 E149.67464
G1 X158.762 Y105.672 E149.69401
G1 X158.319 Y104.677 E149.71337
G1 X157.678 Y103.796 E149.73274
G1 X156.869 Y103.066 E149.75211
G1 X155.925 Y102.522 E149.77147
G1 X154.889 Y102.185 E149.79084
G1 X153.817 Y102.073 E149.81
G1 X143.795 Y102.073 E149.98815
G1 X142.722 Y102.185 E150.00733
G1 X141.686 Y102.522 E150.02669
G1 X140.743 Y103.066 E150.04604
G1 X139.933 Y103.796 E150.06543
G1 X139.292 Y104.677 E150.08479
G1 X138.849 Y105.672 E150.10416
G1 X138.623 Y106.738 E150.12353
G1 X138.623 Y107.827 E150.14288
G1 X138.849 Y108.893 E150.16225
G1 X139.292 Y109.889 E150.18163
G1 X139.933 Y110.769 E150.20098
G1 X140.743 Y111.499 E150.22037
G1 X141.686 Y112.043 E150.23972
G1 X142.722 Y112.38 E150.25908
G1 X143.795 Y112.493 E150.27826
G1 X153.817 Y112.493 E150.45641
G1 X154.889 Y112.38 E150.47558
G1 X155.925 Y112.043 E150.49494
G1 X156.869 Y111.499 E150.51431
M204 S625
M205 X6 Y6
G0 F4285.7 X157.017 Y111.365
G0 X157.1 Y111.816
M204 S500
M205 X5 Y5
;TYPE:WALL-INNER
G1 F1200 X157.969 Y111.031 E150.53215
G1 X158.659 Y110.085 E150.54999
G1 X159.135 Y109.014 E150.56785
G1 X159.378 Y107.868 E150.5857
G1 X159.378 Y106.697 E150.60354
G1 X159.135 Y105.551 E150.62139
G1 X158.659 Y104.481 E150.63923
G1 X157.969 Y103.534 E150.65709
G1 X157.1 Y102.749 E150.67493
G1 X156.084 Y102.164 E150.69279
G1 X154.97 Y101.801 E150.71065
G1 X153.837 Y101.683 E150.728
G1 X143.775 Y101.683 E150.88131
G1 X142.641 Y101.801 E150.89868
G1 X141.527 Y102.164 E150.91654
G1 X140.512 Y102.749 E150.93439
G1 X139.642 Y103.534 E150.95224
G1 X138.952 Y104.481 E150.97009
G1 X138.476 Y105.551 E150.98794
G1 X138.233 Y106.697 E151.00579
G1 X138.233 Y107.868 E151.02363
G1 X138.476 Y109.014 E151.04148
G1 X138.952 Y110.085 E151.05933
G1 X139.642 Y111.031 E151.07717
G1 X140.512 Y111.816 E151.09503
G1 X141.527 Y112.401 E151.11288
G1 X142.64 Y112.764 E151.13072
G1 X143.775 Y112.883 E151.1481
G1 X153.837 Y112.883 E151.30141
G1 X154.971 Y112.764 E151.31879
G1 X156.084 Y112.401 E151.33662
G1 X157.1 Y111.816 E151.35449
M204 S625
M205 X6 Y6
G0 F4285.7 X157.313 Y112.109
M204 S500
M205 X5 Y5
G1 F1200 X158.238 Y111.273 E151.37348
G1 X158.972 Y110.266 E151.39247
G1 X159.479 Y109.126 E151.41148
G1 X159.486 Y109.089 E151.41206
G1 X159.738 Y107.906 E151.43048
G1 X159.738 Y106.659 E151.44948
G1 X159.479 Y105.439 E151.46849
G1 X158.972 Y104.3 E151.48748
G1 X158.238 Y103.292 E151.50648
G1 X157.313 Y102.456 E151.52548
G1 X156.231 Y101.833 E151.5445
G1 X155.045 Y101.447 E151.56351
G1 X153.856 Y101.323 E151.58172
G1 X143.756 Y101.323 E151.73561
G1 X142.566 Y101.447 E151.75384
G1 X141.38 Y101.833 E151.77284
G1 X140.299 Y102.456 E151.79185
G1 X139.373 Y103.292 E151.81086
G1 X138.639 Y104.3 E151.82986
G1 X138.132 Y105.439 E151.84886
G1 X138.125 Y105.476 E151.84943
G1 X137.873 Y106.659 E151.86786
G1 X137.873 Y107.906 E151.88686
G1 X138.132 Y109.126 E151.90586
G1 X138.639 Y110.266 E151.92487
G1 X139.373 Y111.273 E151.94386
G1 X140.299 Y112.109 E151.96287
G1 X141.38 Y112.732 E151.98188
G1 X142.565 Y113.118 E152.00087
G1 X143.756 Y113.243 E152.01911
G1 X153.856 Y113.243 E152.173
G1 X155.046 Y113.118 E152.19123
G1 X156.231 Y112.732 E152.21022
G1 X157.313 Y112.109 E152.22925
M204 S625
M205 X6 Y6
G0 F4285.7 X161.724 Y126.054
G0 X161.556 Y126.348
M204 S500
M205 X5 Y5
;TYPE:WALL-OUTER
G1 F1200 X161.067 Y126.348 E152.23794
G1 X160.799 Y126.465 E152.24314
G1 X160.477 Y126.791 E152.25128
G1 X160.369 Y127.061 E152.25645
G1 X160.371 Y127.521 E152.26463
G1 X160.488 Y127.789 E152.26983
G1 X160.814 Y128.111 E152.27797
G1 X161.084 Y128.219 E152.28314
G1 X161.544 Y128.217 E152.29132
G1 X161.812 Y128.101 E152.29651
G1 X162.134 Y127.775 E152.30465
G1 X162.238 Y127.515 E152.30963
G1 X162.267 Y127.254 E152.3143
G1 X162.146 Y126.812 E152.32245
G1 X161.966 Y126.582 E152.32764
G1 X161.556 Y126.348 E152.33603
M204 S625
M205 X6 Y6
G0 F4285.7 X161.356 Y126.348
G0 X161.659 Y125.958
M204 S500
M205 X5 Y5
;TYPE:WALL-INNER
G1 F1200 X160.986 Y125.958 E152.34628
G1 X160.574 Y126.138 E152.35313
G1 X160.144 Y126.573 E152.36245
G1 X159.979 Y126.987 E152.36924
G1 X159.981 Y127.603 E152.37863
G1 X160.161 Y128.014 E152.38547
G1 X160.596 Y128.444 E152.39479
G1 X160.846 Y128.544 E152.39889
G1 X161.01 Y128.609 E152.40158
G1 X161.626 Y128.607 E152.41096
G1 X161.771 Y128.544 E152.41337
G1 X162.036 Y128.429 E152.41777
G1 X162.467 Y127.993 E152.42711
G1 X162.62 Y127.611 E152.43338
G1 X162.663 Y127.223 E152.43933
G1 X162.501 Y126.633 E152.44865
G1 X162.226 Y126.281 E152.45546
G1 X161.659 Y125.958 E152.4654
M204 S625
M205 X6 Y6
G0 F4285.7 X199.075 Y108.525
G0 X199.243 Y108.231
M204 S500
M205 X5 Y5
;TYPE:WALL-OUTER
G1 F1200 X199.73 Y108.231 E152.47406
G1 X200 Y108.115 E152.47928
G1 X200.322 Y107.788 E152.48744
G1 X200.426 Y107.529 E152.4924
G1 X200.454 Y107.266 E152.4971
G1 X200.334 Y106.824 E152.50524
G1 X200.152 Y106.596 E152.51043
G1 X199.754 Y106.368 E152.51858
G1 X199.464 Y106.335 E152.52377
G1 X199.021 Y106.456 E152.53194
G1 X198.793 Y106.637 E152.53711
G1 X198.565 Y107.035 E152.54526
G1 X198.532 Y107.325 E152.55045
G1 X198.653 Y107.767 E152.5586
G1 X198.833 Y107.997 E152.56379
G1 X199.243 Y108.231 E152.57218
M204 S625
M205 X6 Y6
G0 F4285.7 X199.443 Y108.231
G0 X199.443 Y108.693
G0 X181.422 Y107.939
G0 X180.162 Y107.596
G0 X179.212 Y106.646
G0 X178.864 Y105.35
G0 X179.186 Y103.986
G0 X179.455 Y104.194
M204 S500
M205 X5 Y5
G1 F1200 X179.225 Y104.752 E152.58291
G1 X179.146 Y105.35 E152.59363
G1 X179.225 Y105.949 E152.60437
G1 X179.456 Y106.506 E152.61509
G1 X179.823 Y106.985 E152.62582
G1 X180.302 Y107.352 E152.63654
G1 X180.859 Y107.583 E152.64726
G1 X181.444 Y107.66 E152.65775
G1 X191.472 Y107.66 E152.83601
G1 X192.056 Y107.583 E152.84648
G1 X192.614 Y107.353 E152.85721
G1 X193.093 Y106.985 E152.86795
G1 X193.46 Y106.506 E152.87867
G1 X193.691 Y105.949 E152.88939
G1 X193.77 Y105.35 E152.90013
G1 X193.691 Y104.752 E152.91085
G1 X193.461 Y104.194 E152.92158
G1 X193.093 Y103.715 E152.93232
G1 X192.614 Y103.347 E152.94306
G1 X192.056 Y103.117 E152.95379
G1 X191.472 Y103.04 E152.96426
G1 X181.444 Y103.04 E153.14251
G1 X180.859 Y103.117 E153.153
G1 X180.302 Y103.348 E153.16372
G1 X179.823 Y103.715 E153.17445
G1 X179.455 Y104.194 E153.18519
M204 S625
M205 X6 Y6
G0 F4285.7 X179.379 Y104.379
G0 X179.114 Y103.997
M204 S500
M205 X5 Y5
;TYPE:WALL-INNER
G1 F1200 X178.845 Y104.65 E153.19595
G1 X178.753 Y105.35 E153.2067
G1 X178.845 Y106.051 E153.21748
G1 X179.115 Y106.703 E153.22823
G1 X179.545 Y107.263 E153.23899
G1 X180.105 Y107.693 E153.24974
G1 X180.757 Y107.963 E153.2605
G1 X181.418 Y108.05 E153.27065
G1 X191.498 Y108.05 E153.42424
G1 X192.158 Y107.963 E153.43438
G1 X192.811 Y107.694 E153.44514
G1 X193.371 Y107.263 E153.45591
G1 X193.801 Y106.703 E153.46667
G1 X194.071 Y106.051 E153.47742
G1 X194.163 Y105.35 E153.48819
G1 X194.071 Y104.65 E153.49895
G1 X193.802 Y103.997 E153.50971
G1 X193.371 Y103.437 E153.52048
G1 X192.811 Y103.006 E153.53124
G1 X192.158 Y102.737 E153.542
G1 X191.498 Y102.65 E153.55215
G1 X181.418 Y102.65 E153.70573
G1 X180.757 Y102.737 E153.71589
G1 X180.105 Y103.007 E153.72664
G1 X179.545 Y103.437 E153.7374
G1 X179.114 Y103.997 E153.74817
M204 S625
M205 X6 Y6
G0 F4285.7 X178.799 Y103.815
M204 S500
M205 X5 Y5
G1 F1200 X178.494 Y104.556 E153.76038
G1 X178.39 Y105.35 E153.77258
G1 X178.494 Y106.145 E153.78479
G1 X178.801 Y106.885 E153.797
G1 X179.288 Y107.52 E153.80919
G1 X179.923 Y108.007 E153.82139
G1 X180.663 Y108.314 E153.83359
G1 X181.394 Y108.41 E153.84483
G1 X191.522 Y108.41 E153.99914
G1 X192.252 Y108.314 E154.01036
G1 X192.993 Y108.009 E154.02257
G1 X193.628 Y107.52 E154.03478
G1 X194.115 Y106.885 E154.04698
G1 X194.422 Y106.145 E154.05918
G1 X194.526 Y105.35 E154.0714
G1 X194.422 Y104.556 E154.0836
G1 X194.117 Y103.815 E154.09581
G1 X193.628 Y103.18 E154.10802
G1 X192.993 Y102.691 E154.12023
G1 X192.252 Y102.386 E154.13244
G1 X191.522 Y102.29 E154.14366
G1 X181.394 Y102.29 E154.29798
G1 X180.663 Y102.386 E154.30921
G1 X179.923 Y102.693 E154.32142
G1 X179.288 Y103.18 E154.33361
G1 X178.799 Y103.815 E154.34582
M204 S625
M205 X6 Y6
G0 F4285.7 X192.82 Y86.197
M204 S500
M205 X5 Y5
G1 F1200 X194.133 Y86.483 E154.3663
G1 X195.388 Y86.951 E154.3867
G1 X196.563 Y87.592 E154.4071
G1 X197.641 Y88.399 E154.42761
G1 X198.585 Y89.343 E154.44796
G1 X199.391 Y90.421 E154.46846
G1 X200.033 Y91.596 E154.48887
G1 X200.49 Y92.823 E154.50882
G1 X200.501 Y92.851 E154.50927
G1 X200.787 Y94.164 E154.52975
G1 X200.884 Y95.514 E154.55037
G1 X200.884 Y106.411 E154.7164
G1 X200.884 Y106.644 E154.71995
G1 X200.884 Y107.234 E154.72894
G1 X200.884 Y107.624 E154.73489
G1 X200.884 Y108.006 E154.74071
G1 X200.884 Y108.164 E154.74311
G1 X200.884 Y119.486 E154.91562
G1 X200.787 Y120.836 E154.93624
G1 X200.501 Y122.149 E154.95672
G1 X200.033 Y123.404 E154.97713
G1 X199.391 Y124.579 E154.99753
G1 X198.585 Y125.657 E155.01804
G1 X197.641 Y126.601 E155.03838
G1 X196.563 Y127.408 E155.05889
G1 X195.388 Y128.049 E155.07929
G1 X194.161 Y128.506 E155.09924
G1 X194.133 Y128.517 E155.0997
G1 X192.82 Y128.803 E155.12017
G1 X191.469 Y128.9 E155.14081
G1 X161.784 Y128.9 E155.59311
G1 X161.626 Y128.9 E155.5953
G1 X161.01 Y128.9 E155.60293
G1 X160.833 Y128.9 E155.60538
G1 X71.784 Y128.9 E156.96218
G1 X71.626 Y128.9 E156.96437
G1 X71.01 Y128.9 E156.972
G1 X70.833 Y128.9 E156.97445
G1 X41.531 Y128.9 E157.42091
G1 X40.18 Y128.803 E157.44155
G1 X38.867 Y128.517 E157.46202
G1 X37.612 Y128.049 E157.48243
G1 X36.437 Y127.408 E157.50282
G1 X35.359 Y126.601 E157.52334
G1 X34.415 Y125.657 E157.54368
G1 X33.609 Y124.579 E157.56419
G1 X32.967 Y123.404 E157.58459
G1 X32.51 Y122.177 E157.60454
G1 X32.499 Y122.149 E157.605
G1 X32.213 Y120.836 E157.62547
G1 X32.116 Y119.486 E157.6461
G1 X32.116 Y108.389 E157.81518
G1 X32.116 Y108.014 E157.82089
G1 X32.116 Y107.911 E157.82246
G1 X32.161 Y108.014 E157.82267
G1 X32.427 Y108.277 E157.82606
G1 X32.596 Y108.444 E157.82968
G1 X33.01 Y108.609 E157.83648
G1 X33.626 Y108.607 E157.84586
G1 X34.036 Y108.429 E157.85267
G1 X34.467 Y107.993 E157.86201
G1 X34.62 Y107.611 E157.86828
G1 X34.663 Y107.223 E157.87423
G1 X34.501 Y106.633 E157.88355
G1 X34.226 Y106.281 E157.89036
G1 X33.659 Y105.958 E157.9003
G1 X32.986 Y105.958 E157.91056
G1 X32.574 Y106.138 E157.91741
G1 X32.426 Y106.287 E157.92061
G1 X32.144 Y106.573 E157.92673
G1 X32.116 Y106.643 E157.92787
G1 X32.116 Y106.573 E157.9279
G1 X32.116 Y106.171 E157.93142
G1 X32.116 Y95.514 E158.09379
G1 X32.213 Y94.164 E158.11442
G1 X32.499 Y92.851 E158.13489
G1 X32.967 Y91.596 E158.1553
G1 X33.609 Y90.421 E158.1757
G1 X34.415 Y89.343 E158.19621
G1 X35.359 Y88.399 E158.21655
G1 X36.437 Y87.592 E158.23707
G1 X37.612 Y86.951 E158.25746
G1 X38.839 Y86.494 E158.27741
G1 X38.867 Y86.483 E158.27787
G1 X40.18 Y86.197 E158.29834
G1 X41.531 Y86.1 E158.31898
G1 X70.19 Y86.1 E158.75564
G1 X70.574 Y86.1 E158.7615
G1 X70.661 Y86.1 E158.76282
G1 X70.574 Y86.138 E158.76297
G1 X70.304 Y86.411 E158.7664
G1 X70.144 Y86.573 E158.76987
G1 X69.979 Y86.987 E158.77666
G1 X69.981 Y87.603 E158.78605
G1 X70.161 Y88.014 E158.79289
G1 X70.596 Y88.444 E158.8022
G1 X71.01 Y88.609 E158.809
G1 X71.626 Y88.607 E158.81838
G1 X72.036 Y88.429 E158.82519
G1 X72.467 Y87.993 E158.83453
G1 X72.62 Y87.611 E158.8408
G1 X72.663 Y87.223 E158.84675
G1 X72.501 Y86.633 E158.85607
G1 X72.338 Y86.424 E158.86011
G1 X72.226 Y86.281 E158.86288
G1 X71.908 Y86.1 E158.86845
G1 X72.226 Y86.1 E158.86953
G1 X72.408 Y86.1 E158.87169
G1 X160.19 Y86.1 E160.20918
G1 X160.574 Y86.1 E160.21504
G1 X160.661 Y86.1 E160.21636
G1 X160.574 Y86.138 E160.21651
G1 X160.304 Y86.411 E160.21994
G1 X160.144 Y86.573 E160.22341
G1 X159.979 Y86.987 E160.2302
G1 X159.981 Y87.603 E160.23959
G1 X160.161 Y88.014 E160.24643
G1 X160.596 Y88.444 E160.25574
G1 X161.01 Y88.609 E160.26254
G1 X161.626 Y88.607 E160.27192
G1 X162.036 Y88.429 E160.27873
G1 X162.467 Y87.993 E160.28807
G1 X162.62 Y87.611 E160.29434
G1 X162.663 Y87.223 E160.30029
G1 X162.501 Y86.633 E160.30961
G1 X162.338 Y86.424 E160.31365
G1 X162.226 Y86.281 E160.31642
G1 X161.908 Y86.1 E160.32199
G1 X162.226 Y86.1 E160.32307
G1 X162.408 Y86.1 E160.32523
G1 X191.469 Y86.1 E160.76802
G1 X192.82 Y86.197 E160.78866
M204 S625
M205 X6 Y6
G0 F4285.7 X192.766 Y86.554
M204 S500
M205 X5 Y5
G1 F1200 X194.035 Y86.83 E160.80844
G1 X195.238 Y87.279 E160.82801
G1 X196.367 Y87.895 E160.8476
G1 X197.401 Y88.669 E160.86728
G1 X198.315 Y89.583 E160.88698
G1 X199.086 Y90.615 E160.90661
G1 X199.706 Y91.749 E160.9263
G1 X200.154 Y92.949 E160.94582
G1 X200.43 Y94.218 E160.9656
G1 X200.524 Y95.526 E160.98558
G1 X200.524 Y105.636 E161.13962
G1 X200.524 Y105.637 E161.13964
G1 X200.524 Y105.946 E161.14435
G1 X200.256 Y105.792 E161.14702
G1 X199.993 Y105.641 E161.15164
G1 X199.406 Y105.573 E161.16065
G1 X198.675 Y105.773 E161.17219
G1 X198.214 Y106.139 E161.18116
G1 X197.838 Y106.796 E161.1927
G1 X197.77 Y107.384 E161.20172
G1 X197.97 Y108.111 E161.2132
G1 X198.333 Y108.576 E161.22219
G1 X199.045 Y108.981 E161.23467
G1 X199.884 Y108.981 E161.24746
G1 X200.247 Y108.825 E161.25348
G1 X200.431 Y108.746 E161.25653
G1 X200.524 Y108.652 E161.25854
G1 X200.524 Y108.746 E161.25859
G1 X200.524 Y108.947 E161.26071
G1 X200.524 Y119.474 E161.4211
G1 X200.43 Y120.782 E161.44108
G1 X200.154 Y122.051 E161.46087
G1 X199.706 Y123.251 E161.48039
G1 X199.086 Y124.385 E161.50008
G1 X198.315 Y125.417 E161.51971
G1 X197.401 Y126.331 E161.5394
G1 X196.367 Y127.105 E161.55908
G1 X195.238 Y127.721 E161.57868
G1 X194.035 Y128.17 E161.59824
G1 X192.766 Y128.446 E161.61803
G1 X191.457 Y128.54 E161.63802
G1 X162.783 Y128.54 E162.07492
G1 X162.774 Y128.54 E162.07505
G1 X162.433 Y128.54 E162.08025
G1 X162.774 Y128.194 E162.08463
G1 X162.777 Y128.186 E162.08476
G1 X162.8 Y128.127 E162.08572
G1 X162.972 Y127.699 E162.09275
G1 X163.028 Y127.194 E162.10049
G1 X162.829 Y126.468 E162.11196
G1 X162.466 Y126.003 E162.12095
G1 X161.754 Y125.598 E162.13343
G1 X160.911 Y125.598 E162.14628
G1 X160.367 Y125.836 E162.15532
G1 X159.837 Y126.372 E162.16681
G1 X159.619 Y126.918 E162.17577
G1 X159.621 Y127.679 E162.18736
G1 X159.847 Y128.194 E162.19593
G1 X159.859 Y128.222 E162.19639
G1 X160.181 Y128.54 E162.20329
G1 X159.859 Y128.54 E162.20515
G1 X159.828 Y128.54 E162.2056
G1 X72.774 Y128.54 E163.532
G1 X72.433 Y128.54 E163.5372
G1 X72.774 Y128.194 E163.54158
G1 X72.8 Y128.127 E163.54267
G1 X72.972 Y127.699 E163.5497
G1 X73.028 Y127.194 E163.55744
G1 X72.829 Y126.468 E163.56891
G1 X72.466 Y126.003 E163.5779
G1 X71.754 Y125.598 E163.59038
G1 X70.911 Y125.598 E163.60323
G1 X70.367 Y125.836 E163.61227
G1 X69.837 Y126.372 E163.62376
G1 X69.619 Y126.918 E163.63272
G1 X69.621 Y127.679 E163.64431
G1 X69.847 Y128.194 E163.65288
G1 X69.859 Y128.222 E163.65334
G1 X70.181 Y128.54 E163.66024
G1 X69.859 Y128.54 E163.6621
G1 X69.828 Y128.54 E163.66255
G1 X41.543 Y128.54 E164.09352
G1 X40.234 Y128.446 E164.11351
G1 X38.965 Y128.17 E164.1333
G1 X37.762 Y127.721 E164.15286
G1 X36.633 Y127.105 E164.17246
G1 X35.599 Y126.331 E164.19214
G1 X34.685 Y125.417 E164.21183
G1 X33.914 Y124.385 E164.23146
G1 X33.294 Y123.251 E164.25115
G1 X32.846 Y122.051 E164.27067
G1 X32.57 Y120.782 E164.29046
G1 X32.476 Y119.474 E164.31044
G1 X32.476 Y109.048 E164.46929
G1 X32.476 Y109.047 E164.46931
G1 X32.476 Y108.783 E164.47333
G1 X32.722 Y108.881 E164.4757
G1 X32.941 Y108.969 E164.47929
G1 X33.701 Y108.967 E164.49087
G1 X34.243 Y108.732 E164.49987
G1 X34.774 Y108.194 E164.51139
G1 X34.8 Y108.127 E164.51249
G1 X34.972 Y107.699 E164.51951
G1 X35.028 Y107.194 E164.52726
G1 X34.829 Y106.468 E164.53873
G1 X34.466 Y106.003 E164.54771
G1 X33.754 Y105.598 E164.56019
G1 X32.911 Y105.598 E164.57304
G1 X32.727 Y105.679 E164.5761
G1 X32.476 Y105.788 E164.58027
G1 X32.476 Y105.515 E164.58269
G1 X32.476 Y105.514 E164.58271
G1 X32.476 Y95.526 E164.73489
G1 X32.57 Y94.218 E164.75487
G1 X32.846 Y92.949 E164.77466
G1 X33.294 Y91.749 E164.79417
G1 X33.914 Y90.615 E164.81386
G1 X34.685 Y89.583 E164.83349
G1 X35.599 Y88.669 E164.85319
G1 X36.633 Y87.895 E164.87287
G1 X37.762 Y87.279 E164.89246
G1 X38.965 Y86.83 E164.91203
G1 X40.234 Y86.554 E164.93181
G1 X41.543 Y86.46 E164.95181
G1 X69.537 Y86.46 E165.37834
G1 X69.538 Y86.46 E165.37836
G1 X69.802 Y86.46 E165.38238
G1 X69.704 Y86.706 E165.38475
G1 X69.619 Y86.918 E165.38823
G1 X69.621 Y87.679 E165.39982
G1 X69.859 Y88.222 E165.40885
G1 X70.395 Y88.751 E165.42033
G1 X70.941 Y88.969 E165.42929
G1 X71.701 Y88.967 E165.44087
G1 X72.243 Y88.732 E165.44987
G1 X72.774 Y88.194 E165.46138
G1 X72.8 Y88.127 E165.46248
G1 X72.972 Y87.699 E165.46951
G1 X73.028 Y87.194 E165.47725
G1 X72.889 Y86.69 E165.48521
G1 X72.829 Y86.468 E165.48872
G1 X72.823 Y86.46 E165.48887
G1 X73.053 Y86.46 E165.49102
G1 X159.537 Y86.46 E166.80873
G1 X159.538 Y86.46 E166.80875
G1 X159.802 Y86.46 E166.81277
G1 X159.704 Y86.706 E166.81514
G1 X159.619 Y86.918 E166.81862
G1 X159.621 Y87.679 E166.83021
G1 X159.859 Y88.222 E166.83925
G1 X160.395 Y88.751 E166.85072
G1 X160.941 Y88.969 E166.85968
G1 X161.701 Y88.967 E166.87126
G1 X162.243 Y88.732 E166.88026
G1 X162.774 Y88.194 E166.89178
G1 X162.8 Y88.127 E166.89287
G1 X162.972 Y87.699 E166.8999
G1 X163.028 Y87.194 E166.90764
G1 X162.889 Y86.69 E166.91561
G1 X162.829 Y86.468 E166.91911
G1 X162.823 Y86.46 E166.91926
G1 X163.053 Y86.46 E166.92141
G1 X191.457 Y86.46 E167.35419
G1 X192.766 Y86.554 E167.37418
M204 S625
M205 X6 Y6
G0 F4285.7 X198.841 Y106.101
M204 S500
M205 X5 Y5
G1 F1200 X198.492 Y106.378 E167.38097
G1 X198.187 Y106.911 E167.39033
G1 X198.136 Y107.356 E167.39715
G1 X198.298 Y107.946 E167.40648
G1 X198.573 Y108.298 E167.41328
G1 X199.14 Y108.621 E167.42322
G1 X199.81 Y108.621 E167.43343
G1 X200.224 Y108.443 E167.4403
G1 X200.544 Y108.118 E167.44725
G1 X200.655 Y108.006 E167.44925
G1 X200.808 Y107.624 E167.4521
G1 X200.85 Y107.234 E167.45303
G1 X200.689 Y106.644 E167.45617
G1 X200.544 Y106.462 E167.45895
G1 X200.41 Y106.295 E167.46221
G1 X199.878 Y105.99 E167.47156
G1 X199.434 Y105.939 E167.47837
G1 X198.841 Y106.101 E167.48773
M204 S625
M205 X6 Y6
G0 F4285.7 X198.5 Y105.427
M204 S500
M205 X5 Y5
;TYPE:SKIN
G1 F1200 X197.921 Y105.887 E167.50088
G1 X197.469 Y106.675 E167.51703
G1 X197.384 Y107.414 E167.53025
G1 X197.624 Y108.285 E167.54631
G1 X198.08 Y108.869 E167.55948
G1 X198.944 Y109.361 E167.57715
G1 X199.962 Y109.361 E167.59525
G1 X200.144 Y109.283 E167.59877
G1 X200.144 Y119.461 E167.77969
G1 X200.053 Y120.729 E167.80229
G1 X199.789 Y121.942 E167.82436
G1 X199.36 Y123.09 E167.84614
G1 X198.764 Y124.181 E167.86824
G1 X198.023 Y125.173 E167.89025
G1 X197.157 Y126.039 E167.91202
G1 X196.163 Y126.783 E167.93409
G1 X195.078 Y127.375 E167.95607
G1 X193.926 Y127.805 E167.97792
G1 X192.713 Y128.069 E167.99999
G1 X191.444 Y128.16 E168.02261
G1 X163.197 Y128.16 E168.52472
G1 X163.344 Y127.792 E168.53177
G1 X163.414 Y127.164 E168.543
G1 X163.175 Y126.295 E168.55902
G1 X162.719 Y125.71 E168.57221
G1 X161.855 Y125.218 E168.58988
G1 X160.831 Y125.218 E168.60808
G1 X160.148 Y125.517 E168.62134
G1 X159.512 Y126.159 E168.6374
G1 X159.239 Y126.846 E168.65054
G1 X159.241 Y127.759 E168.66677
G1 X159.417 Y128.16 E168.67456
G1 X73.197 Y128.16 E170.2072
G1 X73.344 Y127.792 E170.21424
G1 X73.414 Y127.164 E170.22548
G1 X73.175 Y126.295 E170.2415
G1 X72.719 Y125.71 E170.25468
G1 X71.855 Y125.218 E170.27236
G1 X70.831 Y125.218 E170.29056
G1 X70.148 Y125.517 E170.30381
G1 X69.512 Y126.159 E170.31988
G1 X69.239 Y126.846 E170.33302
G1 X69.241 Y127.759 E170.34925
G1 X69.417 Y128.16 E170.35703
G1 X41.556 Y128.16 E170.85229
G1 X40.287 Y128.069 E170.8749
G1 X39.074 Y127.805 E170.89697
G1 X37.922 Y127.375 E170.91883
G1 X36.837 Y126.783 E170.9408
G1 X35.843 Y126.039 E170.96287
G1 X34.977 Y125.173 E170.98464
G1 X34.236 Y124.181 E171.00665
G1 X33.64 Y123.09 E171.02875
G1 X33.211 Y121.942 E171.05054
G1 X32.947 Y120.729 E171.0726
G1 X32.856 Y119.461 E171.0952
G1 X32.856 Y109.344 E171.27504
G1 X32.869 Y109.349 E171.27529
G1 X33.781 Y109.347 E171.2915
G1 X34.462 Y109.051 E171.3047
G1 X35.099 Y108.407 E171.3208
G1 X35.344 Y107.792 E171.33257
G1 X35.414 Y107.164 E171.3438
G1 X35.175 Y106.295 E171.35982
G1 X34.719 Y105.71 E171.37301
G1 X33.855 Y105.218 E171.39068
G1 X32.856 Y105.218 E171.40844
G1 X32.856 Y95.539 E171.58049
G1 X32.947 Y94.271 E171.60309
G1 X33.211 Y93.058 E171.62516
G1 X33.64 Y91.91 E171.64694
G1 X34.236 Y90.819 E171.66904
G1 X34.977 Y89.827 E171.69105
G1 X35.843 Y88.961 E171.71282
G1 X36.837 Y88.217 E171.73489
G1 X37.922 Y87.625 E171.75686
G1 X39.074 Y87.195 E171.77872
G1 X40.287 Y86.931 E171.80079
G1 X41.556 Y86.84 E171.8234
G1 X69.241 Y86.84 E172.31553
G1 X69.239 Y86.846 E172.31564
G1 X69.241 Y87.759 E172.33187
G1 X69.54 Y88.441 E172.34511
G1 X70.182 Y89.076 E172.36116
G1 X70.869 Y89.349 E172.3743
G1 X71.781 Y89.347 E172.39052
G1 X72.462 Y89.051 E172.40371
G1 X73.099 Y88.407 E172.41982
G1 X73.344 Y87.792 E172.43158
G1 X73.414 Y87.164 E172.44282
G1 X73.325 Y86.84 E172.44879
G1 X159.241 Y86.84 E173.97603
G1 X159.239 Y86.846 E173.97614
G1 X159.241 Y87.759 E173.99237
G1 X159.54 Y88.441 E174.00561
G1 X160.182 Y89.076 E174.02166
G1 X160.869 Y89.349 E174.0348
G1 X161.781 Y89.347 E174.05101
G1 X162.462 Y89.051 E174.06421
G1 X163.099 Y88.407 E174.08032
G1 X163.344 Y87.792 E174.09208
G1 X163.414 Y87.164 E174.10332
G1 X163.325 Y86.84 E174.10929
G1 X191.444 Y86.84 E174.60913
G1 X192.713 Y86.931 E174.63175
G1 X193.926 Y87.195 E174.65381
G1 X195.078 Y87.625 E174.67567
G1 X196.163 Y88.217 E174.69764
G1 X197.157 Y88.961 E174.71971
G1 X198.023 Y89.827 E174.74148
G1 X198.764 Y90.819 E174.76349
G1 X199.36 Y91.91 E174.78559
G1 X199.789 Y93.058 E174.80738
G1 X200.053 Y94.271 E174.82944
G1 X200.144 Y95.539 E174.85204
G1 X200.144 Y105.289 E175.02536
G1 X200.115 Y105.272 E175.02596
G1 X199.376 Y105.187 E175.03918
G1 X198.5 Y105.427 E175.05532
M204 S625
M205 X6 Y6
G0 F4285.7 X194.91 Y105.35
M204 S500
M205 X5 Y5
G1 F1200 X194.792 Y104.457 E175.07134
G1 X194.449 Y103.623 E175.08737
G1 X193.899 Y102.909 E175.10339
G1 X193.185 Y102.359 E175.11941
G1 X192.351 Y102.016 E175.13544
G1 X191.547 Y101.91 E175.14985
G1 X181.369 Y101.91 E175.33078
G1 X180.564 Y102.016 E175.34521
G1 X179.731 Y102.361 E175.36124
G1 X179.018 Y102.909 E175.37722
G1 X178.467 Y103.623 E175.39326
G1 X178.124 Y104.457 E175.40929
G1 X178.006 Y105.35 E175.4253
G1 X178.124 Y106.244 E175.44133
G1 X178.469 Y107.077 E175.45735
G1 X179.017 Y107.791 E175.47335
G1 X179.731 Y108.339 E175.48935
G1 X180.564 Y108.684 E175.50538
G1 X181.369 Y108.79 E175.51981
G1 X191.547 Y108.79 E175.70074
G1 X192.351 Y108.684 E175.71515
G1 X193.185 Y108.341 E175.73118
G1 X193.899 Y107.79 E175.74721
G1 X194.447 Y107.077 E175.7632
G1 X194.792 Y106.244 E175.77923
G1 X194.91 Y105.35 E175.79526
M204 S625
M205 X6 Y6
G0 F4285.7 X193.292 Y107.184
G0 X192.129 Y107.855
G0 X181.422 Y107.939
G0 X160.118 Y106.619
M204 S500
M205 X5 Y5
G1 F1200 X159.842 Y105.321 E175.81885
G1 X159.303 Y104.108 E175.84244
G1 X158.522 Y103.036 E175.86602
G1 X157.537 Y102.147 E175.8896
G1 X156.387 Y101.484 E175.9132
G1 X155.125 Y101.073 E175.93679
G1 X153.875 Y100.943 E175.95913
G1 X143.737 Y100.943 E176.13935
G1 X142.486 Y101.073 E176.1617
G1 X141.224 Y101.484 E176.1853
G1 X140.075 Y102.147 E176.20888
G1 X139.089 Y103.036 E176.23248
G1 X138.308 Y104.108 E176.25605
G1 X137.769 Y105.321 E176.27965
G1 X137.493 Y106.619 E176.30324
G1 X137.493 Y107.946 E176.32683
G1 X137.769 Y109.244 E176.35042
G1 X138.308 Y110.458 E176.37403
G1 X139.09 Y111.529 E176.3976
G1 X140.075 Y112.418 E176.42119
G1 X141.224 Y113.081 E176.44477
G1 X142.485 Y113.492 E176.46834
G1 X143.737 Y113.623 E176.49072
G1 X153.875 Y113.623 E176.67093
G1 X155.126 Y113.492 E176.69329
G1 X156.387 Y113.081 E176.71687
G1 X157.537 Y112.418 E176.74046
G1 X158.521 Y111.529 E176.76404
G1 X159.303 Y110.458 E176.78761
G1 X159.842 Y109.244 E176.81122
G1 X160.118 Y107.946 E176.83481
G1 X160.118 Y106.619 E176.8584
M204 S625
M205 X6 Y6
G0 F4285.7 X157.887 Y103.61
G0 X157.034 Y102.839
G0 X156.227 Y102.375
G0 X123.246 Y88.16
M204 S500
M205 X5 Y5
G1 F1200 X110.566 Y88.16 E177.0838
G1 X110.566 Y126.84 E177.77137
G1 X123.246 Y126.84 E177.99677
G1 X123.246 Y88.16 E178.68435
M204 S625
M205 X6 Y6
G0 F4285.7 X111.428 Y89.022
G0 X95.118 Y106.619
M204 S500
M205 X5 Y5
G1 F1200 X94.842 Y105.321 E178.70794
G1 X94.303 Y104.108 E178.73153
G1 X93.522 Y103.036 E178.75511
G1 X92.537 Y102.147 E178.77869
G1 X91.387 Y101.484 E178.80229
G1 X90.125 Y101.073 E178.82588
G1 X88.875 Y100.943 E178.84822
G1 X78.737 Y100.943 E179.02844
G1 X77.486 Y101.073 E179.05079
G1 X76.224 Y101.484 E179.07439
G1 X75.075 Y102.147 E179.09797
G1 X74.089 Y103.036 E179.12157
G1 X73.308 Y104.108 E179.14514
G1 X72.769 Y105.321 E179.16874
G1 X72.493 Y106.619 E179.19233
G1 X72.493 Y107.946 E179.21592
G1 X72.769 Y109.244 E179.23951
G1 X73.308 Y110.458 E179.26312
G1 X74.09 Y111.529 E179.28669
G1 X75.075 Y112.418 E179.31028
G1 X76.224 Y113.081 E179.33386
G1 X77.485 Y113.492 E179.35743
G1 X78.737 Y113.623 E179.37981
G1 X88.875 Y113.623 E179.56002
G1 X90.126 Y113.492 E179.58238
G1 X91.387 Y113.081 E179.60596
G1 X92.537 Y112.418 E179.62956
G1 X93.521 Y111.529 E179.65313
G1 X94.303 Y110.458 E179.6767
G1 X94.842 Y109.244 E179.70031
G1 X95.118 Y107.946 E179.7239
G1 X95.118 Y106.619 E179.74749
M204 S625
M205 X6 Y6
G0 F4285.7 X93.563 Y110.031
G0 X92.887 Y110.955
G0 X92.034 Y111.726
G0 X91.037 Y112.3
G0 X89.946 Y112.656
G0 X55.855 Y115.284
M204 S500
M205 X5 Y5
G1 F1200 X55.737 Y114.39 E179.76352
G1 X55.391 Y113.557 E179.77955
G1 X54.844 Y112.843 E179.79554
G1 X54.13 Y112.295 E179.81154
G1 X53.296 Y111.949 E179.82759
G1 X52.49 Y111.844 E179.84204
G1 X42.316 Y111.844 E180.02289
G1 X41.509 Y111.949 E180.03736
G1 X40.676 Y112.296 E180.0534
G1 X39.962 Y112.843 E180.06939
G1 X39.415 Y113.557 E180.08538
G1 X39.068 Y114.39 E180.10142
G1 X38.951 Y115.284 E180.11745
G1 X39.068 Y116.177 E180.13345
G1 X39.414 Y117.011 E180.14951
G1 X39.962 Y117.725 E180.1655
G1 X40.676 Y118.272 E180.18149
G1 X41.509 Y118.618 E180.19753
G1 X42.314 Y118.724 E180.21196
G1 X52.492 Y118.724 E180.39288
G1 X53.296 Y118.618 E180.4073
G1 X54.13 Y118.272 E180.42335
G1 X54.844 Y117.725 E180.43934
G1 X55.391 Y117.011 E180.45533
G1 X55.737 Y116.177 E180.47138
G1 X55.855 Y115.284 E180.48739
M204 S625
M205 X6 Y6
G0 F4285.7 X55.855 Y95.284
M204 S500
M205 X5 Y5
G1 F1200 X55.737 Y94.39 E180.50342
G1 X55.391 Y93.557 E180.51945
G1 X54.844 Y92.843 E180.53544
G1 X54.13 Y92.295 E180.55144
G1 X53.296 Y91.949 E180.56749
G1 X52.49 Y91.844 E180.58194
G1 X42.316 Y91.844 E180.76279
G1 X41.509 Y91.949 E180.77726
G1 X40.676 Y92.296 E180.7933
G1 X39.962 Y92.843 E180.80929
G1 X39.415 Y93.557 E180.82528
G1 X39.068 Y94.39 E180.84132
G1 X38.951 Y95.284 E180.85734
G1 X39.068 Y96.177 E180.87335
G1 X39.414 Y97.011 E180.8894
G1 X39.962 Y97.725 E180.9054
G1 X40.676 Y98.272 E180.92139
G1 X41.509 Y98.618 E180.93743
G1 X42.314 Y98.724 E180.95186
G1 X52.492 Y98.724 E181.13278
G1 X53.296 Y98.618 E181.1472
G1 X54.13 Y98.272 E181.16325
G1 X54.844 Y97.725 E181.17924
G1 X55.391 Y97.011 E181.19523
G1 X55.737 Y96.177 E181.21128
G1 X55.855 Y95.284 E181.22729
M204 S625
M205 X6 Y6
G0 F4285.7 X40.159 Y113.984
G0 X37.036 Y126.726
M204 S500
M205 X5 Y5
G1 F1200 X34.293 Y123.982 E181.29626
M204 S625
M205 X6 Y6
G0 F4285.7 X33.676 Y122.772
M204 S500
M205 X5 Y5
G1 F1200 X38.244 Y127.34 E181.41109
M204 S625
M205 X6 Y6
G0 F4285.7 X39.176 Y127.678
M204 S500
M205 X5 Y5
G1 F1200 X33.336 Y121.838 E181.5579
M204 S625
M205 X6 Y6
G0 F4285.7 X33.171 Y121.078
M204 S500
M205 X5 Y5
G1 F1200 X39.935 Y127.842 E181.72795
M204 S625
M205 X6 Y6
G0 F4285.7 X40.634 Y127.948
M204 S500
M205 X5 Y5
G1 F1200 X33.067 Y120.38 E181.91818
M204 S625
M205 X6 Y6
G0 F4285.7 X33.021 Y119.74
M204 S500
M205 X5 Y5
G1 F1200 X41.274 Y127.994 E182.12567
M204 S625
M205 X6 Y6
G0 F4285.7 X41.889 Y128.014
M204 S500
M205 X5 Y5
G1 F1200 X33.001 Y119.126 E182.34911
M204 S625
M205 X6 Y6
G0 F4285.7 X33.001 Y118.533
M204 S500
M205 X5 Y5
G1 F1200 X42.482 Y128.014 E182.58745
M204 S625
M205 X6 Y6
G0 F4285.7 X43.076 Y128.014
M204 S500
M205 X5 Y5
G1 F1200 X33.001 Y117.939 E182.84072
M204 S625
M205 X6 Y6
G0 F4285.7 X33.001 Y117.345
M204 S500
M205 X5 Y5
G1 F1200 X43.67 Y128.014 E183.10893
M204 S625
M205 X6 Y6
G0 F4285.7 X44.264 Y128.014
M204 S500
M205 X5 Y5
G1 F1200 X33.001 Y116.751 E183.39207
M204 S625
M205 X6 Y6
G0 F4285.7 X33.001 Y116.157
M204 S500
M205 X5 Y5
G1 F1200 X44.858 Y128.014 E183.69015
M204 S625
M205 X6 Y6
G0 F4285.7 X45.452 Y128.014
M204 S500
M205 X5 Y5
G1 F1200 X33.001 Y115.563 E184.00315
M204 S625
M205 X6 Y6
G0 F4285.7 X33.001 Y114.969
M204 S500
M205 X5 Y5
G1 F1200 X46.046 Y128.014 E184.33109
M204 S625
M205 X6 Y6
G0 F4285.7 X46.64 Y128.014
M204 S500
M205 X5 Y5
G1 F1200 X33.001 Y114.375 E184.67396
M204 S625
M205 X6 Y6
G0 F4285.7 X33.001 Y113.781
M204 S500
M205 X5 Y5
G1 F1200 X47.234 Y128.014 E185.03177
M204 S625
M205 X6 Y6
G0 F4285.7 X47.828 Y128.014
M204 S500
M205 X5 Y5
G1 F1200 X33.001 Y113.187 E185.4045
M204 S625
M205 X6 Y6
G0 F4285.7 X33.001 Y112.593
M204 S500
M205 X5 Y5
G1 F1200 X48.422 Y128.014 E185.79217
M204 S625
M205 X6 Y6
G0 F4285.7 X49.016 Y128.014
M204 S500
M205 X5 Y5
G1 F1200 X33.001 Y111.999 E186.19477
M204 S625
M205 X6 Y6
G0 F4285.7 X33.001 Y111.405
M204 S500
M205 X5 Y5
G1 F1200 X49.61 Y128.014 E186.61231
M204 S625
M205 X6 Y6
G0 F4285.7 X50.204 Y128.014
M204 S500
M205 X5 Y5
G1 F1200 X40.537 Y118.347 E186.85533
M204 S625
M205 X6 Y6
G0 F4285.7 X41.554 Y118.77
M204 S500
M205 X5 Y5
G1 F1200 X50.798 Y128.014 E187.08771
M204 S625
M205 X6 Y6
G0 F4285.7 X51.392 Y128.014
M204 S500
M205 X5 Y5
G1 F1200 X42.238 Y118.86 E187.31783
M204 S625
M205 X6 Y6
G0 F4285.7 X42.84 Y118.868
M204 S500
M205 X5 Y5
G1 F1200 X51.986 Y128.014 E187.54776
M204 S625
M205 X6 Y6
G0 F4285.7 X52.58 Y128.014
M204 S500
M205 X5 Y5
G1 F1200 X43.434 Y118.868 E187.77768
M204 S625
M205 X6 Y6
G0 F4285.7 X44.028 Y118.868
M204 S500
M205 X5 Y5
G1 F1200 X53.174 Y128.014 E188.0076
M204 S625
M205 X6 Y6
G0 F4285.7 X53.768 Y128.014
M204 S500
M205 X5 Y5
G1 F1200 X44.621 Y118.868 E188.23753
M204 S625
M205 X6 Y6
G0 F4285.7 X45.215 Y118.868
M204 S500
M205 X5 Y5
G1 F1200 X54.362 Y128.014 E188.46747
M204 S625
M205 X6 Y6
G0 F4285.7 X54.956 Y128.014
M204 S500
M205 X5 Y5
G1 F1200 X45.809 Y118.868 E188.6974
M204 S625
M205 X6 Y6
G0 F4285.7 X46.403 Y118.868
M204 S500
M205 X5 Y5
G1 F1200 X55.55 Y128.014 E188.92733
M204 S625
M205 X6 Y6
G0 F4285.7 X56.144 Y128.014
M204 S500
M205 X5 Y5
G1 F1200 X46.997 Y118.868 E189.15727
M204 S625
M205 X6 Y6
G0 F4285.7 X47.591 Y118.868
M204 S500
M205 X5 Y5
G1 F1200 X56.738 Y128.014 E189.3872
M204 S625
M205 X6 Y6
G0 F4285.7 X57.332 Y128.014
M204 S500
M205 X5 Y5
G1 F1200 X48.185 Y118.868 E189.61714
M204 S625
M205 X6 Y6
G0 F4285.7 X48.779 Y118.868
M204 S500
M205 X5 Y5
G1 F1200 X57.926 Y128.014 E189.84707
M204 S625
M205 X6 Y6
G0 F4285.7 X58.52 Y128.014
M204 S500
M205 X5 Y5
G1 F1200 X49.373 Y118.868 E190.07701
M204 S625
M205 X6 Y6
G0 F4285.7 X49.967 Y118.868
M204 S500
M205 X5 Y5
G1 F1200 X59.114 Y128.014 E190.30694
M204 S625
M205 X6 Y6
G0 F4285.7 X59.708 Y128.014
M204 S500
M205 X5 Y5
G1 F1200 X50.561 Y118.868 E190.53687
M204 S625
M205 X6 Y6
G0 F4285.7 X51.155 Y118.868
M204 S500
M205 X5 Y5
G1 F1200 X60.302 Y128.014 E190.76681
M204 S625
M205 X6 Y6
G0 F4285.7 X60.896 Y128.014
M204 S500
M205 X5 Y5
G1 F1200 X51.749 Y118.868 E190.99674
M204 S625
M205 X6 Y6
G0 F4285.7 X52.343 Y118.868
M204 S500
M205 X5 Y5
G1 F1200 X61.49 Y128.014 E191.22668
M204 S625
M205 X6 Y6
G0 F4285.7 X62.083 Y128.014
M204 S500
M205 X5 Y5
G1 F1200 X52.887 Y118.817 E191.45787
M204 S625
M205 X6 Y6
G0 F4285.7 X53.396 Y118.733
M204 S500
M205 X5 Y5
G1 F1200 X62.677 Y128.014 E191.69118
M204 S625
M205 X6 Y6
G0 F4285.7 X63.271 Y128.014
M204 S500
M205 X5 Y5
G1 F1200 X53.815 Y118.558 E191.9289
M204 S625
M205 X6 Y6
G0 F4285.7 X54.229 Y118.378
M204 S500
