;START_OF_HEADER
;HEADER_VERSION:0.1
;FLAVOR:Griffin
;GENERATOR.NAME:Cura_SteamEngine
;GENERATOR.VERSION:4.7.1
;GENERATOR.BUILD_DATE:2020-09-02
;TARGET_MACHINE.NAME:Ultimaker 3
;EXTRUDER_TRAIN.0.INITIAL_TEMPERATURE:205
;EXTRUDER_TRAIN.0.MATERIAL.VOLUME_USED:21934
;EXTRUDER_TRAIN.0.MATERIAL.GUID:506c9f0d-e3aa-4bd4-b2d2-23e2425b1aa9
;EXTRUDER_TRAIN.0.NOZZLE.DIAMETER:0.4
;EXTRUDER_TRAIN.0.NOZZLE.NAME:AA 0.4
;BUILD_PLATE.TYPE:glass
;BUILD_PLATE.INITIAL_TEMPERATURE:60
;PRINT.TIME:14148
;PRINT.GROUPS:1
;PRINT.SIZE.MIN.X:9
;PRINT.SIZE.MIN.Y:6
;PRINT.SIZE.MIN.Z:0.27
;PRINT.SIZE.MAX.X:208.43
;PRINT.SIZE.MAX.Y:136.43
;PRINT.SIZE.MAX.Z:10.22
;END_OF_HEADER
;Generated with Cura_SteamEngine 4.7.1
T0
M82 ;absolute extrusion mode

G92 E0
M109 S205
G0 F15000 X9 Y6 Z2
G280
G1 F1500 E-6.5
;LAYER_COUNT:54
;LAYER:0
M107
M204 S625
M205 X6 Y6
G1 F600 Z2.27
G0 F3750 X36.266 Y79.412 Z2.27
M204 S500
M205 X5 Y5
;TYPE:SKIRT
G1 F600 Z0.27
G1 F1500 E0
G1 F1200 X37.216 Y79.133 E0.0176
G1 X38.599 Y78.832 E0.04276
G1 X39.571 Y78.691 E0.06022
G1 X40.988 Y78.588 E0.08547
G1 X41.49 Y78.57 E0.0944
G1 X191.51 Y78.57 E2.76116
G1 X192.012 Y78.588 E2.77008
G1 X193.429 Y78.691 E2.79534
G1 X194.401 Y78.832 E2.8128
G1 X195.784 Y79.133 E2.83796
G1 X196.734 Y79.412 E2.85556
G1 X198.084 Y79.916 E2.88117
G1 X198.98 Y80.325 E2.89868
G1 X200.233 Y81.009 E2.92406
G1 X201.067 Y81.545 E2.94168
G1 X202.202 Y82.395 E2.96689
G1 X202.948 Y83.042 E2.98444
G1 X203.958 Y84.052 E3.00983
G1 X204.605 Y84.798 E3.02738
G1 X205.455 Y85.933 E3.05259
G1 X205.991 Y86.767 E3.07021
G1 X206.675 Y88.02 E3.09559
G1 X207.084 Y88.916 E3.1131
G1 X207.588 Y90.266 E3.13871
G1 X207.867 Y91.216 E3.15631
G1 X208.168 Y92.599 E3.18147
G1 X208.309 Y93.57 E3.19892
G1 X208.412 Y94.985 E3.22413
G1 X208.43 Y95.488 E3.23308
G1 X208.43 Y119.511 E3.66011
G1 X208.412 Y120.014 E3.66906
G1 X208.309 Y121.43 E3.6943
G1 X208.169 Y122.399 E3.7117
G1 X207.869 Y123.779 E3.73681
G1 X207.59 Y124.73 E3.75442
G1 X207.085 Y126.083 E3.78009
G1 X206.675 Y126.98 E3.79763
G1 X205.991 Y128.233 E3.823
G1 X205.455 Y129.067 E3.84063
G1 X204.605 Y130.202 E3.86583
G1 X203.958 Y130.948 E3.88339
G1 X202.948 Y131.958 E3.90878
G1 X202.202 Y132.605 E3.92633
G1 X201.067 Y133.455 E3.95154
G1 X200.231 Y133.992 E3.9692
G1 X198.977 Y134.676 E3.99459
G1 X198.084 Y135.084 E4.01204
G1 X196.735 Y135.588 E4.03764
G1 X195.784 Y135.867 E4.05526
G1 X194.401 Y136.168 E4.08042
G1 X193.429 Y136.309 E4.09788
G1 X192.012 Y136.412 E4.12313
G1 X191.51 Y136.43 E4.13206
G1 X41.49 Y136.43 E6.79881
G1 X40.988 Y136.412 E6.80774
G1 X39.571 Y136.309 E6.833
G1 X38.599 Y136.168 E6.85046
G1 X37.216 Y135.867 E6.87562
G1 X36.265 Y135.588 E6.89323
G1 X34.916 Y135.084 E6.91883
G1 X34.023 Y134.676 E6.93628
G1 X32.769 Y133.992 E6.96168
G1 X31.933 Y133.455 E6.97934
G1 X30.798 Y132.605 E7.00454
G1 X30.052 Y131.958 E7.0221
G1 X29.042 Y130.948 E7.04749
G1 X28.395 Y130.202 E7.06504
G1 X27.545 Y129.067 E7.09025
G1 X27.009 Y128.233 E7.10787
G1 X26.325 Y126.98 E7.13325
G1 X25.915 Y126.083 E7.15078
G1 X25.41 Y124.73 E7.17645
G1 X25.131 Y123.779 E7.19407
G1 X24.831 Y122.399 E7.21917
G1 X24.691 Y121.43 E7.23658
G1 X24.588 Y120.015 E7.2618
G1 X24.57 Y119.512 E7.27074
G1 X24.57 Y95.489 E7.69777
G1 X24.588 Y94.986 E7.70672
G1 X24.691 Y93.57 E7.73196
G1 X24.831 Y92.601 E7.74936
G1 X25.131 Y91.221 E7.77447
G1 X25.41 Y90.27 E7.79208
G1 X25.915 Y88.917 E7.81776
G1 X26.325 Y88.02 E7.83529
G1 X27.009 Y86.767 E7.86066
G1 X27.545 Y85.933 E7.87829
G1 X28.395 Y84.798 E7.90349
G1 X29.042 Y84.052 E7.92105
G1 X30.052 Y83.042 E7.94644
G1 X30.798 Y82.395 E7.96399
G1 X31.933 Y81.545 E7.9892
G1 X32.767 Y81.009 E8.00682
G1 X34.02 Y80.325 E8.03219
G1 X34.916 Y79.916 E8.0497
G1 X36.266 Y79.412 E8.07532
M204 S625
M205 X6 Y6
G0 F3750 X36.413 Y79.805
M204 S500
M205 X5 Y5
G1 F1200 X37.306 Y79.543 E8.09186
G1 X38.689 Y79.242 E8.11702
G1 X39.601 Y79.11 E8.1334
G1 X41.018 Y79.007 E8.15866
G1 X41.49 Y78.99 E8.16705
G1 X191.51 Y78.99 E10.8338
G1 X191.982 Y79.007 E10.8422
G1 X193.399 Y79.11 E10.86746
G1 X194.311 Y79.242 E10.88384
G1 X195.694 Y79.543 E10.909
G1 X196.587 Y79.805 E10.92554
G1 X197.937 Y80.309 E10.95115
G1 X198.779 Y80.694 E10.96761
G1 X200.032 Y81.378 E10.99299
G1 X200.815 Y81.881 E11.00953
G1 X201.95 Y82.731 E11.03474
G1 X202.651 Y83.339 E11.05123
G1 X203.661 Y84.349 E11.07662
G1 X204.269 Y85.05 E11.09312
G1 X205.119 Y86.185 E11.11832
G1 X205.622 Y86.968 E11.13487
G1 X206.306 Y88.221 E11.16024
G1 X206.691 Y89.063 E11.1767
G1 X207.195 Y90.413 E11.20232
G1 X207.457 Y91.306 E11.21886
G1 X207.758 Y92.689 E11.24402
G1 X207.89 Y93.6 E11.26038
G1 X207.993 Y95.015 E11.2856
G1 X208.01 Y95.488 E11.29401
G1 X208.01 Y119.511 E11.72105
G1 X207.993 Y119.983 E11.72944
G1 X207.89 Y121.399 E11.75468
G1 X207.758 Y122.31 E11.77104
G1 X207.458 Y123.69 E11.79615
G1 X207.196 Y124.583 E11.81269
G1 X206.691 Y125.936 E11.83836
G1 X206.306 Y126.779 E11.85484
G1 X205.622 Y128.032 E11.88021
G1 X205.119 Y128.815 E11.89675
G1 X204.269 Y129.95 E11.92196
G1 X203.661 Y130.651 E11.93846
G1 X202.651 Y131.661 E11.96385
G1 X201.95 Y132.269 E11.98034
G1 X200.815 Y133.119 E12.00555
G1 X200.03 Y133.623 E12.02213
G1 X198.776 Y134.307 E12.04752
G1 X197.937 Y134.69 E12.06392
G1 X196.588 Y135.194 E12.08951
G1 X195.694 Y135.457 E12.10608
G1 X194.311 Y135.758 E12.13124
G1 X193.399 Y135.89 E12.14762
G1 X191.982 Y135.993 E12.17288
G1 X191.51 Y136.01 E12.18127
G1 X41.49 Y136.01 E14.84802
G1 X41.018 Y135.993 E14.85642
G1 X39.601 Y135.89 E14.88167
G1 X38.689 Y135.758 E14.89805
G1 X37.306 Y135.457 E14.92321
G1 X36.412 Y135.194 E14.93978
G1 X35.063 Y134.69 E14.96538
G1 X34.224 Y134.307 E14.98177
G1 X32.97 Y133.623 E15.00716
G1 X32.185 Y133.119 E15.02375
G1 X31.05 Y132.269 E15.04895
G1 X30.349 Y131.661 E15.06545
G1 X29.339 Y130.651 E15.09084
G1 X28.731 Y129.95 E15.10733
G1 X27.881 Y128.815 E15.13254
G1 X27.378 Y128.032 E15.14908
G1 X26.694 Y126.779 E15.17446
G1 X26.309 Y125.936 E15.19093
G1 X25.804 Y124.583 E15.2166
G1 X25.542 Y123.69 E15.23315
G1 X25.242 Y122.31 E15.25825
G1 X25.11 Y121.4 E15.2746
G1 X25.007 Y119.985 E15.29982
G1 X24.99 Y119.512 E15.30823
G1 X24.99 Y95.489 E15.73526
G1 X25.007 Y95.017 E15.74366
G1 X25.11 Y93.601 E15.76889
G1 X25.242 Y92.69 E15.78526
G1 X25.542 Y91.31 E15.81036
G1 X25.804 Y90.417 E15.8269
G1 X26.309 Y89.064 E15.85258
G1 X26.694 Y88.221 E15.86905
G1 X27.378 Y86.968 E15.89443
G1 X27.881 Y86.185 E15.91097
G1 X28.731 Y85.05 E15.93618
G1 X29.339 Y84.349 E15.95267
G1 X30.349 Y83.339 E15.97806
G1 X31.05 Y82.731 E15.99456
G1 X32.185 Y81.881 E16.01976
G1 X32.968 Y81.378 E16.0363
G1 X34.221 Y80.694 E16.06168
G1 X35.063 Y80.309 E16.07814
G1 X36.413 Y79.805 E16.10375
M204 S625
M205 X6 Y6
G0 F3750 X36.56 Y80.199
M204 S500
M205 X5 Y5
G1 F1200 X37.395 Y79.953 E16.11923
G1 X38.778 Y79.652 E16.14439
G1 X39.631 Y79.529 E16.15971
G1 X41.048 Y79.426 E16.18496
G1 X41.49 Y79.41 E16.19282
G1 X191.51 Y79.41 E18.85958
G1 X191.952 Y79.426 E18.86744
G1 X193.369 Y79.529 E18.89269
G1 X194.222 Y79.652 E18.90801
G1 X195.605 Y79.953 E18.93317
G1 X196.44 Y80.199 E18.94865
G1 X197.79 Y80.703 E18.97426
G1 X198.578 Y81.063 E18.98966
G1 X199.831 Y81.747 E19.01504
G1 X200.564 Y82.217 E19.03052
G1 X201.699 Y83.067 E19.05572
G1 X202.354 Y83.636 E19.07115
G1 X203.364 Y84.646 E19.09654
G1 X203.933 Y85.301 E19.11196
G1 X204.783 Y86.436 E19.13717
G1 X205.253 Y87.169 E19.15264
G1 X205.937 Y88.422 E19.17802
G1 X206.297 Y89.21 E19.19342
G1 X206.801 Y90.56 E19.21903
G1 X207.047 Y91.395 E19.23451
G1 X207.348 Y92.778 E19.25967
G1 X207.471 Y93.631 E19.27499
G1 X207.574 Y95.046 E19.30021
G1 X207.59 Y95.488 E19.30807
G1 X207.59 Y119.511 E19.7351
G1 X207.574 Y119.953 E19.74296
G1 X207.471 Y121.369 E19.7682
G1 X207.348 Y122.221 E19.7835
G1 X207.048 Y123.601 E19.80861
G1 X206.803 Y124.437 E19.82409
G1 X206.298 Y125.79 E19.84976
G1 X205.937 Y126.578 E19.86517
G1 X205.253 Y127.831 E19.89055
G1 X204.783 Y128.564 E19.90603
G1 X203.933 Y129.699 E19.93123
G1 X203.364 Y130.354 E19.94666
G1 X202.354 Y131.364 E19.97205
G1 X201.699 Y131.933 E19.98747
G1 X200.564 Y132.783 E20.01268
G1 X199.829 Y133.254 E20.02819
G1 X198.575 Y133.938 E20.05358
G1 X197.79 Y134.297 E20.06893
G1 X196.441 Y134.801 E20.09453
G1 X195.605 Y135.047 E20.11002
G1 X194.222 Y135.348 E20.13518
G1 X193.369 Y135.471 E20.1505
G1 X191.952 Y135.574 E20.17575
G1 X191.51 Y135.59 E20.18361
G1 X41.49 Y135.59 E22.85037
G1 X41.048 Y135.574 E22.85823
G1 X39.631 Y135.471 E22.88348
G1 X38.778 Y135.348 E22.8988
G1 X37.395 Y135.047 E22.92396
G1 X36.559 Y134.801 E22.93945
G1 X35.21 Y134.297 E22.96505
G1 X34.425 Y133.938 E22.9804
G1 X33.171 Y133.254 E23.00579
G1 X32.436 Y132.783 E23.02131
G1 X31.301 Y131.933 E23.04651
G1 X30.646 Y131.364 E23.06194
G1 X29.636 Y130.354 E23.08733
G1 X29.067 Y129.699 E23.10275
G1 X28.217 Y128.564 E23.12796
G1 X27.747 Y127.831 E23.14343
G1 X27.063 Y126.578 E23.16881
G1 X26.702 Y125.79 E23.18422
G1 X26.197 Y124.437 E23.20989
G1 X25.952 Y123.601 E23.22537
G1 X25.652 Y122.221 E23.25048
G1 X25.529 Y121.369 E23.26578
G1 X25.426 Y119.954 E23.291
G1 X25.41 Y119.512 E23.29886
G1 X25.41 Y95.489 E23.72589
G1 X25.426 Y95.047 E23.73376
G1 X25.529 Y93.631 E23.75899
G1 X25.652 Y92.779 E23.7743
G1 X25.952 Y91.399 E23.7994
G1 X26.197 Y90.563 E23.81488
G1 X26.702 Y89.21 E23.84056
G1 X27.063 Y88.422 E23.85596
G1 X27.747 Y87.169 E23.88134
G1 X28.217 Y86.436 E23.89682
G1 X29.067 Y85.301 E23.92202
G1 X29.636 Y84.646 E23.93745
G1 X30.646 Y83.636 E23.96284
G1 X31.301 Y83.067 E23.97826
G1 X32.436 Y82.217 E24.00347
G1 X33.169 Y81.747 E24.01895
G1 X34.422 Y81.063 E24.04432
G1 X35.21 Y80.703 E24.05972
G1 X36.56 Y80.199 E24.08534
M204 S625
M205 X6 Y6
G0 F3750 X36.707 Y80.592
M204 S500
M205 X5 Y5
G1 F1200 X37.484 Y80.364 E24.09973
G1 X38.867 Y80.063 E24.12489
G1 X39.662 Y79.948 E24.13917
G1 X41.079 Y79.845 E24.16442
G1 X41.49 Y79.83 E24.17174
G1 X191.51 Y79.83 E26.83849
G1 X191.921 Y79.845 E26.8458
G1 X193.338 Y79.948 E26.87105
G1 X194.133 Y80.063 E26.88533
G1 X195.516 Y80.364 E26.91049
G1 X196.293 Y80.592 E26.92489
G1 X197.643 Y81.096 E26.9505
G1 X198.377 Y81.431 E26.96484
G1 X199.63 Y82.115 E26.99022
G1 X200.312 Y82.554 E27.00464
G1 X201.447 Y83.404 E27.02984
G1 X202.057 Y83.933 E27.0442
G1 X203.067 Y84.943 E27.06959
G1 X203.596 Y85.553 E27.08394
G1 X204.446 Y86.688 E27.10915
G1 X204.885 Y87.37 E27.12356
G1 X205.569 Y88.623 E27.14894
G1 X205.904 Y89.357 E27.16328
G1 X206.408 Y90.707 E27.1889
G1 X206.636 Y91.484 E27.20329
G1 X206.937 Y92.867 E27.22845
G1 X207.052 Y93.661 E27.24271
G1 X207.155 Y95.076 E27.26793
G1 X207.17 Y95.488 E27.27526
G1 X207.17 Y119.511 E27.70229
G1 X207.155 Y119.922 E27.7096
G1 X207.052 Y121.338 E27.73484
G1 X206.938 Y122.131 E27.74908
G1 X206.638 Y123.511 E27.77419
G1 X206.409 Y124.29 E27.78862
G1 X205.904 Y125.643 E27.81429
G1 X205.569 Y126.377 E27.82863
G1 X204.885 Y127.63 E27.85401
G1 X204.446 Y128.312 E27.86843
G1 X203.596 Y129.447 E27.89363
G1 X203.067 Y130.057 E27.90799
G1 X202.057 Y131.067 E27.93338
G1 X201.447 Y131.596 E27.94773
G1 X200.312 Y132.446 E27.97294
G1 X199.628 Y132.886 E27.98739
G1 X198.374 Y133.57 E28.01278
G1 X197.643 Y133.903 E28.02706
G1 X196.294 Y134.407 E28.05266
G1 X195.516 Y134.636 E28.06708
G1 X194.133 Y134.937 E28.09224
G1 X193.338 Y135.052 E28.10652
G1 X191.921 Y135.155 E28.13177
G1 X191.51 Y135.17 E28.13908
G1 X41.49 Y135.17 E30.80584
G1 X41.079 Y135.155 E30.81315
G1 X39.662 Y135.052 E30.8384
G1 X38.867 Y134.937 E30.85268
G1 X37.484 Y134.636 E30.87784
G1 X36.706 Y134.407 E30.89226
G1 X35.357 Y133.903 E30.91785
G1 X34.626 Y133.57 E30.93213
G1 X33.372 Y132.886 E30.95753
G1 X32.688 Y132.446 E30.97198
G1 X31.553 Y131.596 E30.99719
G1 X30.943 Y131.067 E31.01154
G1 X29.933 Y130.057 E31.03693
G1 X29.404 Y129.447 E31.05128
G1 X28.554 Y128.312 E31.07649
G1 X28.115 Y127.63 E31.09091
G1 X27.431 Y126.377 E31.11628
G1 X27.096 Y125.643 E31.13063
G1 X26.591 Y124.29 E31.1563
G1 X26.362 Y123.511 E31.17073
G1 X26.062 Y122.131 E31.19584
G1 X25.948 Y121.339 E31.21006
G1 X25.845 Y119.924 E31.23528
G1 X25.83 Y119.512 E31.24261
G1 X25.83 Y95.489 E31.66964
G1 X25.845 Y95.078 E31.67695
G1 X25.948 Y93.662 E31.70219
G1 X26.062 Y92.869 E31.71643
G1 X26.362 Y91.489 E31.74153
G1 X26.591 Y90.71 E31.75597
G1 X27.096 Y89.357 E31.78164
G1 X27.431 Y88.623 E31.79598
G1 X28.115 Y87.37 E31.82136
G1 X28.554 Y86.688 E31.83577
G1 X29.404 Y85.553 E31.86098
G1 X29.933 Y84.943 E31.87533
G1 X30.943 Y83.933 E31.90072
G1 X31.553 Y83.404 E31.91508
G1 X32.688 Y82.554 E31.94028
G1 X33.37 Y82.115 E31.9547
G1 X34.623 Y81.431 E31.98008
G1 X35.357 Y81.096 E31.99442
G1 X36.707 Y80.592 E32.02003
M204 S625
M205 X6 Y6
G0 F3750 X36.854 Y80.986
M204 S500
M205 X5 Y5
G1 F1200 X37.574 Y80.774 E32.03338
G1 X38.957 Y80.473 E32.05854
G1 X39.692 Y80.367 E32.07174
G1 X41.109 Y80.264 E32.09699
G1 X41.49 Y80.25 E32.10377
G1 X191.51 Y80.25 E34.77052
G1 X191.891 Y80.264 E34.7773
G1 X193.308 Y80.367 E34.80255
G1 X194.043 Y80.473 E34.81575
G1 X195.426 Y80.774 E34.84091
G1 X196.146 Y80.986 E34.85425
G1 X197.496 Y81.49 E34.87987
G1 X198.176 Y81.8 E34.89315
G1 X199.429 Y82.484 E34.91853
G1 X200.06 Y82.89 E34.93187
G1 X201.195 Y83.74 E34.95707
G1 X201.76 Y84.23 E34.97037
G1 X202.77 Y85.24 E34.99576
G1 X203.26 Y85.805 E35.00905
G1 X204.11 Y86.94 E35.03426
G1 X204.516 Y87.571 E35.0476
G1 X205.2 Y88.824 E35.07297
G1 X205.51 Y89.504 E35.08626
G1 X206.014 Y90.854 E35.11187
G1 X206.226 Y91.574 E35.12522
G1 X206.527 Y92.957 E35.15038
G1 X206.633 Y93.692 E35.16358
G1 X206.736 Y95.107 E35.1888
G1 X206.75 Y95.488 E35.19557
G1 X206.75 Y119.511 E35.6226
G1 X206.736 Y119.892 E35.62938
G1 X206.633 Y121.308 E35.65462
G1 X206.527 Y122.042 E35.6678
G1 X206.227 Y123.422 E35.69291
G1 X206.016 Y124.143 E35.70626
G1 X205.511 Y125.496 E35.73193
G1 X205.2 Y126.176 E35.74522
G1 X204.516 Y127.429 E35.7706
G1 X204.11 Y128.06 E35.78394
G1 X203.26 Y129.195 E35.80914
G1 X202.77 Y129.76 E35.82244
G1 X201.76 Y130.77 E35.84783
G1 X201.195 Y131.26 E35.86112
G1 X200.06 Y132.11 E35.88633
G1 X199.427 Y132.517 E35.89971
G1 X198.173 Y133.201 E35.9251
G1 X197.496 Y133.51 E35.93833
G1 X196.147 Y134.014 E35.96393
G1 X195.426 Y134.226 E35.97728
G1 X194.043 Y134.527 E36.00244
G1 X193.308 Y134.633 E36.01564
G1 X191.891 Y134.736 E36.0409
G1 X191.51 Y134.75 E36.04768
G1 X41.49 Y134.75 E38.71443
G1 X41.109 Y134.736 E38.72121
G1 X39.692 Y134.633 E38.74646
G1 X38.957 Y134.527 E38.75966
G1 X37.574 Y134.226 E38.78482
G1 X36.853 Y134.014 E38.79818
G1 X35.504 Y133.51 E38.82378
G1 X34.827 Y133.201 E38.83701
G1 X33.573 Y132.517 E38.8624
G1 X32.94 Y132.11 E38.87578
G1 X31.805 Y131.26 E38.90098
G1 X31.24 Y130.77 E38.91428
G1 X30.23 Y129.76 E38.93967
G1 X29.74 Y129.195 E38.95296
G1 X28.89 Y128.06 E38.97817
G1 X28.484 Y127.429 E38.99151
G1 X27.8 Y126.176 E39.01688
G1 X27.489 Y125.496 E39.03017
G1 X26.984 Y124.143 E39.05585
G1 X26.773 Y123.422 E39.0692
G1 X26.473 Y122.042 E39.0943
G1 X26.367 Y121.308 E39.10749
G1 X26.264 Y119.893 E39.13271
G1 X26.25 Y119.512 E39.13948
G1 X26.25 Y95.489 E39.56651
G1 X26.264 Y95.108 E39.57329
G1 X26.367 Y93.692 E39.59853
G1 X26.473 Y92.958 E39.61171
G1 X26.773 Y91.578 E39.63682
G1 X26.984 Y90.857 E39.65017
G1 X27.489 Y89.504 E39.67584
G1 X27.8 Y88.824 E39.68913
G1 X28.484 Y87.571 E39.71451
G1 X28.89 Y86.94 E39.72785
G1 X29.74 Y85.805 E39.75305
G1 X30.23 Y85.24 E39.76635
G1 X31.24 Y84.23 E39.79174
G1 X31.805 Y83.74 E39.80503
G1 X32.94 Y82.89 E39.83024
G1 X33.571 Y82.484 E39.84358
G1 X34.824 Y81.8 E39.86895
G1 X35.504 Y81.49 E39.88224
G1 X36.854 Y80.986 E39.90785
M204 S625
M205 X6 Y6
G0 F3750 X37.001 Y81.379
M204 S500
M205 X5 Y5
G1 F1200 X37.663 Y81.184 E39.92012
G1 X39.046 Y80.883 E39.94528
G1 X39.723 Y80.786 E39.95744
G1 X41.14 Y80.683 E39.98269
G1 X41.49 Y80.67 E39.98892
G1 X191.51 Y80.67 E42.65567
G1 X191.86 Y80.683 E42.6619
G1 X193.277 Y80.786 E42.68715
G1 X193.954 Y80.883 E42.69931
G1 X195.337 Y81.184 E42.72447
G1 X195.999 Y81.379 E42.73674
G1 X197.349 Y81.883 E42.76235
G1 X197.974 Y82.169 E42.77457
G1 X199.227 Y82.853 E42.79994
G1 X199.808 Y83.226 E42.81222
G1 X200.943 Y84.076 E42.83742
G1 X201.463 Y84.527 E42.84966
G1 X202.473 Y85.537 E42.87505
G1 X202.924 Y86.057 E42.88729
G1 X203.774 Y87.192 E42.91249
G1 X204.147 Y87.773 E42.92477
G1 X204.831 Y89.026 E42.95014
G1 X205.117 Y89.651 E42.96236
G1 X205.621 Y91.001 E42.98797
G1 X205.816 Y91.663 E43.00024
G1 X206.117 Y93.046 E43.0254
G1 X206.214 Y93.722 E43.03754
G1 X206.317 Y95.137 E43.06276
G1 X206.33 Y95.488 E43.069
G1 X206.33 Y119.511 E43.49604
G1 X206.317 Y119.861 E43.50226
G1 X206.214 Y121.277 E43.5275
G1 X206.117 Y121.953 E43.53964
G1 X205.817 Y123.333 E43.56474
G1 X205.622 Y123.996 E43.57703
G1 X205.117 Y125.349 E43.6027
G1 X204.831 Y125.974 E43.61492
G1 X204.147 Y127.227 E43.64029
G1 X203.774 Y127.808 E43.65257
G1 X202.924 Y128.943 E43.67777
G1 X202.473 Y129.463 E43.69001
G1 X201.463 Y130.473 E43.7154
G1 X200.943 Y130.924 E43.72763
G1 X199.808 Y131.774 E43.75284
G1 X199.226 Y132.148 E43.76514
G1 X197.972 Y132.832 E43.79053
G1 X197.349 Y133.117 E43.80271
G1 X196 Y133.621 E43.82831
G1 X195.337 Y133.816 E43.84059
G1 X193.954 Y134.117 E43.86575
G1 X193.277 Y134.214 E43.87791
G1 X191.86 Y134.317 E43.90316
G1 X191.51 Y134.33 E43.90939
G1 X41.49 Y134.33 E46.57614
G1 X41.14 Y134.317 E46.58237
G1 X39.723 Y134.214 E46.60762
G1 X39.046 Y134.117 E46.61978
G1 X37.663 Y133.816 E46.64494
G1 X37 Y133.621 E46.65722
G1 X35.651 Y133.117 E46.68282
G1 X35.028 Y132.832 E46.695
G1 X33.774 Y132.148 E46.72039
G1 X33.192 Y131.774 E46.73269
G1 X32.057 Y130.924 E46.7579
G1 X31.537 Y130.473 E46.77013
G1 X30.527 Y129.463 E46.79552
G1 X30.076 Y128.943 E46.80776
G1 X29.226 Y127.808 E46.83296
G1 X28.853 Y127.227 E46.84524
G1 X28.169 Y125.974 E46.87061
G1 X27.883 Y125.349 E46.88283
G1 X27.378 Y123.996 E46.9085
G1 X27.183 Y123.333 E46.92079
G1 X26.883 Y121.953 E46.94589
G1 X26.786 Y121.278 E46.95801
G1 X26.683 Y119.863 E46.98323
G1 X26.67 Y119.512 E46.98948
G1 X26.67 Y95.489 E47.41651
G1 X26.683 Y95.139 E47.42274
G1 X26.786 Y93.723 E47.44797
G1 X26.883 Y93.047 E47.46011
G1 X27.183 Y91.667 E47.48522
G1 X27.378 Y91.004 E47.4975
G1 X27.883 Y89.651 E47.52317
G1 X28.169 Y89.026 E47.53539
G1 X28.853 Y87.773 E47.56077
G1 X29.226 Y87.192 E47.57304
G1 X30.076 Y86.057 E47.59825
G1 X30.527 Y85.537 E47.61048
G1 X31.537 Y84.527 E47.63587
G1 X32.057 Y84.076 E47.64811
G1 X33.192 Y83.226 E47.67331
G1 X33.773 Y82.853 E47.68559
G1 X35.026 Y82.169 E47.71096
G1 X35.651 Y81.883 E47.72318
G1 X37.001 Y81.379 E47.7488
M204 S625
M205 X6 Y6
G0 F3750 X37.148 Y81.773
M204 S500
M205 X5 Y5
G1 F1200 X37.752 Y81.595 E47.75999
G1 X39.135 Y81.294 E47.78515
G1 X39.753 Y81.205 E47.79625
G1 X41.17 Y81.102 E47.8215
G1 X41.49 Y81.09 E47.82719
G1 X191.51 Y81.09 E50.49395
G1 X191.83 Y81.102 E50.49964
G1 X193.247 Y81.205 E50.52489
G1 X193.865 Y81.294 E50.53599
G1 X195.248 Y81.595 E50.56115
G1 X195.852 Y81.773 E50.57235
G1 X197.202 Y82.277 E50.59796
G1 X197.773 Y82.537 E50.60911
G1 X199.026 Y83.221 E50.63449
G1 X199.557 Y83.562 E50.64571
G1 X200.692 Y84.412 E50.67091
G1 X201.166 Y84.824 E50.68208
G1 X202.176 Y85.834 E50.70747
G1 X202.588 Y86.308 E50.71863
G1 X203.438 Y87.443 E50.74384
G1 X203.779 Y87.974 E50.75506
G1 X204.463 Y89.227 E50.78043
G1 X204.723 Y89.798 E50.79159
G1 X205.227 Y91.148 E50.8172
G1 X205.405 Y91.752 E50.82839
G1 X205.706 Y93.135 E50.85355
G1 X205.795 Y93.753 E50.86465
G1 X205.898 Y95.168 E50.88987
G1 X205.91 Y95.488 E50.89556
G1 X205.91 Y119.511 E51.3226
G1 X205.898 Y119.831 E51.32829
G1 X205.795 Y121.247 E51.35353
G1 X205.706 Y121.864 E51.36461
G1 X205.406 Y123.244 E51.38971
G1 X205.229 Y123.849 E51.40092
G1 X204.724 Y125.202 E51.42659
G1 X204.463 Y125.773 E51.43775
G1 X203.779 Y127.026 E51.46312
G1 X203.438 Y127.557 E51.47434
G1 X202.588 Y128.692 E51.49955
G1 X202.176 Y129.166 E51.51071
G1 X201.166 Y130.176 E51.5361
G1 X200.692 Y130.588 E51.54727
G1 X199.557 Y131.438 E51.57247
G1 X199.025 Y131.78 E51.58371
G1 X197.771 Y132.464 E51.60911
G1 X197.202 Y132.723 E51.62022
G1 X195.853 Y133.227 E51.64582
G1 X195.248 Y133.405 E51.65703
G1 X193.865 Y133.706 E51.68219
G1 X193.247 Y133.795 E51.69329
G1 X191.83 Y133.898 E51.71854
G1 X191.51 Y133.91 E51.72423
G1 X41.49 Y133.91 E54.39099
G1 X41.17 Y133.898 E54.39668
G1 X39.753 Y133.795 E54.42193
G1 X39.135 Y133.706 E54.43303
G1 X37.752 Y133.405 E54.45819
G1 X37.147 Y133.227 E54.4694
G1 X35.798 Y132.723 E54.495
G1 X35.229 Y132.464 E54.50611
G1 X33.975 Y131.78 E54.53151
G1 X33.443 Y131.438 E54.54275
G1 X32.308 Y130.588 E54.56795
G1 X31.834 Y130.176 E54.57912
G1 X30.824 Y129.166 E54.60451
G1 X30.412 Y128.692 E54.61567
G1 X29.562 Y127.557 E54.64088
G1 X29.221 Y127.026 E54.6521
G1 X28.537 Y125.773 E54.67747
G1 X28.276 Y125.202 E54.68863
G1 X27.771 Y123.849 E54.7143
G1 X27.594 Y123.244 E54.72551
G1 X27.294 Y121.864 E54.75061
G1 X27.205 Y121.247 E54.76169
G1 X27.102 Y119.832 E54.78691
G1 X27.09 Y119.512 E54.79261
G1 X27.09 Y95.489 E55.21964
G1 X27.102 Y95.169 E55.22533
G1 X27.205 Y93.753 E55.25057
G1 X27.294 Y93.136 E55.26165
G1 X27.594 Y91.756 E55.28675
G1 X27.771 Y91.151 E55.29796
G1 X28.276 Y89.798 E55.32363
G1 X28.537 Y89.227 E55.33479
G1 X29.221 Y87.974 E55.36017
G1 X29.562 Y87.443 E55.37138
G1 X30.412 Y86.308 E55.39659
G1 X30.824 Y85.834 E55.40775
G1 X31.834 Y84.824 E55.43314
G1 X32.308 Y84.412 E55.44431
G1 X33.443 Y83.562 E55.46951
G1 X33.974 Y83.221 E55.48073
G1 X35.227 Y82.537 E55.50611
G1 X35.798 Y82.277 E55.51726
G1 X37.148 Y81.773 E55.54288
M204 S625
M205 X6 Y6
G0 F3750 X37.294 Y82.166
M204 S500
M205 X5 Y5
G1 F1200 X37.841 Y82.005 E55.55301
G1 X39.224 Y81.704 E55.57817
G1 X39.784 Y81.623 E55.58823
G1 X41.201 Y81.52 E55.61349
G1 X41.49 Y81.51 E55.61863
G1 X191.51 Y81.51 E58.28538
G1 X191.799 Y81.52 E58.29052
G1 X193.216 Y81.623 E58.31577
G1 X193.776 Y81.704 E58.32583
G1 X195.159 Y82.005 E58.35099
G1 X195.706 Y82.166 E58.36113
G1 X197.056 Y82.67 E58.38674
G1 X197.572 Y82.906 E58.39683
G1 X198.825 Y83.59 E58.4222
G1 X199.305 Y83.898 E58.43234
G1 X200.44 Y84.748 E58.45755
G1 X200.869 Y85.121 E58.46765
G1 X201.879 Y86.131 E58.49304
G1 X202.252 Y86.56 E58.50315
G1 X203.102 Y87.695 E58.52836
G1 X203.41 Y88.175 E58.53849
G1 X204.094 Y89.428 E58.56387
G1 X204.33 Y89.944 E58.57396
G1 X204.834 Y91.294 E58.59957
G1 X204.995 Y91.841 E58.60971
G1 X205.296 Y93.224 E58.63487
G1 X205.376 Y93.783 E58.64491
G1 X205.479 Y95.198 E58.67012
G1 X205.49 Y95.488 E58.67528
G1 X205.49 Y119.511 E59.10232
G1 X205.479 Y119.8 E59.10746
G1 X205.376 Y121.216 E59.13269
G1 X205.296 Y121.775 E59.14273
G1 X204.996 Y123.155 E59.16784
G1 X204.835 Y123.702 E59.17797
G1 X204.33 Y125.055 E59.20364
G1 X204.094 Y125.572 E59.21375
G1 X203.41 Y126.825 E59.23912
G1 X203.102 Y127.305 E59.24926
G1 X202.252 Y128.44 E59.27447
G1 X201.879 Y128.869 E59.28457
G1 X200.869 Y129.879 E59.30996
G1 X200.44 Y130.252 E59.32007
G1 X199.305 Y131.102 E59.34527
G1 X198.824 Y131.411 E59.35544
G1 X197.57 Y132.095 E59.38083
G1 X197.055 Y132.33 E59.39089
G1 X195.706 Y132.834 E59.41649
G1 X195.159 Y132.995 E59.42662
G1 X193.776 Y133.296 E59.45178
G1 X193.216 Y133.377 E59.46184
G1 X191.799 Y133.48 E59.4871
G1 X191.51 Y133.49 E59.49224
G1 X41.49 Y133.49 E62.15899
G1 X41.201 Y133.48 E62.16413
G1 X39.784 Y133.377 E62.18938
G1 X39.224 Y133.296 E62.19944
G1 X37.841 Y132.995 E62.2246
G1 X37.294 Y132.834 E62.23474
G1 X35.945 Y132.33 E62.26034
G1 X35.43 Y132.095 E62.2704
G1 X34.176 Y131.411 E62.29579
G1 X33.695 Y131.102 E62.30595
G1 X32.56 Y130.252 E62.33116
G1 X32.131 Y129.879 E62.34127
G1 X31.121 Y128.869 E62.36666
G1 X30.748 Y128.44 E62.37676
G1 X29.898 Y127.305 E62.40197
G1 X29.59 Y126.825 E62.41211
G1 X28.906 Y125.572 E62.43748
G1 X28.67 Y125.055 E62.44758
G1 X28.165 Y123.702 E62.47326
G1 X28.004 Y123.155 E62.48339
G1 X27.704 Y121.775 E62.5085
G1 X27.624 Y121.217 E62.51852
G1 X27.521 Y119.802 E62.54374
G1 X27.51 Y119.512 E62.54889
G1 X27.51 Y95.489 E62.97593
G1 X27.521 Y95.2 E62.98107
G1 X27.624 Y93.784 E63.0063
G1 X27.704 Y93.225 E63.01634
G1 X28.004 Y91.845 E63.04145
G1 X28.165 Y91.298 E63.05158
G1 X28.67 Y89.945 E63.07725
G1 X28.906 Y89.428 E63.08736
G1 X29.59 Y88.175 E63.11273
G1 X29.898 Y87.695 E63.12287
G1 X30.748 Y86.56 E63.14808
G1 X31.121 Y86.131 E63.15818
G1 X32.131 Y85.121 E63.18357
G1 X32.56 Y84.748 E63.19368
G1 X33.695 Y83.898 E63.21888
G1 X34.175 Y83.59 E63.22902
G1 X35.428 Y82.906 E63.2544
G1 X35.944 Y82.67 E63.26448
G1 X37.294 Y82.166 E63.2901
M204 S625
M205 X6 Y6
G0 F3750 X37.441 Y82.559
M204 S500
M205 X5 Y5
G1 F1200 X37.931 Y82.416 E63.29917
G1 X39.314 Y82.115 E63.32433
G1 X39.814 Y82.042 E63.33331
G1 X41.231 Y81.939 E63.35857
G1 X41.49 Y81.93 E63.36318
G1 X191.51 Y81.93 E66.02993
G1 X191.769 Y81.939 E66.03454
G1 X193.186 Y82.042 E66.05979
G1 X193.686 Y82.115 E66.06877
G1 X195.069 Y82.416 E66.09393
G1 X195.559 Y82.559 E66.10301
G1 X196.909 Y83.063 E66.12862
G1 X197.371 Y83.274 E66.13765
G1 X198.624 Y83.958 E66.16303
G1 X199.053 Y84.234 E66.17209
G1 X200.188 Y85.084 E66.1973
G1 X200.572 Y85.418 E66.20635
G1 X201.582 Y86.428 E66.23174
G1 X201.916 Y86.812 E66.24078
G1 X202.766 Y87.947 E66.26599
G1 X203.042 Y88.376 E66.27506
G1 X203.726 Y89.629 E66.30043
G1 X203.937 Y90.091 E66.30946
G1 X204.441 Y91.441 E66.33508
G1 X204.584 Y91.931 E66.34415
G1 X204.885 Y93.314 E66.36931
G1 X204.958 Y93.814 E66.37829
G1 X205.061 Y95.229 E66.40351
G1 X205.07 Y95.488 E66.40812
G1 X205.07 Y119.511 E66.83515
G1 X205.061 Y119.77 E66.83976
G1 X204.958 Y121.186 E66.865
G1 X204.886 Y121.685 E66.87396
G1 X204.586 Y123.065 E66.89906
G1 X204.442 Y123.555 E66.90814
G1 X203.937 Y124.908 E66.93381
G1 X203.726 Y125.371 E66.94286
G1 X203.042 Y126.624 E66.96823
G1 X202.766 Y127.053 E66.9773
G1 X201.916 Y128.188 E67.00251
G1 X201.582 Y128.572 E67.01155
G1 X200.572 Y129.582 E67.03694
G1 X200.188 Y129.916 E67.04599
G1 X199.053 Y130.766 E67.0712
G1 X198.623 Y131.042 E67.08028
G1 X197.369 Y131.726 E67.10567
G1 X196.908 Y131.936 E67.11468
G1 X195.559 Y132.44 E67.14027
G1 X195.069 Y132.584 E67.14935
G1 X193.686 Y132.885 E67.17451
G1 X193.186 Y132.958 E67.18349
G1 X191.769 Y133.061 E67.20875
G1 X191.51 Y133.07 E67.21336
G1 X41.49 Y133.07 E69.88011
G1 X41.231 Y133.061 E69.88472
G1 X39.814 Y132.958 E69.90997
G1 X39.314 Y132.885 E69.91895
G1 X37.931 Y132.584 E69.94411
G1 X37.441 Y132.44 E69.95319
G1 X36.092 Y131.936 E69.97879
G1 X35.631 Y131.726 E69.98779
G1 X34.377 Y131.042 E70.01319
G1 X33.947 Y130.766 E70.02227
G1 X32.812 Y129.916 E70.04747
G1 X32.428 Y129.582 E70.05652
G1 X31.418 Y128.572 E70.08191
G1 X31.084 Y128.188 E70.09096
G1 X30.234 Y127.053 E70.11617
G1 X29.958 Y126.624 E70.12523
G1 X29.274 Y125.371 E70.15061
G1 X29.063 Y124.908 E70.15965
G1 X28.558 Y123.555 E70.18533
G1 X28.414 Y123.065 E70.1944
G1 X28.114 Y121.685 E70.21951
G1 X28.042 Y121.186 E70.22847
G1 X27.939 Y119.771 E70.25369
G1 X27.93 Y119.512 E70.2583
G1 X27.93 Y95.489 E70.68533
G1 X27.939 Y95.23 E70.68993
G1 X28.042 Y93.814 E70.71517
G1 X28.114 Y93.315 E70.72413
G1 X28.414 Y91.935 E70.74924
G1 X28.558 Y91.445 E70.75832
G1 X29.063 Y90.092 E70.78399
G1 X29.274 Y89.629 E70.79303
G1 X29.958 Y88.376 E70.81841
G1 X30.234 Y87.947 E70.82748
G1 X31.084 Y86.812 E70.85268
G1 X31.418 Y86.428 E70.86173
G1 X32.428 Y85.418 E70.88712
G1 X32.812 Y85.084 E70.89617
G1 X33.947 Y84.234 E70.92137
G1 X34.376 Y83.958 E70.93044
G1 X35.629 Y83.274 E70.95582
G1 X36.091 Y83.063 E70.96485
G1 X37.441 Y82.559 E70.99046
M204 S625
M205 X6 Y6
G0 F3750 X37.588 Y82.953
M204 S500
M205 X5 Y5
G1 F1200 X38.02 Y82.826 E70.99846
G1 X39.403 Y82.525 E71.02362
G1 X39.845 Y82.461 E71.03156
G1 X41.262 Y82.358 E71.05682
G1 X41.49 Y82.35 E71.06087
G1 X191.51 Y82.35 E73.72763
G1 X191.738 Y82.358 E73.73168
G1 X193.155 Y82.461 E73.75694
G1 X193.597 Y82.525 E73.76488
G1 X194.98 Y82.826 E73.79003
G1 X195.412 Y82.953 E73.79804
G1 X196.762 Y83.457 E73.82365
G1 X197.169 Y83.643 E73.83161
G1 X198.422 Y84.327 E73.85698
G1 X198.801 Y84.571 E73.865
G1 X199.936 Y85.421 E73.8902
G1 X200.275 Y85.715 E73.89818
G1 X201.285 Y86.725 E73.92357
G1 X201.579 Y87.064 E73.93155
G1 X202.429 Y88.199 E73.95675
G1 X202.673 Y88.578 E73.96477
G1 X203.357 Y89.831 E73.99014
G1 X203.543 Y90.238 E73.9981
G1 X204.047 Y91.588 E74.02371
G1 X204.174 Y92.02 E74.03172
G1 X204.475 Y93.403 E74.05688
G1 X204.539 Y93.844 E74.0648
G1 X204.642 Y95.259 E74.09002
G1 X204.65 Y95.488 E74.09409
G1 X204.65 Y119.511 E74.52112
G1 X204.642 Y119.74 E74.5252
G1 X204.539 Y121.156 E74.55043
G1 X204.475 Y121.596 E74.55834
G1 X204.175 Y122.976 E74.58344
G1 X204.048 Y123.408 E74.59144
G1 X203.543 Y124.761 E74.61712
G1 X203.357 Y125.169 E74.62509
G1 X202.673 Y126.422 E74.65046
G1 X202.429 Y126.801 E74.65848
G1 X201.579 Y127.936 E74.68368
G1 X201.285 Y128.275 E74.69166
G1 X200.275 Y129.285 E74.71705
G1 X199.936 Y129.579 E74.72502
G1 X198.801 Y130.429 E74.75023
G1 X198.421 Y130.673 E74.75826
G1 X197.167 Y131.357 E74.78365
G1 X196.761 Y131.543 E74.79159
G1 X195.412 Y132.047 E74.81719
G1 X194.98 Y132.174 E74.82519
G1 X193.597 Y132.475 E74.85035
G1 X193.155 Y132.539 E74.85829
G1 X191.738 Y132.642 E74.88355
G1 X191.51 Y132.65 E74.8876
G1 X41.49 Y132.65 E77.55435
G1 X41.262 Y132.642 E77.55841
G1 X39.845 Y132.539 E77.58366
G1 X39.403 Y132.475 E77.5916
G1 X38.02 Y132.174 E77.61676
G1 X37.588 Y132.047 E77.62477
G1 X36.239 Y131.543 E77.65036
G1 X35.833 Y131.357 E77.6583
G1 X34.579 Y130.673 E77.68369
G1 X34.199 Y130.429 E77.69172
G1 X33.064 Y129.579 E77.71693
G1 X32.725 Y129.285 E77.7249
G1 X31.715 Y128.275 E77.7503
G1 X31.421 Y127.936 E77.75827
G1 X30.571 Y126.801 E77.78348
G1 X30.327 Y126.422 E77.79149
G1 X29.643 Y125.169 E77.81687
G1 X29.457 Y124.761 E77.82484
G1 X28.952 Y123.408 E77.85051
G1 X28.825 Y122.976 E77.85851
G1 X28.525 Y121.596 E77.88362
G1 X28.461 Y121.156 E77.89152
G1 X28.358 Y119.741 E77.91674
G1 X28.35 Y119.512 E77.92081
G1 X28.35 Y95.489 E78.34785
G1 X28.358 Y95.26 E78.35192
G1 X28.461 Y93.844 E78.37716
G1 X28.525 Y93.404 E78.38506
G1 X28.825 Y92.024 E78.41016
G1 X28.952 Y91.592 E78.41817
G1 X29.457 Y90.239 E78.44384
G1 X29.643 Y89.831 E78.45181
G1 X30.327 Y88.578 E78.47719
G1 X30.571 Y88.199 E78.4852
G1 X31.421 Y87.064 E78.5104
G1 X31.715 Y86.725 E78.51838
G1 X32.725 Y85.715 E78.54377
G1 X33.064 Y85.421 E78.55175
G1 X34.199 Y84.571 E78.57695
G1 X34.578 Y84.327 E78.58497
G1 X35.831 Y83.643 E78.61034
G1 X36.238 Y83.457 E78.6183
G1 X37.588 Y82.953 E78.64391
M204 S625
M205 X6 Y6
G0 F3750 X37.735 Y83.346
M204 S500
M205 X5 Y5
G1 F1200 X38.109 Y83.236 E78.65084
G1 X39.492 Y82.935 E78.676
G1 X39.875 Y82.88 E78.68288
G1 X41.292 Y82.777 E78.70814
G1 X41.49 Y82.77 E78.71166
G1 X191.51 Y82.77 E81.37841
G1 X191.708 Y82.777 E81.38193
G1 X193.125 Y82.88 E81.40719
G1 X193.508 Y82.935 E81.41406
G1 X194.891 Y83.236 E81.43922
G1 X195.265 Y83.346 E81.44615
G1 X196.615 Y83.85 E81.47177
G1 X196.968 Y84.012 E81.47867
G1 X198.221 Y84.696 E81.50405
G1 X198.549 Y84.907 E81.51098
G1 X199.684 Y85.757 E81.53619
G1 X199.978 Y86.012 E81.54311
G1 X200.988 Y87.022 E81.5685
G1 X201.243 Y87.316 E81.57541
G1 X202.093 Y88.451 E81.60062
G1 X202.304 Y88.779 E81.60755
G1 X202.988 Y90.032 E81.63293
G1 X203.15 Y90.385 E81.63983
G1 X203.654 Y91.735 E81.66545
G1 X203.764 Y92.109 E81.67238
G1 X204.065 Y93.492 E81.69754
G1 X204.12 Y93.875 E81.70442
G1 X204.223 Y95.29 E81.72964
G1 X204.23 Y95.488 E81.73316
G1 X204.23 Y119.511 E82.16019
G1 X204.223 Y119.709 E82.16371
G1 X204.12 Y121.125 E82.18895
G1 X204.065 Y121.507 E82.19581
G1 X203.765 Y122.887 E82.22091
G1 X203.655 Y123.262 E82.22786
G1 X203.15 Y124.615 E82.25353
G1 X202.988 Y124.968 E82.26044
G1 X202.304 Y126.221 E82.28581
G1 X202.093 Y126.549 E82.29275
G1 X201.243 Y127.684 E82.31795
G1 X200.988 Y127.978 E82.32487
G1 X199.978 Y128.988 E82.35026
G1 X199.684 Y129.243 E82.35718
G1 X198.549 Y130.093 E82.38238
G1 X198.22 Y130.305 E82.38934
G1 X196.966 Y130.989 E82.41473
G1 X196.614 Y131.149 E82.42161
G1 X195.265 Y131.653 E82.44721
G1 X194.891 Y131.764 E82.45414
G1 X193.508 Y132.065 E82.4793
G1 X193.125 Y132.12 E82.48618
G1 X191.708 Y132.223 E82.51143
G1 X191.51 Y132.23 E82.51495
G1 X41.49 Y132.23 E85.18171
G1 X41.292 Y132.223 E85.18523
G1 X39.875 Y132.12 E85.21048
G1 X39.492 Y132.065 E85.21736
G1 X38.109 Y131.764 E85.24252
G1 X37.735 Y131.653 E85.24946
G1 X36.386 Y131.149 E85.27505
G1 X36.034 Y130.989 E85.28193
G1 X34.78 Y130.305 E85.30732
G1 X34.451 Y130.093 E85.31428
G1 X33.316 Y129.243 E85.33948
G1 X33.022 Y128.988 E85.3464
G1 X32.012 Y127.978 E85.37179
G1 X31.757 Y127.684 E85.37871
G1 X30.907 Y126.549 E85.40392
G1 X30.696 Y126.221 E85.41085
G1 X30.012 Y124.968 E85.43622
G1 X29.85 Y124.615 E85.44313
G1 X29.345 Y123.262 E85.4688
G1 X29.235 Y122.887 E85.47575
G1 X28.935 Y121.507 E85.50085
G1 X28.88 Y121.125 E85.50771
G1 X28.777 Y119.71 E85.53293
G1 X28.77 Y119.512 E85.53645
G1 X28.77 Y95.489 E85.96348
G1 X28.777 Y95.291 E85.96701
G1 X28.88 Y93.875 E85.99224
G1 X28.935 Y93.493 E85.9991
G1 X29.235 Y92.113 E86.02421
G1 X29.345 Y91.738 E86.03116
G1 X29.85 Y90.385 E86.05683
G1 X30.012 Y90.032 E86.06373
G1 X30.696 Y88.779 E86.08911
G1 X30.907 Y88.451 E86.09604
G1 X31.757 Y87.316 E86.12125
G1 X32.012 Y87.022 E86.12816
G1 X33.022 Y86.012 E86.15355
G1 X33.316 Y85.757 E86.16047
G1 X34.451 Y84.907 E86.18568
G1 X34.779 Y84.696 E86.19261
G1 X36.032 Y84.012 E86.21799
G1 X36.385 Y83.85 E86.22489
G1 X37.735 Y83.346 E86.25051
M204 S625
M205 X6 Y6
G0 F3750 X37.882 Y83.74
M204 S500
M205 X5 Y5
G1 F1200 X38.199 Y83.647 E86.25638
G1 X39.582 Y83.346 E86.28154
G1 X39.906 Y83.299 E86.28736
G1 X41.323 Y83.196 E86.31261
G1 X41.49 Y83.19 E86.31558
G1 X191.51 Y83.19 E88.98234
G1 X191.677 Y83.196 E88.98531
G1 X193.094 Y83.299 E89.01056
G1 X193.418 Y83.346 E89.01638
G1 X194.801 Y83.647 E89.04154
G1 X195.118 Y83.74 E89.04741
G1 X196.468 Y84.244 E89.07303
G1 X196.767 Y84.38 E89.07887
G1 X198.02 Y85.064 E89.10424
G1 X198.298 Y85.243 E89.11012
G1 X199.433 Y86.093 E89.13533
G1 X199.681 Y86.309 E89.14117
G1 X200.691 Y87.319 E89.16656
G1 X200.907 Y87.567 E89.17241
G1 X201.757 Y88.702 E89.19762
G1 X201.936 Y88.98 E89.20349
G1 X202.62 Y90.233 E89.22887
G1 X202.756 Y90.532 E89.23471
G1 X203.26 Y91.882 E89.26032
G1 X203.353 Y92.199 E89.2662
G1 X203.654 Y93.582 E89.29136
G1 X203.701 Y93.905 E89.29716
G1 X203.804 Y95.32 E89.32238
G1 X203.81 Y95.488 E89.32537
G1 X203.81 Y119.511 E89.7524
G1 X203.804 Y119.679 E89.75539
G1 X203.701 Y121.095 E89.78062
G1 X203.654 Y121.418 E89.78643
G1 X203.354 Y122.798 E89.81153
G1 X203.261 Y123.115 E89.8174
G1 X202.756 Y124.468 E89.84307
G1 X202.62 Y124.767 E89.84891
G1 X201.936 Y126.02 E89.87429
G1 X201.757 Y126.298 E89.88017
G1 X200.907 Y127.433 E89.90537
G1 X200.691 Y127.681 E89.91122
G1 X199.681 Y128.691 E89.93661
G1 X199.433 Y128.907 E89.94246
G1 X198.298 Y129.757 E89.96766
G1 X198.019 Y129.936 E89.97355
G1 X196.765 Y130.62 E89.99895
G1 X196.467 Y130.756 E90.00477
G1 X195.118 Y131.26 E90.03037
G1 X194.801 Y131.353 E90.03624
G1 X193.418 Y131.654 E90.0614
G1 X193.094 Y131.701 E90.06722
G1 X191.677 Y131.804 E90.09247
G1 X191.51 Y131.81 E90.09544
G1 X41.49 Y131.81 E92.7622
G1 X41.323 Y131.804 E92.76517
G1 X39.906 Y131.701 E92.79042
G1 X39.582 Y131.654 E92.79624
G1 X38.199 Y131.353 E92.8214
G1 X37.882 Y131.26 E92.82727
G1 X36.533 Y130.756 E92.85287
G1 X36.235 Y130.62 E92.8587
G1 X34.981 Y129.936 E92.88409
G1 X34.702 Y129.757 E92.88998
G1 X33.567 Y128.907 E92.91519
G1 X33.319 Y128.691 E92.92103
G1 X32.309 Y127.681 E92.94642
G1 X32.093 Y127.433 E92.95227
G1 X31.243 Y126.298 E92.97748
G1 X31.064 Y126.02 E92.98335
G1 X30.38 Y124.767 E93.00873
G1 X30.244 Y124.468 E93.01457
G1 X29.739 Y123.115 E93.04024
G1 X29.646 Y122.798 E93.04611
G1 X29.346 Y121.418 E93.07122
G1 X29.299 Y121.095 E93.07702
G1 X29.196 Y119.68 E93.10224
G1 X29.19 Y119.512 E93.10523
G1 X29.19 Y95.489 E93.53226
G1 X29.196 Y95.321 E93.53525
G1 X29.299 Y93.905 E93.56048
G1 X29.346 Y93.582 E93.56629
G1 X29.646 Y92.202 E93.59139
G1 X29.739 Y91.885 E93.59726
G1 X30.244 Y90.532 E93.62293
G1 X30.38 Y90.233 E93.62877
G1 X31.064 Y88.98 E93.65415
G1 X31.243 Y88.702 E93.66003
G1 X32.093 Y87.567 E93.68523
G1 X32.309 Y87.319 E93.69108
G1 X33.319 Y86.309 E93.71647
G1 X33.567 Y86.093 E93.72231
G1 X34.702 Y85.243 E93.74752
G1 X34.98 Y85.064 E93.7534
G1 X36.233 Y84.38 E93.77877
G1 X36.532 Y84.244 E93.78461
G1 X37.882 Y83.74 E93.81023
M204 S625
M205 X6 Y6
G0 F3750 X38.029 Y84.133
M204 S500
M205 X5 Y5
G1 F1200 X38.288 Y84.057 E93.81503
G1 X39.671 Y83.756 E93.84019
G1 X39.936 Y83.718 E93.84495
G1 X41.353 Y83.615 E93.8702
G1 X41.49 Y83.61 E93.87264
G1 X191.51 Y83.61 E96.53939
G1 X191.647 Y83.615 E96.54183
G1 X193.064 Y83.718 E96.56708
G1 X193.329 Y83.756 E96.57184
G1 X194.712 Y84.057 E96.597
G1 X194.971 Y84.133 E96.6018
G1 X196.321 Y84.637 E96.62741
G1 X196.566 Y84.749 E96.6322
G1 X197.819 Y85.433 E96.65758
G1 X198.046 Y85.579 E96.66238
G1 X199.181 Y86.429 E96.68758
G1 X199.384 Y86.606 E96.69237
G1 X200.394 Y87.616 E96.71776
G1 X200.571 Y87.819 E96.72255
G1 X201.421 Y88.954 E96.74775
G1 X201.567 Y89.181 E96.75255
G1 X202.251 Y90.434 E96.77793
G1 X202.363 Y90.679 E96.78272
G1 X202.867 Y92.029 E96.80833
G1 X202.943 Y92.288 E96.81313
G1 X203.244 Y93.671 E96.83829
G1 X203.282 Y93.936 E96.84305
G1 X203.385 Y95.351 E96.86827
G1 X203.39 Y95.488 E96.8707
G1 X203.39 Y119.511 E97.29774
G1 X203.385 Y119.648 E97.30017
G1 X203.282 Y121.064 E97.32541
G1 X203.244 Y121.328 E97.33015
G1 X202.944 Y122.708 E97.35526
G1 X202.868 Y122.968 E97.36007
G1 X202.363 Y124.321 E97.38574
G1 X202.251 Y124.566 E97.39053
G1 X201.567 Y125.819 E97.41591
G1 X201.421 Y126.046 E97.4207
G1 X200.571 Y127.181 E97.44591
G1 X200.394 Y127.384 E97.4507
G1 X199.384 Y128.394 E97.47609
G1 X199.181 Y128.571 E97.48088
G1 X198.046 Y129.421 E97.50608
G1 X197.818 Y129.567 E97.5109
G1 X196.564 Y130.251 E97.53629
G1 X196.32 Y130.362 E97.54105
G1 X194.971 Y130.866 E97.56665
G1 X194.712 Y130.943 E97.57145
G1 X193.329 Y131.244 E97.59661
G1 X193.064 Y131.282 E97.60137
G1 X191.647 Y131.385 E97.62663
G1 X191.51 Y131.39 E97.62906
G1 X41.49 Y131.39 E100.29582
G1 X41.353 Y131.385 E100.29825
G1 X39.936 Y131.282 E100.32351
G1 X39.671 Y131.244 E100.32827
G1 X38.288 Y130.943 E100.35343
G1 X38.029 Y130.866 E100.35823
G1 X36.68 Y130.362 E100.38383
G1 X36.436 Y130.251 E100.38859
G1 X35.182 Y129.567 E100.41399
G1 X34.954 Y129.421 E100.4188
G1 X33.819 Y128.571 E100.444
G1 X33.616 Y128.394 E100.44879
G1 X32.606 Y127.384 E100.47418
G1 X32.429 Y127.181 E100.47897
G1 X31.579 Y126.046 E100.50418
G1 X31.433 Y125.819 E100.50897
G1 X30.749 Y124.566 E100.53435
G1 X30.637 Y124.321 E100.53914
G1 X30.132 Y122.968 E100.56481
G1 X30.056 Y122.708 E100.56962
G1 X29.756 Y121.328 E100.59473
G1 X29.718 Y121.064 E100.59947
G1 X29.615 Y119.649 E100.62469
G1 X29.61 Y119.512 E100.62713
G1 X29.61 Y95.489 E101.05416
G1 X29.615 Y95.352 E101.0566
G1 X29.718 Y93.936 E101.08183
G1 X29.756 Y93.672 E101.08657
G1 X30.056 Y92.292 E101.11168
G1 X30.132 Y92.032 E101.11649
G1 X30.637 Y90.679 E101.14216
G1 X30.749 Y90.434 E101.14695
G1 X31.433 Y89.181 E101.17233
G1 X31.579 Y88.954 E101.17713
G1 X32.429 Y87.819 E101.20233
G1 X32.606 Y87.616 E101.20712
G1 X33.616 Y86.606 E101.23251
G1 X33.819 Y86.429 E101.2373
G1 X34.954 Y85.579 E101.26251
G1 X35.181 Y85.433 E101.2673
G1 X36.434 Y84.749 E101.29268
G1 X36.679 Y84.637 E101.29747
G1 X38.029 Y84.133 E101.32308
M204 S625
M205 X6 Y6
G0 F3750 X38.176 Y84.527
M204 S500
M205 X5 Y5
G1 F1200 X38.377 Y84.468 E101.32681
G1 X39.76 Y84.167 E101.35197
G1 X39.966 Y84.137 E101.35567
G1 X41.383 Y84.034 E101.38092
G1 X41.49 Y84.03 E101.38283
G1 X191.51 Y84.03 E104.04958
G1 X191.617 Y84.034 E104.05148
G1 X193.034 Y84.137 E104.07674
G1 X193.24 Y84.167 E104.08044
G1 X194.623 Y84.468 E104.1056
G1 X194.824 Y84.527 E104.10932
G1 X196.174 Y85.031 E104.13493
G1 X196.364 Y85.118 E104.13865
G1 X197.617 Y85.802 E104.16403
G1 X197.794 Y85.915 E104.16776
G1 X198.929 Y86.765 E104.19296
G1 X199.087 Y86.903 E104.19669
G1 X200.097 Y87.913 E104.22208
G1 X200.235 Y88.071 E104.22581
G1 X201.085 Y89.206 E104.25102
G1 X201.198 Y89.383 E104.25475
G1 X201.882 Y90.636 E104.28013
G1 X201.969 Y90.826 E104.28384
G1 X202.473 Y92.176 E104.30946
G1 X202.532 Y92.377 E104.31318
G1 X202.833 Y93.76 E104.33834
G1 X202.863 Y93.966 E104.34204
G1 X202.966 Y95.381 E104.36726
G1 X202.97 Y95.488 E104.36916
G1 X202.97 Y119.511 E104.7962
G1 X202.966 Y119.618 E104.7981
G1 X202.863 Y121.034 E104.82334
G1 X202.833 Y121.239 E104.82702
G1 X202.533 Y122.619 E104.85212
G1 X202.474 Y122.821 E104.85587
G1 X201.969 Y124.174 E104.88154
G1 X201.882 Y124.364 E104.88525
G1 X201.198 Y125.617 E104.91063
G1 X201.085 Y125.794 E104.91436
G1 X200.235 Y126.929 E104.93957
G1 X200.097 Y127.087 E104.9433
G1 X199.087 Y128.097 E104.96869
G1 X198.929 Y128.235 E104.97242
G1 X197.794 Y129.085 E104.99762
G1 X197.617 Y129.199 E105.00136
G1 X196.363 Y129.883 E105.02676
G1 X196.173 Y129.969 E105.03046
G1 X194.824 Y130.473 E105.05606
G1 X194.623 Y130.532 E105.05979
G1 X193.24 Y130.833 E105.08494
G1 X193.034 Y130.863 E105.08865
G1 X191.617 Y130.966 E105.1139
G1 X191.51 Y130.97 E105.1158
G1 X41.49 Y130.97 E107.78256
G1 X41.383 Y130.966 E107.78446
G1 X39.966 Y130.863 E107.80971
G1 X39.76 Y130.833 E107.81341
G1 X38.377 Y130.532 E107.83857
G1 X38.176 Y130.473 E107.8423
G1 X36.827 Y129.969 E107.8679
G1 X36.637 Y129.883 E107.8716
G1 X35.383 Y129.199 E107.897
G1 X35.206 Y129.085 E107.90074
G1 X34.071 Y128.235 E107.92594
G1 X33.913 Y128.097 E107.92967
G1 X32.903 Y127.087 E107.95506
G1 X32.765 Y126.929 E107.95879
G1 X31.915 Y125.794 E107.984
G1 X31.802 Y125.617 E107.98773
G1 X31.118 Y124.364 E108.01311
G1 X31.031 Y124.174 E108.01682
G1 X30.526 Y122.821 E108.04249
G1 X30.467 Y122.619 E108.04623
G1 X30.167 Y121.239 E108.07134
G1 X30.137 Y121.034 E108.07502
G1 X30.034 Y119.619 E108.10024
G1 X30.03 Y119.512 E108.10214
G1 X30.03 Y95.489 E108.52918
G1 X30.034 Y95.382 E108.53108
G1 X30.137 Y93.966 E108.55632
G1 X30.167 Y93.761 E108.56
G1 X30.467 Y92.381 E108.5851
G1 X30.526 Y92.179 E108.58884
G1 X31.031 Y90.826 E108.61452
G1 X31.118 Y90.636 E108.61823
G1 X31.802 Y89.383 E108.64361
G1 X31.915 Y89.206 E108.64734
G1 X32.765 Y88.071 E108.67255
G1 X32.903 Y87.913 E108.67628
G1 X33.913 Y86.903 E108.70167
G1 X34.071 Y86.765 E108.70539
G1 X35.206 Y85.915 E108.7306
G1 X35.383 Y85.802 E108.73433
G1 X36.636 Y85.118 E108.75971
G1 X36.826 Y85.031 E108.76342
G1 X38.176 Y84.527 E108.78904
M204 S625
M205 X6 Y6
G0 F3750 X38.323 Y84.92
M204 S500
M205 X5 Y5
G1 F1200 X38.467 Y84.878 E108.79171
G1 X39.85 Y84.577 E108.81687
G1 X39.997 Y84.556 E108.81951
G1 X41.414 Y84.453 E108.84476
G1 X41.49 Y84.45 E108.84611
G1 X191.51 Y84.45 E111.51286
G1 X191.586 Y84.453 E111.51422
G1 X193.003 Y84.556 E111.53947
G1 X193.15 Y84.577 E111.54211
G1 X194.533 Y84.878 E111.56727
G1 X194.677 Y84.92 E111.56994
G1 X196.027 Y85.424 E111.59555
G1 X196.163 Y85.486 E111.59821
G1 X197.416 Y86.17 E111.62359
G1 X197.542 Y86.252 E111.62626
G1 X198.677 Y87.102 E111.65146
G1 X198.79 Y87.2 E111.65412
G1 X199.8 Y88.21 E111.67951
G1 X199.898 Y88.323 E111.68217
G1 X200.748 Y89.458 E111.70738
G1 X200.83 Y89.584 E111.71005
G1 X201.514 Y90.837 E111.73543
G1 X201.576 Y90.973 E111.73808
G1 X202.08 Y92.323 E111.7637
G1 X202.122 Y92.467 E111.76637
G1 X202.423 Y93.85 E111.79153
G1 X202.444 Y93.997 E111.79416
G1 X202.547 Y95.412 E111.81938
G1 X202.55 Y95.488 E111.82074
G1 X202.55 Y119.511 E112.24777
G1 X202.547 Y119.587 E112.24912
G1 X202.444 Y121.003 E112.27436
G1 X202.423 Y121.15 E112.277
G1 X202.123 Y122.53 E112.3021
G1 X202.081 Y122.674 E112.30477
G1 X201.576 Y124.027 E112.33044
G1 X201.514 Y124.163 E112.3331
G1 X200.83 Y125.416 E112.35847
G1 X200.748 Y125.542 E112.36114
G1 X199.898 Y126.677 E112.38635
G1 X199.8 Y126.79 E112.38901
G1 X198.79 Y127.8 E112.4144
G1 X198.677 Y127.898 E112.41706
G1 X197.542 Y128.748 E112.44227
G1 X197.416 Y128.83 E112.44494
G1 X196.162 Y129.514 E112.47033
G1 X196.026 Y129.576 E112.47299
G1 X194.677 Y130.08 E112.49858
G1 X194.533 Y130.122 E112.50125
G1 X193.15 Y130.423 E112.52641
G1 X193.003 Y130.444 E112.52905
G1 X191.586 Y130.547 E112.55431
G1 X191.51 Y130.55 E112.55566
G1 X41.49 Y130.55 E115.22241
G1 X41.414 Y130.547 E115.22376
G1 X39.997 Y130.444 E115.24902
G1 X39.85 Y130.423 E115.25166
G1 X38.467 Y130.122 E115.27682
G1 X38.323 Y130.08 E115.27948
G1 X36.974 Y129.576 E115.30508
G1 X36.838 Y129.514 E115.30774
G1 X35.584 Y128.83 E115.33313
G1 X35.458 Y128.748 E115.3358
G1 X34.323 Y127.898 E115.36101
G1 X34.21 Y127.8 E115.36367
G1 X33.2 Y126.79 E115.38906
G1 X33.102 Y126.677 E115.39172
G1 X32.252 Y125.542 E115.41692
G1 X32.17 Y125.416 E115.41959
G1 X31.486 Y124.163 E115.44497
G1 X31.424 Y124.027 E115.44763
G1 X30.919 Y122.674 E115.4733
G1 X30.877 Y122.53 E115.47597
G1 X30.577 Y121.15 E115.50107
G1 X30.556 Y121.003 E115.50371
G1 X30.453 Y119.588 E115.52893
G1 X30.45 Y119.512 E115.53028
G1 X30.45 Y95.489 E115.95731
G1 X30.453 Y95.413 E115.95866
G1 X30.556 Y93.997 E115.9839
G1 X30.577 Y93.85 E115.98654
G1 X30.877 Y92.47 E116.01165
G1 X30.919 Y92.326 E116.01431
G1 X31.424 Y90.973 E116.03998
G1 X31.486 Y90.837 E116.04264
G1 X32.17 Y89.584 E116.06802
G1 X32.252 Y89.458 E116.07069
G1 X33.102 Y88.323 E116.09589
G1 X33.2 Y88.21 E116.09855
G1 X34.21 Y87.2 E116.12394
G1 X34.323 Y87.102 E116.1266
G1 X35.458 Y86.252 E116.15181
G1 X35.584 Y86.17 E116.15448
G1 X36.837 Y85.486 E116.17986
G1 X36.973 Y85.424 E116.18251
G1 X38.323 Y84.92 E116.20813
M204 S625
M205 X6 Y6
G0 F3750 X38.47 Y85.314
M204 S500
M205 X5 Y5
G1 F1200 X38.556 Y85.288 E116.20973
G1 X39.939 Y84.987 E116.23489
G1 X40.027 Y84.975 E116.23647
G1 X41.444 Y84.872 E116.26172
G1 X41.49 Y84.87 E116.26254
G1 X191.51 Y84.87 E118.92929
G1 X191.556 Y84.872 E118.93011
G1 X192.973 Y84.975 E118.95536
G1 X193.061 Y84.987 E118.95694
G1 X194.444 Y85.288 E118.9821
G1 X194.53 Y85.314 E118.9837
G1 X195.88 Y85.818 E119.00932
G1 X195.962 Y85.855 E119.01091
G1 X197.215 Y86.539 E119.03629
G1 X197.291 Y86.588 E119.0379
G1 X198.426 Y87.438 E119.0631
G1 X198.493 Y87.497 E119.06469
G1 X199.503 Y88.507 E119.09008
G1 X199.562 Y88.574 E119.09167
G1 X200.412 Y89.709 E119.11687
G1 X200.461 Y89.785 E119.11848
G1 X201.145 Y91.038 E119.14386
G1 X201.182 Y91.12 E119.14546
G1 X201.686 Y92.47 E119.17107
G1 X201.712 Y92.556 E119.17267
G1 X202.013 Y93.939 E119.19783
G1 X202.025 Y94.027 E119.19941
G1 X202.128 Y95.442 E119.22463
G1 X202.13 Y95.488 E119.22545
G1 X202.13 Y119.511 E119.65248
G1 X202.128 Y119.557 E119.6533
G1 X202.025 Y120.973 E119.67853
G1 X202.013 Y121.061 E119.68011
G1 X201.713 Y122.441 E119.70522
G1 X201.687 Y122.527 E119.70681
G1 X201.182 Y123.88 E119.73249
G1 X201.145 Y123.962 E119.73408
G1 X200.461 Y125.215 E119.75946
G1 X200.412 Y125.291 E119.76107
G1 X199.562 Y126.426 E119.78627
G1 X199.503 Y126.493 E119.78786
G1 X198.493 Y127.503 E119.81325
G1 X198.426 Y127.562 E119.81484
G1 X197.291 Y128.412 E119.84004
G1 X197.215 Y128.461 E119.84165
G1 X195.961 Y129.145 E119.86704
G1 X195.879 Y129.182 E119.86864
G1 X194.53 Y129.686 E119.89424
G1 X194.444 Y129.712 E119.89584
G1 X193.061 Y130.013 E119.921
G1 X192.973 Y130.025 E119.92258
G1 X191.556 Y130.128 E119.94783
G1 X191.51 Y130.13 E119.94865
G1 X41.49 Y130.13 E122.6154
G1 X41.444 Y130.128 E122.61622
G1 X40.027 Y130.025 E122.64148
G1 X39.939 Y130.013 E122.64305
G1 X38.556 Y129.712 E122.66821
G1 X38.47 Y129.686 E122.66981
G1 X37.121 Y129.182 E122.69541
G1 X37.039 Y129.145 E122.69701
G1 X35.785 Y128.461 E122.7224
G1 X35.709 Y128.412 E122.72401
G1 X34.574 Y127.562 E122.74921
G1 X34.507 Y127.503 E122.7508
G1 X33.497 Y126.493 E122.77619
G1 X33.438 Y126.426 E122.77778
G1 X32.588 Y125.291 E122.80299
G1 X32.539 Y125.215 E122.80459
G1 X31.855 Y123.962 E122.82997
G1 X31.818 Y123.88 E122.83157
G1 X31.313 Y122.527 E122.85724
G1 X31.287 Y122.441 E122.85884
G1 X30.987 Y121.061 E122.88394
G1 X30.975 Y120.973 E122.88552
G1 X30.872 Y119.558 E122.91074
G1 X30.87 Y119.512 E122.91156
G1 X30.87 Y95.489 E123.33859
G1 X30.872 Y95.443 E123.33941
G1 X30.975 Y94.027 E123.36464
G1 X30.987 Y93.939 E123.36622
G1 X31.287 Y92.559 E123.39133
G1 X31.313 Y92.473 E123.39292
G1 X31.818 Y91.12 E123.4186
G1 X31.855 Y91.038 E123.4202
G1 X32.539 Y89.785 E123.44557
G1 X32.588 Y89.709 E123.44718
G1 X33.438 Y88.574 E123.47238
G1 X33.497 Y88.507 E123.47397
G1 X34.507 Y87.497 E123.49936
G1 X34.574 Y87.438 E123.50095
G1 X35.709 Y86.588 E123.52616
G1 X35.785 Y86.539 E123.52776
G1 X37.038 Y85.855 E123.55314
G1 X37.12 Y85.818 E123.55474
G1 X38.47 Y85.314 E123.58035
M204 S625
M205 X6 Y6
G0 F3750 X38.617 Y85.707
M204 S500
M205 X5 Y5
G1 F1200 X38.645 Y85.699 E123.58087
G1 X40.028 Y85.398 E123.60603
G1 X40.058 Y85.394 E123.60657
G1 X41.49 Y85.29 E123.63209
G1 X191.51 Y85.29 E126.29884
G1 X192.942 Y85.394 E126.32437
G1 X192.972 Y85.398 E126.3249
G1 X194.355 Y85.699 E126.35006
G1 X194.383 Y85.707 E126.35058
G1 X195.733 Y86.211 E126.3762
G1 X195.761 Y86.224 E126.37674
G1 X197.014 Y86.908 E126.40212
G1 X197.039 Y86.924 E126.40265
G1 X198.174 Y87.774 E126.42785
G1 X198.196 Y87.794 E126.42838
G1 X199.206 Y88.804 E126.45377
G1 X199.226 Y88.826 E126.4543
G1 X200.076 Y89.961 E126.47951
G1 X200.092 Y89.986 E126.48004
G1 X200.776 Y91.239 E126.50541
G1 X200.789 Y91.267 E126.50596
G1 X201.293 Y92.617 E126.53158
G1 X201.301 Y92.645 E126.53209
G1 X201.602 Y94.028 E126.55725
G1 X201.606 Y94.058 E126.55779
G1 X201.71 Y95.488 E126.58328
G1 X201.709 Y119.526 E127.01058
G1 X201.606 Y120.942 E127.03581
G1 X201.602 Y120.972 E127.03635
G1 X201.302 Y122.352 E127.06146
G1 X201.294 Y122.38 E127.06197
G1 X200.789 Y123.733 E127.08765
G1 X200.776 Y123.761 E127.08819
G1 X200.092 Y125.014 E127.11357
G1 X200.076 Y125.039 E127.1141
G1 X199.226 Y126.174 E127.1393
G1 X199.206 Y126.196 E127.13983
G1 X198.196 Y127.206 E127.16522
G1 X198.174 Y127.226 E127.16575
G1 X197.039 Y128.076 E127.19096
G1 X197.014 Y128.092 E127.19149
G1 X195.76 Y128.776 E127.21688
G1 X195.732 Y128.789 E127.21743
G1 X194.383 Y129.293 E127.24302
G1 X194.355 Y129.301 E127.24354
G1 X192.972 Y129.602 E127.2687
G1 X192.942 Y129.606 E127.26924
G1 X191.51 Y129.71 E127.29476
G1 X41.49 Y129.71 E129.96151
G1 X40.058 Y129.606 E129.98704
G1 X40.028 Y129.602 E129.98757
G1 X38.645 Y129.301 E130.01273
G1 X38.617 Y129.293 E130.01325
G1 X37.268 Y128.789 E130.03885
G1 X37.24 Y128.776 E130.0394
G1 X35.986 Y128.092 E130.06479
G1 X35.961 Y128.076 E130.06532
G1 X34.826 Y127.226 E130.09052
G1 X34.804 Y127.206 E130.09105
G1 X33.794 Y126.196 E130.11644
G1 X33.774 Y126.174 E130.11697
G1 X32.924 Y125.039 E130.14218
G1 X32.908 Y125.014 E130.14271
G1 X32.224 Y123.761 E130.16808
G1 X32.211 Y123.733 E130.16863
G1 X31.706 Y122.38 E130.1943
G1 X31.698 Y122.352 E130.19482
G1 X31.398 Y120.972 E130.21992
G1 X31.394 Y120.942 E130.22046
G1 X31.29 Y119.512 E130.24595
G1 X31.291 Y95.474 E130.67325
G1 X31.394 Y94.058 E130.69848
G1 X31.398 Y94.028 E130.69902
G1 X31.698 Y92.648 E130.72413
G1 X31.706 Y92.62 E130.72464
G1 X32.211 Y91.267 E130.75032
G1 X32.224 Y91.239 E130.75086
G1 X32.908 Y89.986 E130.77624
G1 X32.924 Y89.961 E130.77677
G1 X33.774 Y88.826 E130.80197
G1 X33.794 Y88.804 E130.8025
G1 X34.804 Y87.794 E130.82789
G1 X34.826 Y87.774 E130.82842
G1 X35.961 Y86.924 E130.85363
G1 X35.986 Y86.908 E130.85416
G1 X37.239 Y86.224 E130.87953
G1 X37.267 Y86.211 E130.88008
G1 X38.617 Y85.707 E130.9057
M204 S625
M205 X6 Y6
G1 F1500 E124.4057
;MESH:Middle body.stl
G0 F3750 X41.515 Y86.119
G0 X192.822 Y86.295
G0 X192.891 Y85.81
M204 S500
M205 X5 Y5
;TYPE:WALL-OUTER
G1 F1500 E130.9057
G1 F1200 X194.256 Y86.107 E130.93053
G1 X195.568 Y86.596 E130.95542
G1 X196.792 Y87.264 E130.9802
G1 X197.915 Y88.105 E131.00514
G1 X198.895 Y89.085 E131.02978
G1 X199.736 Y90.208 E131.05472
G1 X200.404 Y91.432 E131.07951
G1 X200.893 Y92.744 E131.1044
G1 X201.19 Y94.109 E131.12923
G1 X201.29 Y95.5 E131.15402
G1 X201.29 Y119.5 E131.58064
G1 X201.19 Y120.891 E131.60543
G1 X200.893 Y122.256 E131.63026
G1 X200.404 Y123.568 E131.65515
G1 X199.736 Y124.792 E131.67994
G1 X198.895 Y125.915 E131.70488
G1 X197.915 Y126.895 E131.72952
G1 X196.792 Y127.736 E131.75446
G1 X195.568 Y128.404 E131.77924
G1 X194.256 Y128.893 E131.80413
G1 X192.891 Y129.19 E131.82896
G1 X191.499 Y129.29 E131.85377
G1 X41.501 Y129.29 E134.52013
G1 X40.109 Y129.19 E134.54494
G1 X38.744 Y128.893 E134.56977
G1 X37.432 Y128.404 E134.59466
G1 X36.208 Y127.736 E134.61945
G1 X35.085 Y126.895 E134.64439
G1 X34.105 Y125.915 E134.66902
G1 X33.264 Y124.792 E134.69396
G1 X32.596 Y123.568 E134.71875
G1 X32.107 Y122.256 E134.74364
G1 X31.81 Y120.891 E134.76847
G1 X31.71 Y119.5 E134.79326
G1 X31.71 Y95.5 E135.21989
G1 X31.81 Y94.109 E135.24468
G1 X32.107 Y92.744 E135.26951
G1 X32.596 Y91.432 E135.2944
G1 X33.264 Y90.208 E135.31919
G1 X34.105 Y89.085 E135.34412
G1 X35.085 Y88.105 E135.36876
G1 X36.208 Y87.264 E135.3937
G1 X37.432 Y86.596 E135.41849
G1 X38.744 Y86.107 E135.44338
G1 X40.109 Y85.81 E135.46821
G1 X41.501 Y85.71 E135.49302
G1 X191.499 Y85.71 E138.15938
G1 X192.891 Y85.81 E138.18419
M204 S625
M205 X6 Y6
G0 F3750 X193.086 Y85.852
G0 X192.987 Y86.303
G0 X192.981 Y86.33
G0 X54.41 Y97.217
G0 X54.022 Y96.919
M204 S500
M205 X5 Y5
G1 F1200 X54.388 Y96.44 E138.1949
G1 X54.62 Y95.882 E138.20564
G1 X54.699 Y95.284 E138.21637
G1 X54.62 Y94.685 E138.22711
G1 X54.388 Y94.128 E138.23783
G1 X54.022 Y93.649 E138.24855
G1 X53.543 Y93.282 E138.25927
G1 X52.985 Y93.05 E138.27002
G1 X52.401 Y92.974 E138.28049
G1 X42.373 Y92.974 E138.45874
G1 X41.788 Y93.05 E138.46923
G1 X41.231 Y93.282 E138.47995
G1 X40.752 Y93.649 E138.49068
G1 X40.385 Y94.128 E138.50141
G1 X40.153 Y94.685 E138.51213
G1 X40.075 Y95.284 E138.52287
G1 X40.153 Y95.882 E138.53359
G1 X40.385 Y96.44 E138.54433
G1 X40.752 Y96.919 E138.55506
G1 X41.231 Y97.285 E138.56578
G1 X41.788 Y97.517 E138.5765
G1 X42.373 Y97.594 E138.58699
G1 X52.401 Y97.594 E138.76525
G1 X52.985 Y97.517 E138.77572
G1 X53.543 Y97.285 E138.78646
G1 X54.022 Y96.919 E138.79718
M204 S625
M205 X6 Y6
G0 F3750 X54.143 Y96.76
G0 X54.3 Y97.197
M204 S500
M205 X5 Y5
;TYPE:WALL-INNER
G1 F1200 X54.729 Y96.637 E138.80793
G1 X55 Y95.984 E138.8187
G1 X55.092 Y95.284 E138.82945
G1 X55 Y94.583 E138.84023
G1 X54.729 Y93.931 E138.85099
G1 X54.3 Y93.371 E138.86173
G1 X53.74 Y92.941 E138.87249
G1 X53.087 Y92.67 E138.88326
G1 X52.426 Y92.584 E138.89342
G1 X42.348 Y92.584 E139.04697
G1 X41.686 Y92.67 E139.05715
G1 X41.034 Y92.942 E139.06791
G1 X40.474 Y93.371 E139.07866
G1 X40.045 Y93.931 E139.08941
G1 X39.773 Y94.583 E139.10017
G1 X39.682 Y95.284 E139.11094
G1 X39.773 Y95.984 E139.1217
G1 X40.044 Y96.637 E139.13247
G1 X40.474 Y97.197 E139.14323
G1 X41.034 Y97.626 E139.15397
G1 X41.686 Y97.897 E139.16473
G1 X42.347 Y97.984 E139.17489
G1 X52.427 Y97.984 E139.32848
G1 X53.087 Y97.897 E139.33862
G1 X53.74 Y97.626 E139.34939
G1 X54.3 Y97.197 E139.36014
M204 S625
M205 X6 Y6
G0 F3750 X54.557 Y97.454
M204 S500
M205 X5 Y5
G1 F1200 X55.043 Y96.819 E139.37232
G1 X55.351 Y96.078 E139.38455
G1 X55.455 Y95.284 E139.39675
G1 X55.351 Y94.489 E139.40897
G1 X55.043 Y93.749 E139.42118
G1 X54.557 Y93.114 E139.43336
G1 X53.922 Y92.627 E139.44556
G1 X53.181 Y92.319 E139.45778
G1 X52.449 Y92.224 E139.46903
G1 X42.325 Y92.224 E139.62328
G1 X41.592 Y92.319 E139.63455
G1 X40.852 Y92.628 E139.64677
G1 X40.217 Y93.114 E139.65895
G1 X39.731 Y93.749 E139.67113
G1 X39.422 Y94.489 E139.68335
G1 X39.319 Y95.284 E139.69557
G1 X39.422 Y96.078 E139.70776
G1 X39.73 Y96.819 E139.71999
G1 X40.217 Y97.454 E139.73218
G1 X40.852 Y97.94 E139.74437
G1 X41.592 Y98.248 E139.75658
G1 X42.323 Y98.344 E139.76781
G1 X52.451 Y98.344 E139.92213
G1 X53.181 Y98.248 E139.93335
G1 X53.922 Y97.94 E139.94558
G1 X54.557 Y97.454 E139.95776
M204 S625
M205 X6 Y6
G0 F3750 X55.132 Y115.284
G0 X55.038 Y115.994
G0 X54.41 Y117.217
G0 X54.022 Y116.919
M204 S500
M205 X5 Y5
;TYPE:WALL-OUTER
G1 F1200 X54.388 Y116.44 E139.96847
G1 X54.62 Y115.882 E139.97922
G1 X54.699 Y115.284 E139.98994
G1 X54.62 Y114.685 E140.00068
G1 X54.388 Y114.128 E140.01141
G1 X54.022 Y113.649 E140.02212
G1 X53.543 Y113.282 E140.03285
G1 X52.985 Y113.05 E140.04359
G1 X52.401 Y112.974 E140.05406
G1 X42.373 Y112.974 E140.23232
G1 X41.788 Y113.05 E140.2428
G1 X41.231 Y113.282 E140.25353
G1 X40.752 Y113.649 E140.26425
G1 X40.385 Y114.128 E140.27498
G1 X40.153 Y114.685 E140.28571
G1 X40.075 Y115.284 E140.29644
G1 X40.153 Y115.882 E140.30716
G1 X40.385 Y116.44 E140.31791
G1 X40.752 Y116.919 E140.32863
G1 X41.231 Y117.285 E140.33935
G1 X41.788 Y117.517 E140.35007
G1 X42.373 Y117.594 E140.36056
G1 X52.401 Y117.594 E140.53882
G1 X52.985 Y117.517 E140.54929
G1 X53.543 Y117.285 E140.56003
G1 X54.022 Y116.919 E140.57075
M204 S625
M205 X6 Y6
G0 F3750 X54.143 Y116.76
G0 X54.3 Y117.197
M204 S500
M205 X5 Y5
;TYPE:WALL-INNER
G1 F1200 X54.729 Y116.637 E140.5815
G1 X55 Y115.984 E140.59227
G1 X55.092 Y115.284 E140.60303
G1 X55 Y114.583 E140.6138
G1 X54.729 Y113.931 E140.62456
G1 X54.3 Y113.371 E140.63531
G1 X53.74 Y112.941 E140.64606
G1 X53.087 Y112.67 E140.65684
G1 X52.426 Y112.584 E140.66699
G1 X42.348 Y112.584 E140.82055
G1 X41.686 Y112.67 E140.83072
G1 X41.034 Y112.942 E140.84148
G1 X40.474 Y113.371 E140.85223
G1 X40.045 Y113.931 E140.86298
G1 X39.773 Y114.583 E140.87374
G1 X39.682 Y115.284 E140.88451
G1 X39.773 Y115.984 E140.89527
G1 X40.044 Y116.637 E140.90604
G1 X40.474 Y117.197 E140.9168
G1 X41.034 Y117.626 E140.92755
G1 X41.686 Y117.897 E140.93831
G1 X42.347 Y117.984 E140.94846
G1 X52.427 Y117.984 E141.10205
G1 X53.087 Y117.897 E141.11219
G1 X53.74 Y117.626 E141.12296
G1 X54.3 Y117.197 E141.13371
M204 S625
M205 X6 Y6
G0 F3750 X54.557 Y117.454
M204 S500
M205 X5 Y5
G1 F1200 X55.043 Y116.819 E141.1459
G1 X55.351 Y116.078 E141.15812
G1 X55.455 Y115.284 E141.17032
G1 X55.351 Y114.489 E141.18254
G1 X55.043 Y113.749 E141.19475
G1 X54.557 Y113.114 E141.20694
G1 X53.922 Y112.627 E141.21913
G1 X53.181 Y112.319 E141.23136
G1 X52.449 Y112.224 E141.2426
G1 X42.325 Y112.224 E141.39686
G1 X41.592 Y112.319 E141.40812
G1 X40.852 Y112.628 E141.42034
G1 X40.217 Y113.114 E141.43252
G1 X39.731 Y113.749 E141.44471
G1 X39.422 Y114.489 E141.45692
G1 X39.319 Y115.284 E141.46914
G1 X39.422 Y116.078 E141.48134
G1 X39.73 Y116.819 E141.49356
G1 X40.217 Y117.454 E141.50576
G1 X40.852 Y117.94 E141.51794
G1 X41.592 Y118.248 E141.53015
G1 X42.323 Y118.344 E141.54139
G1 X52.451 Y118.344 E141.6957
G1 X53.181 Y118.248 E141.70692
G1 X53.922 Y117.94 E141.71915
G1 X54.557 Y117.454 E141.73133
M204 S625
M205 X6 Y6
G0 F3750 X73.089 Y107.234
G0 X73.576 Y107.282
M204 S500
M205 X5 Y5
;TYPE:WALL-OUTER
G1 F1200 X73.668 Y108.233 E141.74832
G1 X73.679 Y108.322 E141.74991
G1 X73.98 Y109.316 E141.76837
G1 X74.471 Y110.234 E141.78688
G1 X75.131 Y111.039 E141.80538
G1 X75.936 Y111.699 E141.82389
G1 X76.854 Y112.19 E141.84239
G1 X77.851 Y112.493 E141.86091
G1 X78.877 Y112.594 E141.87924
G1 X88.897 Y112.594 E142.05736
G1 X89.923 Y112.493 E142.07568
G1 X90.919 Y112.19 E142.09419
G1 X91.837 Y111.699 E142.11269
G1 X92.642 Y111.039 E142.1312
G1 X93.302 Y110.234 E142.1497
G1 X93.793 Y109.316 E142.16821
G1 X94.096 Y108.32 E142.18672
G1 X94.188 Y107.377 E142.20356
G1 X94.198 Y107.286 E142.20518
G1 X94.106 Y106.335 E142.22217
G1 X94.095 Y106.246 E142.22376
G1 X93.793 Y105.251 E142.24225
G1 X93.302 Y104.333 E142.26075
G1 X92.642 Y103.528 E142.27926
G1 X91.837 Y102.868 E142.29776
G1 X90.919 Y102.377 E142.31627
G1 X89.923 Y102.075 E142.33477
G1 X88.897 Y101.974 E142.35309
G1 X78.877 Y101.974 E142.53121
G1 X77.851 Y102.075 E142.54954
G1 X76.854 Y102.377 E142.56805
G1 X75.936 Y102.868 E142.58656
G1 X75.131 Y103.528 E142.60506
G1 X74.471 Y104.333 E142.62357
G1 X73.98 Y105.251 E142.64207
G1 X73.678 Y106.248 E142.66059
G1 X73.586 Y107.191 E142.67743
G1 X73.576 Y107.282 E142.67906
M204 S625
M205 X6 Y6
G0 F3750 X73.595 Y107.481
G0 X73.184 Y107.279
M204 S500
M205 X5 Y5
;TYPE:WALL-INNER
G1 F1200 X73.28 Y108.276 E142.69432
G1 X73.296 Y108.403 E142.69627
G1 X73.618 Y109.466 E142.7132
G1 X74.145 Y110.452 E142.73023
G1 X74.854 Y111.316 E142.74726
G1 X75.718 Y112.025 E142.76429
G1 X76.704 Y112.552 E142.78132
G1 X77.774 Y112.877 E142.79836
G1 X78.858 Y112.984 E142.81496
G1 X88.916 Y112.984 E142.96821
G1 X90 Y112.877 E142.98481
G1 X91.069 Y112.552 E143.00183
G1 X92.055 Y112.025 E143.01886
G1 X92.919 Y111.316 E143.03589
G1 X93.628 Y110.452 E143.05292
G1 X94.155 Y109.466 E143.06996
G1 X94.48 Y108.396 E143.087
G1 X94.59 Y107.289 E143.10395
G1 X94.494 Y106.292 E143.11921
G1 X94.478 Y106.165 E143.12116
G1 X94.155 Y105.101 E143.1381
G1 X93.628 Y104.115 E143.15513
G1 X92.919 Y103.251 E143.17216
G1 X92.055 Y102.542 E143.18919
G1 X91.069 Y102.015 E143.20623
G1 X89.999 Y101.691 E143.22326
G1 X88.916 Y101.584 E143.23984
G1 X78.858 Y101.584 E143.39309
G1 X77.775 Y101.691 E143.40967
G1 X76.704 Y102.015 E143.42672
G1 X75.718 Y102.542 E143.44376
G1 X74.854 Y103.251 E143.46079
G1 X74.145 Y104.115 E143.47781
G1 X73.618 Y105.101 E143.49485
G1 X73.294 Y106.172 E143.5119
G1 X73.184 Y107.279 E143.52885
M204 S625
M205 X6 Y6
G0 F3750 X72.822 Y107.278
M204 S500
M205 X5 Y5
G1 F1200 X72.922 Y108.316 E143.54474
G1 X72.943 Y108.478 E143.54723
G1 X73.284 Y109.604 E143.56515
G1 X73.844 Y110.653 E143.58327
G1 X74.598 Y111.572 E143.60138
G1 X75.517 Y112.326 E143.61949
G1 X76.566 Y112.886 E143.63761
G1 X77.703 Y113.232 E143.65572
G1 X78.84 Y113.344 E143.67313
G1 X88.934 Y113.344 E143.82693
G1 X90.071 Y113.232 E143.84433
G1 X91.208 Y112.886 E143.86244
G1 X92.256 Y112.326 E143.88055
G1 X93.175 Y111.572 E143.89866
G1 X93.929 Y110.653 E143.91677
G1 X94.489 Y109.604 E143.93489
G1 X94.835 Y108.467 E143.953
G1 X94.952 Y107.29 E143.97102
G1 X94.852 Y106.252 E143.98691
G1 X94.831 Y106.09 E143.9894
G1 X94.489 Y104.963 E144.00734
G1 X93.929 Y103.914 E144.02546
G1 X93.175 Y102.995 E144.04357
G1 X92.256 Y102.241 E144.06168
G1 X91.207 Y101.681 E144.0798
G1 X90.07 Y101.336 E144.09791
G1 X88.934 Y101.224 E144.1153
G1 X78.84 Y101.224 E144.2691
G1 X77.705 Y101.336 E144.28647
G1 X76.566 Y101.681 E144.30461
G1 X75.517 Y102.241 E144.32272
G1 X74.598 Y102.995 E144.34084
G1 X73.844 Y103.914 E144.35895
G1 X73.284 Y104.963 E144.37707
G1 X72.939 Y106.101 E144.39519
G1 X72.822 Y107.278 E144.41321
M204 S625
M205 X6 Y6
G0 F3750 X73.582 Y105.086
G0 X74.112 Y104.093
G0 X74.826 Y103.223
G0 X75.696 Y102.509
G0 X76.689 Y101.979
G0 X77.768 Y101.652
G0 X78.857 Y101.545
G0 X88.917 Y101.545
G0 X138.089 Y107.234
G0 X138.576 Y107.282
M204 S500
M205 X5 Y5
;TYPE:WALL-OUTER
G1 F1200 X138.668 Y108.233 E144.43019
G1 X138.679 Y108.322 E144.43179
G1 X138.98 Y109.316 E144.45025
G1 X139.471 Y110.234 E144.46875
G1 X140.131 Y111.039 E144.48726
G1 X140.936 Y111.699 E144.50576
G1 X141.854 Y112.19 E144.52427
G1 X142.851 Y112.493 E144.54279
G1 X143.877 Y112.594 E144.56112
G1 X153.897 Y112.594 E144.73923
G1 X154.923 Y112.493 E144.75756
G1 X155.919 Y112.19 E144.77606
G1 X156.837 Y111.699 E144.79457
G1 X157.642 Y111.039 E144.81307
G1 X158.302 Y110.234 E144.83158
G1 X158.793 Y109.316 E144.85008
G1 X159.096 Y108.32 E144.86859
G1 X159.188 Y107.377 E144.88543
G1 X159.198 Y107.286 E144.88706
G1 X159.106 Y106.335 E144.90404
G1 X159.095 Y106.246 E144.90564
G1 X158.793 Y105.251 E144.92412
G1 X158.302 Y104.333 E144.94263
G1 X157.642 Y103.528 E144.96113
G1 X156.837 Y102.868 E144.97964
G1 X155.919 Y102.377 E144.99814
G1 X154.923 Y102.075 E145.01664
G1 X153.897 Y101.974 E145.03497
G1 X143.877 Y101.974 E145.21309
G1 X142.851 Y102.075 E145.23141
G1 X141.854 Y102.377 E145.24993
G1 X140.936 Y102.868 E145.26844
G1 X140.131 Y103.528 E145.28694
G1 X139.471 Y104.333 E145.30544
G1 X138.98 Y105.251 E145.32395
G1 X138.678 Y106.248 E145.34247
G1 X138.586 Y107.191 E145.35931
G1 X138.576 Y107.282 E145.36094
M204 S625
M205 X6 Y6
G0 F3750 X138.595 Y107.481
G0 X138.184 Y107.279
M204 S500
M205 X5 Y5
;TYPE:WALL-INNER
G1 F1200 X138.28 Y108.276 E145.3762
G1 X138.296 Y108.403 E145.37815
G1 X138.618 Y109.466 E145.39507
G1 X139.145 Y110.452 E145.41211
G1 X139.854 Y111.316 E145.42914
G1 X140.718 Y112.025 E145.44616
G1 X141.704 Y112.552 E145.4632
G1 X142.774 Y112.877 E145.48024
G1 X143.858 Y112.984 E145.49683
G1 X153.916 Y112.984 E145.65008
G1 X155 Y112.877 E145.66668
G1 X156.069 Y112.552 E145.6837
G1 X157.055 Y112.025 E145.70074
G1 X157.919 Y111.316 E145.71777
G1 X158.628 Y110.452 E145.7348
G1 X159.155 Y109.466 E145.75183
G1 X159.48 Y108.396 E145.76887
G1 X159.59 Y107.289 E145.78582
G1 X159.494 Y106.292 E145.80108
G1 X159.478 Y106.165 E145.80303
G1 X159.155 Y105.101 E145.81997
G1 X158.628 Y104.115 E145.83701
G1 X157.919 Y103.251 E145.85404
G1 X157.055 Y102.542 E145.87107
G1 X156.069 Y102.015 E145.8881
G1 X154.999 Y101.691 E145.90514
G1 X153.916 Y101.584 E145.92172
G1 X143.858 Y101.584 E146.07497
G1 X142.775 Y101.691 E146.09155
G1 X141.704 Y102.015 E146.1086
G1 X140.718 Y102.542 E146.12563
G1 X139.854 Y103.251 E146.14266
G1 X139.145 Y104.115 E146.15969
G1 X138.618 Y105.101 E146.17672
G1 X138.294 Y106.172 E146.19377
G1 X138.184 Y107.279 E146.21072
M204 S625
M205 X6 Y6
G0 F3750 X137.822 Y107.278
M204 S500
M205 X5 Y5
G1 F1200 X137.922 Y108.316 E146.22661
G1 X137.943 Y108.478 E146.2291
G1 X138.284 Y109.604 E146.24703
G1 X138.844 Y110.653 E146.26515
G1 X139.598 Y111.572 E146.28326
G1 X140.517 Y112.326 E146.30137
G1 X141.566 Y112.886 E146.31949
G1 X142.703 Y113.232 E146.3376
G1 X143.84 Y113.344 E146.355
G1 X153.934 Y113.344 E146.5088
G1 X155.071 Y113.232 E146.52621
G1 X156.208 Y112.886 E146.54432
G1 X157.256 Y112.326 E146.56242
G1 X158.175 Y111.572 E146.58053
G1 X158.929 Y110.653 E146.59865
G1 X159.489 Y109.604 E146.61676
G1 X159.835 Y108.467 E146.63487
G1 X159.952 Y107.29 E146.65289
G1 X159.852 Y106.252 E146.66878
G1 X159.831 Y106.09 E146.67127
G1 X159.489 Y104.963 E146.68922
G1 X158.929 Y103.914 E146.70734
G1 X158.175 Y102.995 E146.72545
G1 X157.256 Y102.241 E146.74356
G1 X156.207 Y101.681 E146.76168
G1 X155.07 Y101.336 E146.77978
G1 X153.934 Y101.224 E146.79717
G1 X143.84 Y101.224 E146.95097
G1 X142.705 Y101.336 E146.96835
G1 X141.566 Y101.681 E146.98648
G1 X140.517 Y102.241 E147.0046
G1 X139.598 Y102.995 E147.02271
G1 X138.844 Y103.914 E147.04082
G1 X138.284 Y104.963 E147.05894
G1 X137.939 Y106.101 E147.07706
G1 X137.822 Y107.278 E147.09508
M204 S625
M205 X6 Y6
G0 F3750 X138.582 Y105.086
G0 X139.112 Y104.093
G0 X139.826 Y103.223
G0 X140.696 Y102.509
G0 X141.689 Y101.979
G0 X142.768 Y101.652
G0 X143.857 Y101.545
G0 X153.917 Y101.545
G0 X154.799 Y101.631
G0 X178.756 Y106.137
G0 X179.208 Y105.949
M204 S500
M205 X5 Y5
;TYPE:WALL-OUTER
G1 F1200 X179.44 Y106.506 E147.10581
G1 X179.807 Y106.985 E147.11654
G1 X180.286 Y107.352 E147.12726
G1 X180.843 Y107.583 E147.13798
G1 X181.428 Y107.66 E147.14847
G1 X191.456 Y107.66 E147.32673
G1 X192.04 Y107.583 E147.3372
G1 X192.598 Y107.353 E147.34793
G1 X193.077 Y106.985 E147.35866
G1 X193.444 Y106.506 E147.36939
G1 X193.675 Y105.949 E147.38011
G1 X193.754 Y105.35 E147.39085
G1 X193.675 Y104.752 E147.40157
G1 X193.445 Y104.194 E147.4123
G1 X193.077 Y103.715 E147.42304
G1 X192.598 Y103.347 E147.43378
G1 X192.04 Y103.117 E147.4445
G1 X191.456 Y103.04 E147.45497
G1 X181.428 Y103.04 E147.63323
G1 X180.843 Y103.117 E147.64372
G1 X180.286 Y103.348 E147.65444
G1 X179.807 Y103.715 E147.66517
G1 X179.44 Y104.194 E147.67589
G1 X179.208 Y104.752 E147.68664
G1 X179.13 Y105.35 E147.69736
G1 X179.208 Y105.949 E147.70809
M204 S625
M205 X6 Y6
G0 F3750 X179.284 Y106.133
G0 X178.828 Y106.051
M204 S500
M205 X5 Y5
;TYPE:WALL-INNER
G1 F1200 X179.1 Y106.703 E147.71886
G1 X179.529 Y107.263 E147.72961
G1 X180.089 Y107.693 E147.74036
G1 X180.741 Y107.963 E147.75112
G1 X181.402 Y108.05 E147.76127
G1 X191.482 Y108.05 E147.91486
G1 X192.142 Y107.963 E147.925
G1 X192.795 Y107.694 E147.93576
G1 X193.355 Y107.263 E147.94653
G1 X193.785 Y106.703 E147.95729
G1 X194.055 Y106.051 E147.96804
G1 X194.147 Y105.35 E147.97881
G1 X194.055 Y104.65 E147.98957
G1 X193.786 Y103.997 E148.00033
G1 X193.355 Y103.437 E148.0111
G1 X192.795 Y103.006 E148.02186
G1 X192.142 Y102.737 E148.03262
G1 X191.482 Y102.65 E148.04277
G1 X181.402 Y102.65 E148.19635
G1 X180.741 Y102.737 E148.20651
G1 X180.089 Y103.007 E148.21726
G1 X179.529 Y103.437 E148.22802
G1 X179.099 Y103.997 E148.23878
G1 X178.828 Y104.65 E148.24955
G1 X178.737 Y105.35 E148.2603
G1 X178.828 Y106.051 E148.27108
M204 S625
M205 X6 Y6
G0 F3750 X178.477 Y106.145
M204 S500
M205 X5 Y5
G1 F1200 X178.786 Y106.885 E148.28329
G1 X179.272 Y107.52 E148.29548
G1 X179.907 Y108.007 E148.30767
G1 X180.647 Y108.314 E148.31988
G1 X181.378 Y108.41 E148.33111
G1 X191.506 Y108.41 E148.48543
G1 X192.236 Y108.314 E148.49665
G1 X192.977 Y108.009 E148.50885
G1 X193.612 Y107.52 E148.52107
G1 X194.099 Y106.885 E148.53326
G1 X194.406 Y106.145 E148.54547
G1 X194.51 Y105.35 E148.55768
G1 X194.406 Y104.556 E148.56988
G1 X194.101 Y103.815 E148.58209
G1 X193.612 Y103.18 E148.5943
G1 X192.977 Y102.691 E148.60652
G1 X192.236 Y102.386 E148.61873
G1 X191.506 Y102.29 E148.62994
G1 X181.378 Y102.29 E148.78426
G1 X180.647 Y102.386 E148.79549
G1 X179.907 Y102.693 E148.8077
G1 X179.272 Y103.18 E148.81989
G1 X178.785 Y103.815 E148.83209
G1 X178.477 Y104.556 E148.84431
G1 X178.374 Y105.35 E148.85651
G1 X178.477 Y106.145 E148.86873
M204 S625
M205 X6 Y6
G0 F3750 X178.79 Y104.64
G0 X192.822 Y86.295
G0 X192.836 Y86.197
M204 S500
M205 X5 Y5
G1 F1200 X194.149 Y86.483 E148.8892
G1 X195.404 Y86.951 E148.90961
G1 X196.579 Y87.592 E148.93
G1 X197.657 Y88.399 E148.95052
G1 X198.601 Y89.343 E148.97086
G1 X199.408 Y90.421 E148.99138
G1 X200.049 Y91.596 E149.01177
G1 X200.506 Y92.823 E149.03172
G1 X200.517 Y92.851 E149.03218
G1 X200.803 Y94.164 E149.05266
G1 X200.9 Y95.514 E149.07328
G1 X200.9 Y119.486 E149.43853
G1 X200.803 Y120.836 E149.45915
G1 X200.517 Y122.149 E149.47963
G1 X200.049 Y123.404 E149.50003
G1 X199.408 Y124.579 E149.52043
G1 X198.601 Y125.657 E149.54094
G1 X197.657 Y126.601 E149.56129
G1 X196.579 Y127.408 E149.5818
G1 X195.404 Y128.049 E149.6022
G1 X194.177 Y128.506 E149.62215
G1 X194.149 Y128.517 E149.62261
G1 X192.836 Y128.803 E149.64308
G1 X191.485 Y128.9 E149.66372
G1 X41.515 Y128.9 E151.94874
G1 X40.164 Y128.803 E151.96938
G1 X38.851 Y128.517 E151.98986
G1 X37.596 Y128.049 E152.01026
G1 X36.421 Y127.408 E152.03066
G1 X35.343 Y126.601 E152.05117
G1 X34.399 Y125.657 E152.07152
G1 X33.592 Y124.579 E152.09203
G1 X32.951 Y123.404 E152.11243
G1 X32.494 Y122.177 E152.13238
G1 X32.483 Y122.149 E152.13284
G1 X32.197 Y120.836 E152.15331
G1 X32.1 Y119.486 E152.17393
G1 X32.1 Y95.514 E152.53918
G1 X32.197 Y94.164 E152.55981
G1 X32.483 Y92.851 E152.58028
G1 X32.951 Y91.596 E152.60069
G1 X33.592 Y90.421 E152.62108
G1 X34.399 Y89.343 E152.6416
G1 X35.343 Y88.399 E152.66194
G1 X36.421 Y87.592 E152.68246
G1 X37.596 Y86.951 E152.70285
G1 X38.823 Y86.494 E152.7228
G1 X38.851 Y86.483 E152.72326
G1 X40.164 Y86.197 E152.74373
G1 X41.515 Y86.1 E152.76437
G1 X191.485 Y86.1 E155.0494
G1 X192.836 Y86.197 E155.07004
M204 S625
M205 X6 Y6
G0 F3750 X192.782 Y86.554
M204 S500
M205 X5 Y5
G1 F1200 X194.051 Y86.83 E155.08982
G1 X195.254 Y87.279 E155.10939
G1 X196.383 Y87.895 E155.12898
G1 X197.417 Y88.669 E155.14866
G1 X198.331 Y89.583 E155.16836
G1 X199.105 Y90.617 E155.18804
G1 X199.721 Y91.746 E155.20763
G1 X200.17 Y92.949 E155.2272
G1 X200.446 Y94.218 E155.24698
G1 X200.54 Y95.526 E155.26697
G1 X200.54 Y119.474 E155.63185
G1 X200.446 Y120.782 E155.65183
G1 X200.17 Y122.051 E155.67162
G1 X199.721 Y123.254 E155.69118
G1 X199.105 Y124.383 E155.71078
G1 X198.331 Y125.417 E155.73046
G1 X197.417 Y126.331 E155.75015
G1 X196.383 Y127.105 E155.76983
G1 X195.254 Y127.721 E155.78943
G1 X194.051 Y128.17 E155.80899
G1 X192.782 Y128.446 E155.82878
G1 X191.473 Y128.54 E155.84878
G1 X41.527 Y128.54 E158.13344
G1 X40.218 Y128.446 E158.15343
G1 X38.949 Y128.17 E158.17322
G1 X37.746 Y127.721 E158.19278
G1 X36.617 Y127.105 E158.21238
G1 X35.583 Y126.331 E158.23206
G1 X34.669 Y125.417 E158.25175
G1 X33.895 Y124.383 E158.27143
G1 X33.279 Y123.254 E158.29103
G1 X32.83 Y122.051 E158.31059
G1 X32.554 Y120.782 E158.33038
G1 X32.46 Y119.474 E158.35036
G1 X32.46 Y95.526 E158.71525
G1 X32.554 Y94.218 E158.73523
G1 X32.83 Y92.949 E158.75502
G1 X33.279 Y91.746 E158.77458
G1 X33.895 Y90.617 E158.79418
G1 X34.669 Y89.583 E158.81386
G1 X35.583 Y88.669 E158.83355
G1 X36.617 Y87.895 E158.85323
G1 X37.746 Y87.279 E158.87283
G1 X38.949 Y86.83 E158.89239
G1 X40.218 Y86.554 E158.91218
G1 X41.527 Y86.46 E158.93217
G1 X191.473 Y86.46 E161.21683
G1 X192.782 Y86.554 E161.23683
M204 S625
M205 X6 Y6
G0 F3750 X192.729 Y86.931
M204 S500
M205 X5 Y5
;TYPE:SKIN
G1 F1200 X193.942 Y87.195 E161.2589
G1 X195.094 Y87.625 E161.28075
G1 X196.179 Y88.217 E161.30273
G1 X197.173 Y88.961 E161.3248
G1 X198.039 Y89.827 E161.34657
G1 X198.783 Y90.821 E161.36864
G1 X199.375 Y91.906 E161.39061
G1 X199.805 Y93.058 E161.41247
G1 X200.069 Y94.271 E161.43453
G1 X200.16 Y95.539 E161.45713
G1 X200.16 Y119.461 E161.88237
G1 X200.069 Y120.729 E161.90497
G1 X199.805 Y121.942 E161.92703
G1 X199.375 Y123.094 E161.94889
G1 X198.783 Y124.179 E161.97086
G1 X198.039 Y125.173 E161.99293
G1 X197.173 Y126.039 E162.0147
G1 X196.179 Y126.783 E162.03677
G1 X195.094 Y127.375 E162.05874
G1 X193.942 Y127.805 E162.0806
G1 X192.729 Y128.069 E162.10267
G1 X191.46 Y128.16 E162.12529
G1 X41.54 Y128.16 E164.79026
G1 X40.271 Y128.069 E164.81288
G1 X39.058 Y127.805 E164.83494
G1 X37.906 Y127.375 E164.8568
G1 X36.821 Y126.783 E164.87877
G1 X35.827 Y126.039 E164.90084
G1 X34.961 Y125.173 E164.92261
G1 X34.217 Y124.179 E164.94468
G1 X33.625 Y123.094 E164.96665
G1 X33.195 Y121.942 E164.98851
G1 X32.931 Y120.729 E165.01058
G1 X32.84 Y119.461 E165.03318
G1 X32.84 Y95.539 E165.45841
G1 X32.931 Y94.271 E165.48101
G1 X33.195 Y93.058 E165.50308
G1 X33.625 Y91.906 E165.52494
G1 X34.217 Y90.821 E165.54691
G1 X34.961 Y89.827 E165.56898
G1 X35.827 Y88.961 E165.59075
G1 X36.821 Y88.217 E165.61282
G1 X37.906 Y87.625 E165.63479
G1 X39.058 Y87.195 E165.65665
G1 X40.271 Y86.931 E165.67872
G1 X41.54 Y86.84 E165.70133
G1 X191.46 Y86.84 E168.36631
G1 X192.729 Y86.931 E168.38892
M204 S625
M205 X6 Y6
G0 F3750 X191.531 Y101.91
M204 S500
M205 X5 Y5
G1 F1200 X181.353 Y101.91 E168.56985
G1 X180.548 Y102.016 E168.58428
G1 X179.715 Y102.361 E168.60031
G1 X179.001 Y102.909 E168.61631
G1 X178.453 Y103.623 E168.6323
G1 X178.107 Y104.457 E168.64835
G1 X177.99 Y105.35 E168.66436
G1 X178.107 Y106.244 E168.68039
G1 X178.454 Y107.077 E168.69643
G1 X179.001 Y107.791 E168.71242
G1 X179.715 Y108.339 E168.72842
G1 X180.548 Y108.684 E168.74445
G1 X181.353 Y108.79 E168.75888
G1 X191.531 Y108.79 E168.9398
G1 X192.335 Y108.684 E168.95422
G1 X193.169 Y108.341 E168.97025
G1 X193.883 Y107.79 E168.98628
G1 X194.431 Y107.077 E169.00227
G1 X194.776 Y106.244 E169.01829
G1 X194.894 Y105.35 E169.03432
G1 X194.776 Y104.457 E169.05034
G1 X194.433 Y103.623 E169.06637
G1 X193.883 Y102.909 E169.08239
G1 X193.169 Y102.359 E169.09841
G1 X192.335 Y102.016 E169.11444
G1 X191.531 Y101.91 E169.12885
M204 S625
M205 X6 Y6
G0 F3750 X182.414 Y102.54
G0 X159.842 Y104.817
M204 S500
M205 X5 Y5
G1 F1200 X159.246 Y103.702 E169.15133
G1 X158.445 Y102.725 E169.17379
G1 X157.468 Y101.924 E169.19624
G1 X156.353 Y101.328 E169.21872
G1 X155.144 Y100.962 E169.24117
G1 X153.953 Y100.844 E169.26245
G1 X143.821 Y100.844 E169.44255
G1 X142.631 Y100.962 E169.46381
G1 X141.42 Y101.328 E169.4863
G1 X140.305 Y101.924 E169.50877
G1 X139.328 Y102.725 E169.53123
G1 X138.527 Y103.702 E169.55369
G1 X137.931 Y104.817 E169.57616
G1 X137.565 Y106.027 E169.59863
G1 X137.44 Y107.278 E169.62098
G1 X137.544 Y108.358 E169.64027
G1 X137.57 Y108.558 E169.64385
G1 X137.931 Y109.75 E169.66599
G1 X138.527 Y110.865 E169.68847
G1 X139.328 Y111.842 E169.71092
G1 X140.305 Y112.643 E169.73338
G1 X141.42 Y113.239 E169.75586
G1 X142.629 Y113.606 E169.77832
G1 X143.821 Y113.724 E169.79961
G1 X153.953 Y113.724 E169.97972
G1 X155.145 Y113.606 E170.00101
G1 X156.354 Y113.239 E170.02347
G1 X157.468 Y112.643 E170.04593
G1 X158.445 Y111.842 E170.06838
G1 X159.246 Y110.865 E170.09084
G1 X159.842 Y109.75 E170.11332
G1 X160.209 Y108.541 E170.13577
G1 X160.334 Y107.29 E170.15812
G1 X160.23 Y106.21 E170.17741
G1 X160.204 Y106.01 E170.181
G1 X159.842 Y104.817 E170.20316
M204 S625
M205 X6 Y6
G0 F3750 X157.077 Y102.509
G0 X156.084 Y101.979
G0 X155.006 Y101.652
G0 X153.917 Y101.545
G0 X143.857 Y101.545
G0 X95.204 Y106.01
M204 S500
M205 X5 Y5
G1 F1200 X94.842 Y104.817 E170.22532
G1 X94.246 Y103.702 E170.24779
G1 X93.445 Y102.725 E170.27025
G1 X92.468 Y101.924 E170.29271
G1 X91.353 Y101.328 E170.31518
G1 X90.144 Y100.962 E170.33764
G1 X88.953 Y100.844 E170.35891
G1 X78.821 Y100.844 E170.53902
G1 X77.631 Y100.962 E170.56027
G1 X76.42 Y101.328 E170.58276
G1 X75.305 Y101.924 E170.60524
G1 X74.328 Y102.725 E170.62769
G1 X73.527 Y103.702 E170.65015
G1 X72.931 Y104.817 E170.67263
G1 X72.565 Y106.027 E170.6951
G1 X72.44 Y107.278 E170.71745
G1 X72.544 Y108.358 E170.73673
G1 X72.57 Y108.558 E170.74032
G1 X72.931 Y109.75 E170.76246
G1 X73.527 Y110.865 E170.78493
G1 X74.328 Y111.842 E170.80739
G1 X75.305 Y112.643 E170.82985
G1 X76.42 Y113.239 E170.85232
G1 X77.629 Y113.606 E170.87478
G1 X78.821 Y113.724 E170.89607
G1 X88.953 Y113.724 E171.07618
G1 X90.145 Y113.606 E171.09747
G1 X91.354 Y113.239 E171.11993
G1 X92.468 Y112.643 E171.14239
G1 X93.445 Y111.842 E171.16485
G1 X94.246 Y110.865 E171.18731
G1 X94.842 Y109.75 E171.20978
G1 X95.209 Y108.541 E171.23224
G1 X95.334 Y107.29 E171.25459
G1 X95.23 Y106.21 E171.27387
G1 X95.204 Y106.01 E171.27746
M204 S625
M205 X6 Y6
G0 F3750 X94.191 Y109.481
G0 X93.661 Y110.474
G0 X92.947 Y111.344
G0 X92.077 Y112.058
G0 X91.084 Y112.588
G0 X90.007 Y112.916
G0 X55.721 Y114.39
M204 S500
M205 X5 Y5
G1 F1200 X55.375 Y113.557 E171.29349
G1 X54.828 Y112.843 E171.30948
G1 X54.114 Y112.295 E171.32548
G1 X53.28 Y111.949 E171.34153
G1 X52.474 Y111.844 E171.35598
G1 X42.3 Y111.844 E171.53683
G1 X41.493 Y111.949 E171.5513
G1 X40.66 Y112.296 E171.56734
G1 X39.946 Y112.843 E171.58333
G1 X39.399 Y113.557 E171.59932
G1 X39.052 Y114.39 E171.61536
G1 X38.935 Y115.284 E171.63139
G1 X39.052 Y116.177 E171.6474
G1 X39.398 Y117.011 E171.66345
G1 X39.946 Y117.725 E171.67944
G1 X40.66 Y118.272 E171.69543
G1 X41.493 Y118.618 E171.71147
G1 X42.298 Y118.724 E171.7259
G1 X52.476 Y118.724 E171.90682
G1 X53.28 Y118.618 E171.92124
G1 X54.114 Y118.272 E171.93729
G1 X54.828 Y117.725 E171.95328
G1 X55.375 Y117.011 E171.96927
G1 X55.721 Y116.177 E171.98532
G1 X55.839 Y115.284 E172.00133
G1 X55.721 Y114.39 E172.01736
M204 S625
M205 X6 Y6
G0 F3750 X55.839 Y95.284
M204 S500
M205 X5 Y5
G1 F1200 X55.721 Y94.39 E172.03339
G1 X55.375 Y93.557 E172.04942
G1 X54.828 Y92.843 E172.06541
G1 X54.114 Y92.295 E172.08141
G1 X53.28 Y91.949 E172.09746
G1 X52.474 Y91.844 E172.11191
G1 X42.3 Y91.844 E172.29276
G1 X41.493 Y91.949 E172.30723
G1 X40.66 Y92.296 E172.32327
G1 X39.946 Y92.843 E172.33926
G1 X39.399 Y93.557 E172.35525
G1 X39.052 Y94.39 E172.37129
G1 X38.935 Y95.284 E172.38731
G1 X39.052 Y96.177 E172.40332
G1 X39.398 Y97.011 E172.41937
G1 X39.946 Y97.725 E172.43537
G1 X40.66 Y98.272 E172.45136
G1 X41.493 Y98.618 E172.4674
G1 X42.298 Y98.724 E172.48183
G1 X52.476 Y98.724 E172.66275
G1 X53.28 Y98.618 E172.67717
G1 X54.114 Y98.272 E172.69322
G1 X54.828 Y97.725 E172.70921
G1 X55.375 Y97.011 E172.7252
G1 X55.721 Y96.177 E172.74125
G1 X55.839 Y95.284 E172.75726
M204 S625
M205 X6 Y6
G0 F3750 X42.346 Y112.545
G0 X41.014 Y112.908
G0 X40.446 Y113.343
G0 X40.011 Y113.911
G0 X37.016 Y126.705
M204 S500
M205 X5 Y5
G1 F1200 X34.292 Y123.981 E172.82574
M204 S625
M205 X6 Y6
G0 F3750 X33.676 Y122.772
M204 S500
M205 X5 Y5
G1 F1200 X38.226 Y127.321 E172.94011
M204 S625
M205 X6 Y6
G0 F3750 X39.158 Y127.66
M204 S500
M205 X5 Y5
G1 F1200 X33.337 Y121.839 E173.08644
M204 S625
M205 X6 Y6
G0 F3750 X33.171 Y121.079
M204 S500
M205 X5 Y5
G1 F1200 X39.919 Y127.826 E173.25607
M204 S625
M205 X6 Y6
G0 F3750 X40.618 Y127.931
M204 S500
M205 X5 Y5
G1 F1200 X33.066 Y120.379 E173.44592
M204 S625
M205 X6 Y6
G0 F3750 X33.021 Y119.74
M204 S500
M205 X5 Y5
G1 F1200 X41.258 Y127.977 E173.65299
M204 S625
M205 X6 Y6
G0 F3750 X41.872 Y127.998
M204 S500
M205 X5 Y5
G1 F1200 X33.001 Y119.126 E173.87601
M204 S625
M205 X6 Y6
G0 F3750 X33.001 Y118.533
M204 S500
M205 X5 Y5
G1 F1200 X42.466 Y127.998 E174.11395
M204 S625
M205 X6 Y6
G0 F3750 X43.06 Y127.998
M204 S500
M205 X5 Y5
G1 F1200 X33.001 Y117.939 E174.36682
M204 S625
M205 X6 Y6
G0 F3750 X33.001 Y117.345
M204 S500
M205 X5 Y5
G1 F1200 X43.654 Y127.998 E174.63463
M204 S625
M205 X6 Y6
G0 F3750 X44.248 Y127.998
M204 S500
M205 X5 Y5
G1 F1200 X33.001 Y116.751 E174.91737
M204 S625
M205 X6 Y6
G0 F3750 X33.001 Y116.157
M204 S500
M205 X5 Y5
G1 F1200 X44.842 Y127.998 E175.21504
M204 S625
M205 X6 Y6
G0 F3750 X45.436 Y127.998
M204 S500
M205 X5 Y5
G1 F1200 X33.001 Y115.563 E175.52764
M204 S625
M205 X6 Y6
G0 F3750 X33.001 Y114.969
M204 S500
M205 X5 Y5
G1 F1200 X46.03 Y127.998 E175.85518
M204 S625
M205 X6 Y6
G0 F3750 X46.624 Y127.998
M204 S500
M205 X5 Y5
G1 F1200 X33.001 Y114.375 E176.19765
M204 S625
M205 X6 Y6
G0 F3750 X33.001 Y113.781
M204 S500
M205 X5 Y5
G1 F1200 X47.218 Y127.998 E176.55505
M204 S625
M205 X6 Y6
G0 F3750 X47.812 Y127.998
M204 S500
M205 X5 Y5
G1 F1200 X33.001 Y113.187 E176.92738
M204 S625
M205 X6 Y6
G0 F3750 X33.001 Y112.593
M204 S500
M205 X5 Y5
G1 F1200 X48.406 Y127.998 E177.31465
M204 S625
M205 X6 Y6
G0 F3750 X49 Y127.998
M204 S500
M205 X5 Y5
G1 F1200 X33.001 Y111.999 E177.71685
M204 S625
M205 X6 Y6
G0 F3750 X33.001 Y111.405
M204 S500
M205 X5 Y5
G1 F1200 X49.594 Y127.998 E178.13398
M204 S625
M205 X6 Y6
G0 F3750 X50.188 Y127.998
M204 S500
M205 X5 Y5
G1 F1200 X40.619 Y118.429 E178.37454
M204 S625
M205 X6 Y6
G0 F3750 X41.575 Y118.791
M204 S500
M205 X5 Y5
G1 F1200 X50.782 Y127.998 E178.60599
M204 S625
M205 X6 Y6
G0 F3750 X51.376 Y127.998
M204 S500
M205 X5 Y5
G1 F1200 X42.258 Y118.88 E178.83521
M204 S625
M205 X6 Y6
G0 F3750 X42.856 Y118.884
M204 S500
M205 X5 Y5
G1 F1200 X51.97 Y127.998 E179.06433
M204 S625
M205 X6 Y6
G0 F3750 X52.564 Y127.998
M204 S500
M205 X5 Y5
G1 F1200 X43.45 Y118.884 E179.29344
M204 S625
M205 X6 Y6
G0 F3750 X44.044 Y118.884
M204 S500
M205 X5 Y5
G1 F1200 X53.158 Y127.998 E179.52256
M204 S625
M205 X6 Y6
G0 F3750 X53.752 Y127.998
M204 S500
M205 X5 Y5
G1 F1200 X44.638 Y118.884 E179.75168
M204 S625
M205 X6 Y6
G0 F3750 X45.232 Y118.884
M204 S500
M205 X5 Y5
G1 F1200 X54.346 Y127.998 E179.98079
M204 S625
M205 X6 Y6
G0 F3750 X54.94 Y127.998
M204 S500
M205 X5 Y5
G1 F1200 X45.826 Y118.884 E180.20991
M204 S625
M205 X6 Y6
G0 F3750 X46.42 Y118.884
M204 S500
M205 X5 Y5
G1 F1200 X55.534 Y127.998 E180.43903
M204 S625
M205 X6 Y6
G0 F3750 X56.128 Y127.998
M204 S500
M205 X5 Y5
G1 F1200 X47.014 Y118.884 E180.66815
M204 S625
M205 X6 Y6
G0 F3750 X47.608 Y118.884
M204 S500
M205 X5 Y5
G1 F1200 X56.721 Y127.998 E180.89725
M204 S625
M205 X6 Y6
G0 F3750 X57.315 Y127.998
M204 S500
M205 X5 Y5
G1 F1200 X48.202 Y118.884 E181.12635
M204 S625
M205 X6 Y6
G0 F3750 X48.796 Y118.884
M204 S500
M205 X5 Y5
G1 F1200 X57.909 Y127.998 E181.35546
M204 S625
M205 X6 Y6
G0 F3750 X58.503 Y127.998
M204 S500
M205 X5 Y5
G1 F1200 X49.389 Y118.884 E181.58458
M204 S625
M205 X6 Y6
G0 F3750 X49.983 Y118.884
M204 S500
M205 X5 Y5
G1 F1200 X59.097 Y127.998 E181.81369
M204 S625
M205 X6 Y6
G0 F3750 X59.691 Y127.998
M204 S500
M205 X5 Y5
G1 F1200 X50.577 Y118.884 E182.04281
M204 S625
M205 X6 Y6
G0 F3750 X51.171 Y118.884
M204 S500
M205 X5 Y5
G1 F1200 X60.285 Y127.998 E182.27193
M204 S625
M205 X6 Y6
G0 F3750 X60.879 Y127.998
M204 S500
M205 X5 Y5
G1 F1200 X51.765 Y118.884 E182.50104
M204 S625
M205 X6 Y6
G0 F3750 X52.359 Y118.884
M204 S500
M205 X5 Y5
G1 F1200 X61.473 Y127.998 E182.73016
M204 S625
M205 X6 Y6
G0 F3750 X62.067 Y127.998
M204 S500
M205 X5 Y5
G1 F1200 X52.899 Y118.83 E182.96064
M204 S625
M205 X6 Y6
G0 F3750 X53.404 Y118.74
M204 S500
M205 X5 Y5
G1 F1200 X62.661 Y127.998 E183.19336
M204 S625
M205 X6 Y6
G0 F3750 X63.255 Y127.998
M204 S500
M205 X5 Y5
G1 F1200 X53.824 Y118.566 E183.43046
M204 S625
M205 X6 Y6
G0 F3750 X54.233 Y118.382
M204 S500
M205 X5 Y5
G1 F1200 X63.849 Y127.998 E183.6722
M204 S625
M205 X6 Y6
G0 F3750 X64.443 Y127.998
M204 S500
M205 X5 Y5
G1 F1200 X54.57 Y118.125 E183.92039
M204 S625
M205 X6 Y6
G0 F3750 X54.906 Y117.867
M204 S500
M205 X5 Y5
G1 F1200 X65.037 Y127.998 E184.17508
M204 S625
M205 X6 Y6
G0 F3750 X65.631 Y127.998
M204 S500
M205 X5 Y5
G1 F1200 X55.172 Y117.538 E184.43802
M204 S625
M205 X6 Y6
G0 F3750 X55.429 Y117.202
M204 S500
M205 X5 Y5
G1 F1200 X66.225 Y127.998 E184.70942
M204 S625
M205 X6 Y6
G0 F3750 X66.819 Y127.998
M204 S500
M205 X5 Y5
G1 F1200 X55.631 Y116.81 E184.99068
M204 S625
M205 X6 Y6
G0 F3750 X55.806 Y116.391
M204 S500
M205 X5 Y5
G1 F1200 X67.413 Y127.998 E185.28246
M204 S625
M205 X6 Y6
G0 F3750 X68.007 Y127.998
M204 S500
M205 X5 Y5
G1 F1200 X55.918 Y115.909 E185.58637
M204 S625
M205 X6 Y6
G0 F3750 X55.987 Y115.384
M204 S500
M205 X5 Y5
G1 F1200 X68.601 Y127.998 E185.90347
M204 S625
M205 X6 Y6
G0 F3750 X69.195 Y127.998
M204 S500
M205 X5 Y5
G1 F1200 X55.927 Y114.73 E186.23702
M204 S625
M205 X6 Y6
G0 F3750 X55.693 Y113.902
M204 S500
M205 X5 Y5
G1 F1200 X69.789 Y127.998 E186.59138
M204 S625
M205 X6 Y6
G0 F3750 X70.383 Y127.998
M204 S500
M205 X5 Y5
G1 F1200 X40.952 Y98.567 E187.33124
M204 S625
M205 X6 Y6
G0 F3750 X41.799 Y98.82
M204 S500
M205 X5 Y5
G1 F1200 X70.977 Y127.998 E188.06475
M204 S625
M205 X6 Y6
G0 F3750 X71.571 Y127.998
M204 S500
M205 X5 Y5
G1 F1200 X42.457 Y98.884 E188.79665
M204 S625
M205 X6 Y6
G0 F3750 X43.051 Y98.884
M204 S500
M205 X5 Y5
G1 F1200 X72.165 Y127.998 E189.52855
M204 S625
M205 X6 Y6
G0 F3750 X72.759 Y127.998
M204 S500
M205 X5 Y5
G1 F1200 X43.645 Y98.884 E190.26044
M204 S625
M205 X6 Y6
G0 F3750 X44.239 Y98.884
M204 S500
M205 X5 Y5
G1 F1200 X73.353 Y127.998 E190.99234
M204 S625
M205 X6 Y6
G0 F3750 X73.947 Y127.998
M204 S500
M205 X5 Y5
G1 F1200 X44.833 Y98.884 E191.72424
M204 S625
M205 X6 Y6
G0 F3750 X45.427 Y98.884
M204 S500
M205 X5 Y5
G1 F1200 X74.541 Y127.998 E192.45614
M204 S625
M205 X6 Y6
G0 F3750 X75.135 Y127.998
M204 S500
M205 X5 Y5
G1 F1200 X46.021 Y98.884 E193.18803
M204 S625
M205 X6 Y6
G0 F3750 X46.615 Y98.884
M204 S500
M205 X5 Y5
G1 F1200 X75.729 Y127.998 E193.91993
M204 S625
M205 X6 Y6
G0 F3750 X76.322 Y127.998
M204 S500
M205 X5 Y5
G1 F1200 X47.209 Y98.884 E194.65182
M204 S625
M205 X6 Y6
G0 F3750 X47.803 Y98.884
M204 S500
M205 X5 Y5
G1 F1200 X76.916 Y127.998 E195.3837
M204 S625
M205 X6 Y6
G0 F3750 X77.51 Y127.998
M204 S500
M205 X5 Y5
G1 F1200 X48.397 Y98.884 E196.11559
M204 S625
M205 X6 Y6
G0 F3750 X48.991 Y98.884
M204 S500
M205 X5 Y5
G1 F1200 X78.104 Y127.998 E196.84747
M204 S625
M205 X6 Y6
G0 F3750 X78.698 Y127.998
M204 S500
M205 X5 Y5
G1 F1200 X49.585 Y98.884 E197.57936
M204 S625
M205 X6 Y6
G0 F3750 X50.179 Y98.884
M204 S500
M205 X5 Y5
G1 F1200 X79.292 Y127.998 E198.31124
M204 S625
M205 X6 Y6
G0 F3750 X79.886 Y127.998
M204 S500
M205 X5 Y5
G1 F1200 X50.773 Y98.884 E199.04313
M204 S625
M205 X6 Y6
G0 F3750 X51.367 Y98.884
M204 S500
M205 X5 Y5
G1 F1200 X80.48 Y127.998 E199.77501
M204 S625
M205 X6 Y6
G0 F3750 X81.074 Y127.998
M204 S500
M205 X5 Y5
G1 F1200 X51.961 Y98.884 E200.5069
M204 S625
M205 X6 Y6
G0 F3750 X52.547 Y98.876
M204 S500
M205 X5 Y5
G1 F1200 X81.668 Y127.998 E201.23898
M204 S625
M205 X6 Y6
G0 F3750 X82.262 Y127.998
M204 S500
M205 X5 Y5
G1 F1200 X53.071 Y98.807 E201.97282
M204 S625
M205 X6 Y6
G0 F3750 X53.542 Y98.683
M204 S500
M205 X5 Y5
G1 F1200 X82.856 Y127.998 E202.70975
M204 S625
M205 X6 Y6
G0 F3750 X83.45 Y127.998
M204 S500
M205 X5 Y5
G1 F1200 X53.961 Y98.509 E203.45108
M204 S625
M205 X6 Y6
G0 F3750 X54.343 Y98.297
M204 S500
M205 X5 Y5
G1 F1200 X84.044 Y127.998 E204.19773
M204 S625
M205 X6 Y6
G0 F3750 X84.638 Y127.998
M204 S500
M205 X5 Y5
G1 F1200 X54.68 Y98.04 E204.95085
M204 S625
M205 X6 Y6
G0 F3750 X54.998 Y97.764
M204 S500
M205 X5 Y5
G1 F1200 X85.232 Y127.998 E205.7109
M204 S625
M205 X6 Y6
G0 F3750 X85.826 Y127.998
M204 S500
M205 X5 Y5
G1 F1200 X55.256 Y97.428 E206.4794
M204 S625
M205 X6 Y6
G0 F3750 X55.514 Y97.092
M204 S500
M205 X5 Y5
G1 F1200 X86.42 Y127.998 E207.25635
M204 S625
M205 X6 Y6
G0 F3750 X87.014 Y127.998
M204 S500
M205 X5 Y5
G1 F1200 X55.689 Y96.673 E208.04383
M204 S625
M205 X6 Y6
G0 F3750 X55.864 Y96.254
M204 S500
M205 X5 Y5
G1 F1200 X87.608 Y127.998 E208.84184
M204 S625
M205 X6 Y6
G0 F3750 X88.202 Y127.998
M204 S500
M205 X5 Y5
G1 F1200 X55.941 Y95.737 E209.65285
M204 S625
M205 X6 Y6
G0 F3750 X55.988 Y95.19
M204 S500
M205 X5 Y5
G1 F1200 X88.796 Y127.998 E210.47761
M204 S625
M205 X6 Y6
G0 F3750 X89.39 Y127.998
M204 S500
M205 X5 Y5
G1 F1200 X55.898 Y94.506 E211.31957
M204 S625
M205 X6 Y6
G0 F3750 X55.553 Y93.567
M204 S500
M205 X5 Y5
G1 F1200 X89.984 Y127.998 E212.18513
M204 S625
M205 X6 Y6
G0 F3750 X90.578 Y127.998
M204 S500
M205 X5 Y5
G1 F1200 X75.519 Y112.939 E212.5637
M204 S625
M205 X6 Y6
G0 F3750 X76.649 Y113.475
M204 S500
M205 X5 Y5
G1 F1200 X91.172 Y127.998 E212.92879
M204 S625
M205 X6 Y6
G0 F3750 X91.766 Y127.998
M204 S500
M205 X5 Y5
G1 F1200 X77.502 Y113.734 E213.28738
M204 S625
M205 X6 Y6
G0 F3750 X78.183 Y113.821
M204 S500
M205 X5 Y5
G1 F1200 X92.36 Y127.998 E213.64377
M204 S625
M205 X6 Y6
G0 F3750 X92.954 Y127.998
M204 S500
M205 X5 Y5
G1 F1200 X78.84 Y113.884 E213.99859
M204 S625
M205 X6 Y6
G0 F3750 X79.434 Y113.884
M204 S500
M205 X5 Y5
G1 F1200 X93.548 Y127.998 E214.3534
M204 S625
M205 X6 Y6
G0 F3750 X94.142 Y127.998
M204 S500
M205 X5 Y5
G1 F1200 X80.028 Y113.884 E214.70821
M204 S625
M205 X6 Y6
G0 F3750 X80.622 Y113.884
M204 S500
M205 X5 Y5
G1 F1200 X94.736 Y127.998 E215.06302
M204 S625
M205 X6 Y6
G0 F3750 X95.33 Y127.998
M204 S500
M205 X5 Y5
G1 F1200 X81.216 Y113.884 E215.41783
M204 S625
M205 X6 Y6
G0 F3750 X81.81 Y113.884
M204 S500
M205 X5 Y5
G1 F1200 X95.923 Y127.998 E215.77263
M204 S625
M205 X6 Y6
G0 F3750 X96.517 Y127.998
M204 S500
M205 X5 Y5
G1 F1200 X82.404 Y113.884 E216.12743
M204 S625
M205 X6 Y6
G0 F3750 X82.998 Y113.884
M204 S500
M205 X5 Y5
G1 F1200 X97.111 Y127.998 E216.48223
M204 S625
M205 X6 Y6
G0 F3750 X97.705 Y127.998
M204 S500
M205 X5 Y5
G1 F1200 X83.592 Y113.884 E216.83703
M204 S625
M205 X6 Y6
G0 F3750 X84.186 Y113.884
M204 S500
M205 X5 Y5
G1 F1200 X98.299 Y127.998 E217.19183
M204 S625
M205 X6 Y6
G0 F3750 X98.893 Y127.998
M204 S500
M205 X5 Y5
G1 F1200 X84.779 Y113.884 E217.54664
M204 S625
M205 X6 Y6
G0 F3750 X85.373 Y113.884
M204 S500
M205 X5 Y5
G1 F1200 X99.487 Y127.998 E217.90146
M204 S625
M205 X6 Y6
G0 F3750 X100.081 Y127.998
M204 S500
M205 X5 Y5
G1 F1200 X85.967 Y113.884 E218.25627
M204 S625
M205 X6 Y6
G0 F3750 X86.561 Y113.884
M204 S500
M205 X5 Y5
G1 F1200 X100.675 Y127.998 E218.61108
M204 S625
M205 X6 Y6
G0 F3750 X101.269 Y127.998
M204 S500
M205 X5 Y5
G1 F1200 X87.155 Y113.884 E218.96589
M204 S625
M205 X6 Y6
G0 F3750 X87.749 Y113.884
M204 S500
M205 X5 Y5
G1 F1200 X101.863 Y127.998 E219.32071
M204 S625
M205 X6 Y6
G0 F3750 X102.457 Y127.998
M204 S500
M205 X5 Y5
G1 F1200 X88.343 Y113.884 E219.67552
M204 S625
M205 X6 Y6
G0 F3750 X88.937 Y113.884
M204 S500
M205 X5 Y5
G1 F1200 X103.051 Y127.998 E220.03033
M204 S625
M205 X6 Y6
G0 F3750 X103.645 Y127.998
M204 S500
M205 X5 Y5
G1 F1200 X89.48 Y113.832 E220.38644
M204 S625
M205 X6 Y6
G0 F3750 X90.021 Y113.779
M204 S500
M205 X5 Y5
G1 F1200 X104.239 Y127.998 E220.74388
M204 S625
M205 X6 Y6
G0 F3750 X104.833 Y127.998
M204 S500
M205 X5 Y5
G1 F1200 X90.501 Y113.666 E221.10417
M204 S625
M205 X6 Y6
G0 F3750 X90.956 Y113.527
M204 S500
M205 X5 Y5
G1 F1200 X105.427 Y127.998 E221.46796
M204 S625
M205 X6 Y6
G0 F3750 X106.021 Y127.998
M204 S500
M205 X5 Y5
G1 F1200 X91.412 Y113.389 E221.83521
M204 S625
M205 X6 Y6
G0 F3750 X91.8 Y113.183
M204 S500
M205 X5 Y5
G1 F1200 X106.615 Y127.998 E222.20765
M204 S625
M205 X6 Y6
G0 F3750 X107.209 Y127.998
M204 S500
M205 X5 Y5
G1 F1200 X92.186 Y112.975 E222.58531
M204 S625
M205 X6 Y6
G0 F3750 X92.57 Y112.765
M204 S500
M205 X5 Y5
G1 F1200 X107.803 Y127.998 E222.96825
M204 S625
M205 X6 Y6
G0 F3750 X108.397 Y127.998
M204 S500
M205 X5 Y5
G1 F1200 X92.897 Y112.498 E223.35791
M204 S625
M205 X6 Y6
G0 F3750 X93.224 Y112.231
M204 S500
M205 X5 Y5
G1 F1200 X108.991 Y127.998 E223.75427
M204 S625
M205 X6 Y6
G0 F3750 X109.585 Y127.998
M204 S500
M205 X5 Y5
G1 F1200 X93.55 Y111.963 E224.15738
M204 S625
M205 X6 Y6
G0 F3750 X93.818 Y111.638
M204 S500
M205 X5 Y5
G1 F1200 X110.179 Y127.998 E224.56867
M204 S625
M205 X6 Y6
G0 F3750 X110.773 Y127.998
M204 S500
M205 X5 Y5
G1 F1200 X94.086 Y111.311 E224.98816
M204 S625
M205 X6 Y6
G0 F3750 X94.354 Y110.985
M204 S500
M205 X5 Y5
G1 F1200 X111.367 Y127.998 E225.41585
M204 S625
M205 X6 Y6
G0 F3750 X111.961 Y127.998
M204 S500
M205 X5 Y5
G1 F1200 X94.567 Y110.604 E225.85312
M204 S625
M205 X6 Y6
G0 F3750 X94.774 Y110.217
M204 S500
M205 X5 Y5
G1 F1200 X112.555 Y127.998 E226.30012
M204 S625
M205 X6 Y6
G0 F3750 X113.149 Y127.998
M204 S500
M205 X5 Y5
G1 F1200 X94.981 Y109.83 E226.75684
M204 S625
M205 X6 Y6
G0 F3750 X95.122 Y109.377
M204 S500
M205 X5 Y5
G1 F1200 X113.743 Y127.998 E227.22496
M204 S625
M205 X6 Y6
G0 F3750 X114.337 Y127.998
M204 S500
M205 X5 Y5
G1 F1200 X95.26 Y108.922 E227.70452
M204 S625
M205 X6 Y6
G0 F3750 X95.378 Y108.446
M204 S500
M205 X5 Y5
G1 F1200 X114.931 Y127.998 E228.19605
M204 S625
M205 X6 Y6
G0 F3750 X115.524 Y127.998
M204 S500
M205 X5 Y5
G1 F1200 X95.433 Y107.906 E228.70113
M204 S625
M205 X6 Y6
G0 F3750 X95.487 Y107.367
M204 S500
M205 X5 Y5
G1 F1200 X116.118 Y127.998 E229.21978
M204 S625
M205 X6 Y6
G0 F3750 X116.712 Y127.998
M204 S500
M205 X5 Y5
G1 F1200 X95.441 Y106.727 E229.75451
M204 S625
M205 X6 Y6
G0 F3750 X95.372 Y106.063
M204 S500
M205 X5 Y5
G1 F1200 X117.306 Y127.998 E230.30592
M204 S625
M205 X6 Y6
G0 F3750 X117.9 Y127.998
M204 S500
M205 X5 Y5
G1 F1200 X95.136 Y105.234 E230.87818
M204 S625
M205 X6 Y6
G0 F3750 X94.692 Y104.196
M204 S500
M205 X5 Y5
G1 F1200 X118.494 Y127.998 E231.47654
M204 S625
M205 X6 Y6
G0 F3750 X119.088 Y127.998
M204 S500
M205 X5 Y5
G1 F1200 X78.091 Y87.001 E232.50717
M204 S625
M205 X6 Y6
G0 F3750 X77.497 Y87.001
M204 S500
M205 X5 Y5
G1 F1200 X91.972 Y101.476 E232.87106
M204 S625
M205 X6 Y6
G0 F3750 X90.935 Y101.032
M204 S500
M205 X5 Y5
G1 F1200 X76.903 Y87.001 E233.22379
M204 S625
M205 X6 Y6
G0 F3750 X76.309 Y87.001
M204 S500
M205 X5 Y5
G1 F1200 X90.105 Y100.796 E233.5706
M204 S625
M205 X6 Y6
G0 F3750 X89.444 Y100.73
M204 S500
M205 X5 Y5
G1 F1200 X75.715 Y87.001 E233.91573
M204 S625
M205 X6 Y6
G0 F3750 X75.121 Y87.001
M204 S500
M205 X5 Y5
G1 F1200 X88.802 Y100.682 E234.25966
M204 S625
M205 X6 Y6
G0 F3750 X88.208 Y100.682
M204 S500
M205 X5 Y5
G1 F1200 X74.527 Y87.001 E234.60359
M204 S625
M205 X6 Y6
G0 F3750 X73.933 Y87.001
M204 S500
M205 X5 Y5
G1 F1200 X87.614 Y100.682 E234.94751
M204 S625
M205 X6 Y6
G0 F3750 X87.02 Y100.682
M204 S500
M205 X5 Y5
G1 F1200 X73.339 Y87.001 E235.29144
M204 S625
M205 X6 Y6
G0 F3750 X72.745 Y87.001
M204 S500
M205 X5 Y5
G1 F1200 X86.426 Y100.682 E235.63537
M204 S625
M205 X6 Y6
G0 F3750 X85.832 Y100.682
M204 S500
M205 X5 Y5
G1 F1200 X72.151 Y87.001 E235.9793
M204 S625
M205 X6 Y6
G0 F3750 X71.557 Y87.001
M204 S500
M205 X5 Y5
G1 F1200 X85.238 Y100.682 E236.32322
M204 S625
M205 X6 Y6
G0 F3750 X84.644 Y100.682
M204 S500
M205 X5 Y5
G1 F1200 X70.963 Y87.001 E236.66715
M204 S625
M205 X6 Y6
G0 F3750 X70.369 Y87.001
M204 S500
M205 X5 Y5
G1 F1200 X84.05 Y100.682 E237.01108
M204 S625
M205 X6 Y6
G0 F3750 X83.456 Y100.682
M204 S500
M205 X5 Y5
G1 F1200 X69.775 Y87.001 E237.355
M204 S625
M205 X6 Y6
G0 F3750 X69.181 Y87.001
M204 S500
M205 X5 Y5
G1 F1200 X82.863 Y100.682 E237.69894
M204 S625
M205 X6 Y6
G0 F3750 X82.269 Y100.682
M204 S500
M205 X5 Y5
G1 F1200 X68.587 Y87.001 E238.04288
M204 S625
M205 X6 Y6
G0 F3750 X67.993 Y87.001
M204 S500
M205 X5 Y5
G1 F1200 X81.675 Y100.682 E238.38682
M204 S625
M205 X6 Y6
G0 F3750 X81.081 Y100.682
M204 S500
M205 X5 Y5
G1 F1200 X67.4 Y87.001 E238.73075
M204 S625
M205 X6 Y6
G0 F3750 X66.806 Y87.001
M204 S500
M205 X5 Y5
G1 F1200 X80.487 Y100.682 E239.07468
M204 S625
M205 X6 Y6
G0 F3750 X79.893 Y100.682
M204 S500
M205 X5 Y5
G1 F1200 X66.212 Y87.001 E239.4186
M204 S625
M205 X6 Y6
G0 F3750 X65.618 Y87.001
M204 S500
M205 X5 Y5
G1 F1200 X79.299 Y100.682 E239.76253
M204 S625
M205 X6 Y6
G0 F3750 X78.715 Y100.692
M204 S500
M205 X5 Y5
G1 F1200 X65.024 Y87.001 E240.10671
M204 S625
M205 X6 Y6
G0 F3750 X64.43 Y87.001
M204 S500
M205 X5 Y5
G1 F1200 X78.174 Y100.745 E240.45222
M204 S625
M205 X6 Y6
G0 F3750 X77.633 Y100.798
M204 S500
M205 X5 Y5
G1 F1200 X63.836 Y87.001 E240.79906
M204 S625
M205 X6 Y6
G0 F3750 X63.242 Y87.001
M204 S500
M205 X5 Y5
G1 F1200 X77.172 Y100.931 E241.14925
M204 S625
M205 X6 Y6
G0 F3750 X76.716 Y101.068
M204 S500
M205 X5 Y5
G1 F1200 X62.648 Y87.001 E241.50289
M204 S625
M205 X6 Y6
G0 F3750 X62.054 Y87.001
M204 S500
M205 X5 Y5
G1 F1200 X76.274 Y101.221 E241.86037
M204 S625
M205 X6 Y6
G0 F3750 X75.887 Y101.428
M204 S500
M205 X5 Y5
G1 F1200 X61.46 Y87.001 E242.22305
M204 S625
M205 X6 Y6
G0 F3750 X60.866 Y87.001
M204 S500
M205 X5 Y5
G1 F1200 X75.5 Y101.635 E242.59093
M204 S625
M205 X6 Y6
G0 F3750 X75.13 Y101.858
M204 S500
M205 X5 Y5
G1 F1200 X60.272 Y87.001 E242.96444
M204 S625
M205 X6 Y6
G0 F3750 X59.678 Y87.001
M204 S500
M205 X5 Y5
G1 F1200 X74.803 Y102.126 E243.34467
M204 S625
M205 X6 Y6
G0 F3750 X74.477 Y102.394
M204 S500
M205 X5 Y5
G1 F1200 X59.084 Y87.001 E243.73163
M204 S625
M205 X6 Y6
G0 F3750 X58.49 Y87.001
M204 S500
M205 X5 Y5
G1 F1200 X74.162 Y102.673 E244.12561
M204 S625
M205 X6 Y6
G0 F3750 X73.895 Y103
M204 S500
M205 X5 Y5
G1 F1200 X57.896 Y87.001 E244.52781
M204 S625
M205 X6 Y6
G0 F3750 X57.302 Y87.001
M204 S500
M205 X5 Y5
G1 F1200 X73.627 Y103.325 E244.93819
M204 S625
M205 X6 Y6
G0 F3750 X73.367 Y103.659
M204 S500
M205 X5 Y5
G1 F1200 X56.708 Y87.001 E245.35697
