;START_OF_HEADER
;HEADER_VERSION:0.1
;FLAVOR:Griffin
;GENERATOR.NAME:Cura_SteamEngine
;GENERATOR.VERSION:4.7.1
;GENERATOR.BUILD_DATE:2020-09-02
;TARGET_MACHINE.NAME:Ultimaker 3
;EXTRUDER_TRAIN.0.INITIAL_TEMPERATURE:205
;EXTRUDER_TRAIN.0.MATERIAL.VOLUME_USED:2437
;EXTRUDER_TRAIN.0.MATERIAL.GUID:506c9f0d-e3aa-4bd4-b2d2-23e2425b1aa9
;EXTRUDER_TRAIN.0.NOZZLE.DIAMETER:0.4
;EXTRUDER_TRAIN.0.NOZZLE.NAME:AA 0.4
;BUILD_PLATE.TYPE:glass
;BUILD_PLATE.INITIAL_TEMPERATURE:60
;PRINT.TIME:2533
;PRINT.GROUPS:1
;PRINT.SIZE.MIN.X:9
;PRINT.SIZE.MIN.Y:6
;PRINT.SIZE.MIN.Z:0.27
;PRINT.SIZE.MAX.X:138.43
;PRINT.SIZE.MAX.Y:134.926
;PRINT.SIZE.MAX.Z:5.67
;END_OF_HEADER
;Generated with Cura_SteamEngine 4.7.1
T0
M82 ;absolute extrusion mode

G92 E0
M109 S205
G0 F15000 X9 Y6 Z2
G280
G1 F1500 E-6.5
;LAYER_COUNT:48
;LAYER:0
M107
M204 S625
M205 X6 Y6
G1 F600 Z2.27
G0 F4285.7 X96.439 Y85.265 Z2.27
M204 S500
M205 X5 Y5
;TYPE:SKIRT
G1 F600 Z0.27
G1 F1500 E0
G1 F1200 X96.976 Y84.75 E0.01323
G1 X97.565 Y84.295 E0.02646
G1 X98.199 Y83.906 E0.03968
G1 X98.872 Y83.587 E0.05292
G1 X99.575 Y83.343 E0.06615
G1 X100.3 Y83.175 E0.07937
G1 X101.039 Y83.085 E0.09261
G1 X101.499 Y83.07 E0.10079
G1 X107.803 Y83.07 E0.21285
G1 X107.961 Y82.835 E0.21788
G1 X108.44 Y82.265 E0.23112
G1 X108.977 Y81.75 E0.24434
G1 X109.566 Y81.295 E0.25757
G1 X110.2 Y80.906 E0.2708
G1 X110.873 Y80.587 E0.28404
G1 X111.576 Y80.342 E0.29727
G1 X112.301 Y80.174 E0.3105
G1 X113.04 Y80.085 E0.32373
G1 X113.5 Y80.07 E0.33191
G1 X119.5 Y80.07 E0.43857
G1 X120.243 Y80.11 E0.45179
G1 X120.978 Y80.229 E0.46503
G1 X121.696 Y80.427 E0.47827
G1 X122.388 Y80.7 E0.49149
G1 X123.047 Y81.046 E0.50472
G1 X123.665 Y81.461 E0.51796
G1 X124.235 Y81.94 E0.53119
G1 X124.75 Y82.477 E0.54442
G1 X125.207 Y83.07 E0.55772
G1 X131.5 Y83.07 E0.66959
G1 X132.243 Y83.11 E0.68282
G1 X132.978 Y83.229 E0.69605
G1 X133.696 Y83.427 E0.70929
G1 X134.388 Y83.7 E0.72251
G1 X135.047 Y84.046 E0.73574
G1 X135.665 Y84.461 E0.74898
G1 X136.235 Y84.94 E0.76221
G1 X136.75 Y85.477 E0.77544
G1 X137.205 Y86.066 E0.78867
G1 X137.594 Y86.7 E0.80189
G1 X137.913 Y87.373 E0.81513
G1 X138.158 Y88.076 E0.82836
G1 X138.326 Y88.801 E0.84159
G1 X138.415 Y89.54 E0.85482
G1 X138.43 Y90 E0.86301
G1 X138.429 Y113.026 E1.27232
G1 X138.425 Y113.251 E1.27632
G1 X138.394 Y114.205 E1.29328
G1 X138.365 Y114.657 E1.30133
G1 X138.269 Y115.635 E1.3188
G1 X138.211 Y116.08 E1.32678
G1 X138.052 Y117.049 E1.34423
G1 X137.96 Y117.511 E1.35261
G1 X137.736 Y118.465 E1.37003
G1 X137.621 Y118.892 E1.37789
G1 X137.336 Y119.832 E1.39535
G1 X137.188 Y120.267 E1.40352
G1 X136.841 Y121.187 E1.421
G1 X136.671 Y121.597 E1.42889
G1 X136.267 Y122.49 E1.44631
G1 X136.063 Y122.904 E1.45451
G1 X135.6 Y123.769 E1.47195
G1 X135.38 Y124.15 E1.47977
G1 X134.863 Y124.984 E1.49722
G1 X134.603 Y125.374 E1.50555
G1 X134.031 Y126.171 E1.52299
G1 X133.758 Y126.527 E1.53096
G1 X133.135 Y127.286 E1.54842
G1 X132.838 Y127.624 E1.55641
G1 X132.167 Y128.341 E1.57387
G1 X131.842 Y128.666 E1.58204
G1 X131.124 Y129.338 E1.59952
G1 X130.785 Y129.635 E1.60753
G1 X130.027 Y130.257 E1.62496
G1 X129.672 Y130.53 E1.63292
G1 X128.875 Y131.102 E1.65036
G1 X128.488 Y131.36 E1.65863
G1 X127.655 Y131.877 E1.67606
G1 X127.271 Y132.099 E1.68394
G1 X126.404 Y132.563 E1.70142
G1 X125.99 Y132.767 E1.70963
G1 X125.097 Y133.171 E1.72705
G1 X124.687 Y133.341 E1.73494
G1 X123.767 Y133.688 E1.75242
G1 X123.332 Y133.836 E1.76059
G1 X122.392 Y134.121 E1.77805
G1 X121.958 Y134.237 E1.78603
G1 X121.004 Y134.46 E1.80345
G1 X120.556 Y134.549 E1.81157
G1 X119.587 Y134.709 E1.82903
G1 X119.135 Y134.769 E1.83713
G1 X118.157 Y134.865 E1.8546
G1 X117.706 Y134.894 E1.86263
G1 X116.726 Y134.926 E1.88006
G1 X116.274 Y134.926 E1.8881
G1 X115.294 Y134.894 E1.90553
G1 X114.843 Y134.865 E1.91356
G1 X113.865 Y134.769 E1.93103
G1 X113.42 Y134.711 E1.93901
G1 X112.451 Y134.552 E1.95646
G1 X111.989 Y134.46 E1.96483
G1 X111.035 Y134.236 E1.98225
G1 X110.608 Y134.121 E1.99011
G1 X109.668 Y133.836 E2.00758
G1 X109.233 Y133.688 E2.01574
G1 X108.313 Y133.341 E2.03322
G1 X107.903 Y133.171 E2.04111
G1 X107.01 Y132.767 E2.05853
G1 X106.596 Y132.563 E2.06674
G1 X105.729 Y132.099 E2.08422
G1 X105.345 Y131.877 E2.0921
G1 X104.512 Y131.36 E2.10953
G1 X104.125 Y131.102 E2.1178
G1 X103.328 Y130.53 E2.13524
G1 X102.973 Y130.257 E2.1432
G1 X102.215 Y129.635 E2.16063
G1 X101.876 Y129.338 E2.16864
G1 X101.158 Y128.666 E2.18612
G1 X100.833 Y128.341 E2.19429
G1 X100.162 Y127.624 E2.21175
G1 X99.865 Y127.286 E2.21975
G1 X99.242 Y126.527 E2.2372
G1 X98.969 Y126.171 E2.24517
G1 X98.397 Y125.374 E2.26261
G1 X98.137 Y124.984 E2.27095
G1 X97.62 Y124.15 E2.28839
G1 X97.4 Y123.769 E2.29621
G1 X96.937 Y122.904 E2.31365
G1 X96.733 Y122.49 E2.32185
G1 X96.329 Y121.597 E2.33928
G1 X96.159 Y121.187 E2.34717
G1 X95.812 Y120.267 E2.36464
G1 X95.664 Y119.832 E2.37281
G1 X95.379 Y118.892 E2.39027
G1 X95.263 Y118.458 E2.39826
G1 X95.04 Y117.504 E2.41567
G1 X94.951 Y117.056 E2.42379
G1 X94.791 Y116.087 E2.44125
G1 X94.731 Y115.635 E2.44936
G1 X94.635 Y114.657 E2.46682
G1 X94.606 Y114.206 E2.47486
G1 X94.574 Y113.226 E2.49229
G1 X94.57 Y113 E2.49631
G1 X94.569 Y90 E2.90515
G1 X94.609 Y89.257 E2.91838
G1 X94.728 Y88.522 E2.93162
G1 X94.926 Y87.805 E2.94484
G1 X95.199 Y87.112 E2.95808
G1 X95.545 Y86.453 E2.97131
G1 X95.96 Y85.835 E2.98454
G1 X96.439 Y85.265 E2.99778
M204 S625
M205 X6 Y6
G0 F4285.7 X96.853 Y85.44
M204 S500
M205 X5 Y5
G1 F1200 X97.386 Y84.954 E3.0106
G1 X97.969 Y84.53 E3.02341
G1 X98.596 Y84.173 E3.03624
G1 X99.259 Y83.888 E3.04907
G1 X99.949 Y83.677 E3.06189
G1 X100.658 Y83.545 E3.07471
G1 X101.499 Y83.49 E3.08969
G1 X108.023 Y83.49 E3.20566
G1 X108.378 Y82.982 E3.21668
G1 X108.854 Y82.44 E3.2295
G1 X109.387 Y81.954 E3.24233
G1 X109.971 Y81.53 E3.25515
G1 X110.598 Y81.173 E3.26798
G1 X111.26 Y80.887 E3.2808
G1 X111.95 Y80.677 E3.29362
G1 X112.659 Y80.545 E3.30644
G1 X113.5 Y80.49 E3.32142
G1 X119.5 Y80.49 E3.42808
G1 X120.22 Y80.53 E3.4409
G1 X120.932 Y80.649 E3.45373
G1 X121.626 Y80.847 E3.46656
G1 X122.293 Y81.12 E3.47937
G1 X122.927 Y81.465 E3.4922
G1 X123.518 Y81.878 E3.50501
G1 X124.06 Y82.354 E3.51784
G1 X124.546 Y82.887 E3.53066
G1 X124.97 Y83.471 E3.54349
G1 X124.981 Y83.49 E3.54388
G1 X131.5 Y83.49 E3.65976
G1 X132.22 Y83.53 E3.67258
G1 X132.932 Y83.649 E3.68541
G1 X133.626 Y83.847 E3.69824
G1 X134.293 Y84.12 E3.71105
G1 X134.927 Y84.465 E3.72388
G1 X135.518 Y84.878 E3.7367
G1 X136.06 Y85.354 E3.74952
G1 X136.546 Y85.887 E3.76234
G1 X136.97 Y86.471 E3.77517
G1 X137.327 Y87.098 E3.788
G1 X137.613 Y87.76 E3.80082
G1 X137.823 Y88.45 E3.81364
G1 X137.955 Y89.159 E3.82646
G1 X138.01 Y90 E3.84144
G1 X138.009 Y113.026 E4.25075
G1 X138.006 Y113.237 E4.2545
G1 X137.975 Y114.191 E4.27147
G1 X137.947 Y114.616 E4.27904
G1 X137.851 Y115.594 E4.2965
G1 X137.796 Y116.012 E4.304
G1 X137.637 Y116.981 E4.32145
G1 X137.551 Y117.415 E4.32932
G1 X137.327 Y118.369 E4.34674
G1 X137.219 Y118.77 E4.35412
G1 X136.934 Y119.71 E4.37158
G1 X136.795 Y120.118 E4.37924
G1 X136.448 Y121.038 E4.39672
G1 X136.288 Y121.424 E4.40415
G1 X135.884 Y122.317 E4.42157
G1 X135.693 Y122.706 E4.42928
G1 X135.23 Y123.571 E4.44672
G1 X135.023 Y123.929 E4.45407
G1 X134.506 Y124.763 E4.47151
G1 X134.262 Y125.129 E4.47933
G1 X133.69 Y125.926 E4.49677
G1 X133.433 Y126.26 E4.50426
G1 X132.81 Y127.019 E4.52171
G1 X132.531 Y127.337 E4.52923
G1 X131.86 Y128.054 E4.54669
G1 X131.555 Y128.359 E4.55436
G1 X130.837 Y129.031 E4.57184
G1 X130.519 Y129.311 E4.57937
G1 X129.761 Y129.933 E4.5968
G1 X129.427 Y130.189 E4.60428
G1 X128.63 Y130.761 E4.62172
G1 X128.267 Y131.003 E4.62947
G1 X127.434 Y131.52 E4.6469
G1 X127.073 Y131.729 E4.65432
G1 X126.206 Y132.193 E4.6718
G1 X125.817 Y132.384 E4.6795
G1 X124.924 Y132.788 E4.69692
G1 X124.538 Y132.948 E4.70435
G1 X123.618 Y133.295 E4.72183
G1 X123.21 Y133.434 E4.72949
G1 X122.27 Y133.719 E4.74695
G1 X121.863 Y133.828 E4.75444
G1 X120.909 Y134.051 E4.77186
G1 X120.488 Y134.135 E4.77949
G1 X119.519 Y134.295 E4.79695
G1 X119.094 Y134.351 E4.80457
G1 X118.116 Y134.447 E4.82204
G1 X117.692 Y134.475 E4.82959
G1 X116.712 Y134.507 E4.84702
G1 X116.288 Y134.507 E4.85456
G1 X115.308 Y134.475 E4.87199
G1 X114.884 Y134.447 E4.87954
G1 X113.906 Y134.351 E4.89701
G1 X113.488 Y134.296 E4.9045
G1 X112.519 Y134.137 E4.92196
G1 X112.085 Y134.051 E4.92982
G1 X111.131 Y133.827 E4.94724
G1 X110.73 Y133.719 E4.95462
G1 X109.79 Y133.434 E4.97208
G1 X109.382 Y133.295 E4.97975
G1 X108.462 Y132.948 E4.99722
G1 X108.076 Y132.788 E5.00465
G1 X107.183 Y132.384 E5.02207
G1 X106.794 Y132.193 E5.02978
G1 X105.927 Y131.729 E5.04726
G1 X105.566 Y131.52 E5.05467
G1 X104.733 Y131.003 E5.0721
G1 X104.37 Y130.761 E5.07986
G1 X103.573 Y130.189 E5.09729
G1 X103.239 Y129.933 E5.10477
G1 X102.481 Y129.311 E5.1222
G1 X102.163 Y129.031 E5.12974
G1 X101.445 Y128.359 E5.14722
G1 X101.14 Y128.054 E5.15489
G1 X100.469 Y127.337 E5.17234
G1 X100.19 Y127.019 E5.17986
G1 X99.567 Y126.26 E5.19732
G1 X99.31 Y125.926 E5.20481
G1 X98.738 Y125.129 E5.22225
G1 X98.494 Y124.763 E5.23007
G1 X97.977 Y123.929 E5.24751
G1 X97.77 Y123.571 E5.25486
G1 X97.307 Y122.706 E5.2723
G1 X97.116 Y122.317 E5.28
G1 X96.712 Y121.424 E5.29743
G1 X96.552 Y121.038 E5.30485
G1 X96.205 Y120.118 E5.32233
G1 X96.066 Y119.71 E5.32999
G1 X95.781 Y118.77 E5.34745
G1 X95.672 Y118.363 E5.35494
G1 X95.449 Y117.409 E5.37236
G1 X95.365 Y116.988 E5.37999
G1 X95.205 Y116.019 E5.39745
G1 X95.149 Y115.594 E5.40507
G1 X95.053 Y114.616 E5.42254
G1 X95.025 Y114.192 E5.43009
G1 X94.993 Y113.212 E5.44752
G1 X94.99 Y113 E5.45129
G1 X94.989 Y90 E5.86014
G1 X95.029 Y89.28 E5.87296
G1 X95.148 Y88.569 E5.88577
G1 X95.346 Y87.875 E5.8986
G1 X95.619 Y87.207 E5.91143
G1 X95.964 Y86.573 E5.92426
G1 X96.377 Y85.982 E5.93707
G1 X96.853 Y85.44 E5.9499
M204 S625
M205 X6 Y6
G0 F4285.7 X97.266 Y85.621
M204 S500
M205 X5 Y5
G1 F1200 X97.795 Y85.166 E5.9623
G1 X98.372 Y84.774 E5.9747
G1 X98.99 Y84.451 E5.98709
G1 X99.642 Y84.2 E5.99951
G1 X100.317 Y84.026 E6.0119
G1 X101.008 Y83.93 E6.02431
G1 X101.499 Y83.91 E6.03304
G1 X108.263 Y83.91 E6.15328
G1 X108.383 Y83.698 E6.15761
G1 X108.795 Y83.134 E6.17002
G1 X109.268 Y82.621 E6.18243
G1 X109.796 Y82.166 E6.19482
G1 X110.373 Y81.774 E6.20722
G1 X110.992 Y81.451 E6.21963
G1 X111.643 Y81.2 E6.23203
G1 X112.319 Y81.026 E6.24444
G1 X113.01 Y80.93 E6.25684
G1 X113.5 Y80.91 E6.26556
G1 X119.5 Y80.91 E6.37221
G1 X120.197 Y80.95 E6.38462
G1 X120.884 Y81.069 E6.39702
G1 X121.553 Y81.267 E6.40942
G1 X122.196 Y81.539 E6.42183
G1 X122.802 Y81.883 E6.43422
G1 X123.366 Y82.295 E6.44663
G1 X123.879 Y82.768 E6.45904
G1 X124.334 Y83.296 E6.47143
G1 X124.726 Y83.873 E6.48383
G1 X124.745 Y83.91 E6.48457
G1 X131.5 Y83.91 E6.60464
G1 X132.197 Y83.95 E6.61705
G1 X132.884 Y84.069 E6.62945
G1 X133.553 Y84.267 E6.64185
G1 X134.196 Y84.539 E6.65426
G1 X134.802 Y84.883 E6.66665
G1 X135.366 Y85.295 E6.67906
G1 X135.879 Y85.768 E6.69147
G1 X136.334 Y86.296 E6.70386
G1 X136.726 Y86.873 E6.71626
G1 X137.049 Y87.492 E6.72867
G1 X137.3 Y88.143 E6.74107
G1 X137.474 Y88.819 E6.75348
G1 X137.57 Y89.51 E6.76588
G1 X137.59 Y90 E6.7746
G1 X137.589 Y113.026 E7.18391
G1 X137.586 Y113.224 E7.18743
G1 X137.555 Y114.178 E7.20439
G1 X137.529 Y114.575 E7.21147
G1 X137.433 Y115.553 E7.22893
G1 X137.382 Y115.944 E7.23594
G1 X137.223 Y116.913 E7.2534
G1 X137.142 Y117.319 E7.26076
G1 X136.918 Y118.273 E7.27818
G1 X136.817 Y118.648 E7.28508
G1 X136.532 Y119.588 E7.30254
G1 X136.402 Y119.97 E7.30971
G1 X136.055 Y120.89 E7.32719
G1 X135.906 Y121.251 E7.33413
G1 X135.502 Y122.144 E7.35156
G1 X135.322 Y122.508 E7.35878
G1 X134.859 Y123.373 E7.37622
G1 X134.666 Y123.708 E7.38309
G1 X134.149 Y124.542 E7.40053
G1 X133.921 Y124.884 E7.40784
G1 X133.349 Y125.681 E7.42528
G1 X133.108 Y125.994 E7.4323
G1 X132.485 Y126.753 E7.44975
G1 X132.225 Y127.05 E7.45677
G1 X131.554 Y127.767 E7.47423
G1 X131.268 Y128.052 E7.4814
G1 X130.55 Y128.724 E7.49888
G1 X130.252 Y128.986 E7.50594
G1 X129.494 Y129.608 E7.52337
G1 X129.182 Y129.848 E7.53037
G1 X128.385 Y130.42 E7.5478
G1 X128.045 Y130.646 E7.55506
G1 X127.212 Y131.163 E7.57249
G1 X126.875 Y131.358 E7.57941
G1 X126.008 Y131.822 E7.59689
G1 X125.644 Y132.002 E7.60411
G1 X124.751 Y132.406 E7.62153
G1 X124.39 Y132.555 E7.62847
G1 X123.47 Y132.902 E7.64595
G1 X123.088 Y133.032 E7.65312
G1 X122.148 Y133.317 E7.67058
G1 X121.767 Y133.419 E7.6776
G1 X120.813 Y133.642 E7.69501
G1 X120.419 Y133.721 E7.70215
G1 X119.45 Y133.881 E7.71961
G1 X119.053 Y133.933 E7.72673
G1 X118.075 Y134.029 E7.7442
G1 X117.679 Y134.055 E7.75125
G1 X116.699 Y134.087 E7.76868
G1 X116.301 Y134.087 E7.77576
G1 X115.321 Y134.055 E7.79319
G1 X114.925 Y134.029 E7.80024
G1 X113.947 Y133.933 E7.81771
G1 X113.556 Y133.882 E7.82472
G1 X112.587 Y133.723 E7.84217
G1 X112.181 Y133.642 E7.84953
G1 X111.227 Y133.418 E7.86695
G1 X110.852 Y133.317 E7.87386
G1 X109.912 Y133.032 E7.89132
G1 X109.53 Y132.902 E7.89849
G1 X108.61 Y132.555 E7.91597
G1 X108.249 Y132.406 E7.92291
G1 X107.356 Y132.002 E7.94033
G1 X106.992 Y131.822 E7.94755
G1 X106.125 Y131.358 E7.96503
G1 X105.788 Y131.163 E7.97195
G1 X104.955 Y130.646 E7.98938
G1 X104.615 Y130.42 E7.99664
G1 X103.818 Y129.848 E8.01408
G1 X103.506 Y129.608 E8.02107
G1 X102.748 Y128.986 E8.0385
G1 X102.45 Y128.724 E8.04556
G1 X101.732 Y128.052 E8.06304
G1 X101.446 Y127.767 E8.07022
G1 X100.775 Y127.05 E8.08767
G1 X100.515 Y126.753 E8.09469
G1 X99.892 Y125.994 E8.11214
G1 X99.651 Y125.681 E8.11917
G1 X99.079 Y124.884 E8.1366
G1 X98.851 Y124.542 E8.14391
G1 X98.334 Y123.708 E8.16135
G1 X98.141 Y123.373 E8.16823
G1 X97.678 Y122.508 E8.18567
G1 X97.498 Y122.144 E8.19288
G1 X97.094 Y121.251 E8.21031
G1 X96.945 Y120.89 E8.21725
G1 X96.598 Y119.97 E8.23473
G1 X96.468 Y119.588 E8.2419
G1 X96.183 Y118.648 E8.25936
G1 X96.081 Y118.267 E8.26637
G1 X95.858 Y117.313 E8.28379
G1 X95.779 Y116.919 E8.29093
G1 X95.619 Y115.95 E8.30839
G1 X95.567 Y115.553 E8.31551
G1 X95.471 Y114.575 E8.33298
G1 X95.445 Y114.179 E8.34003
G1 X95.413 Y113.199 E8.35746
G1 X95.41 Y113 E8.361
G1 X95.409 Y90 E8.76984
G1 X95.449 Y89.304 E8.78224
G1 X95.568 Y88.616 E8.79465
G1 X95.765 Y87.947 E8.80705
G1 X96.038 Y87.305 E8.81945
G1 X96.382 Y86.698 E8.83185
G1 X96.793 Y86.134 E8.84425
G1 X97.266 Y85.621 E8.85666
M204 S625
M205 X6 Y6
G0 F4285.7 X97.209 Y86.292
M204 S500
M205 X5 Y5
G1 F1200 X97.679 Y85.81 E8.86863
G1 X98.203 Y85.387 E8.8806
G1 X98.773 Y85.029 E8.89256
G1 X99.381 Y84.74 E8.90453
G1 X100.019 Y84.526 E8.91649
G1 X100.678 Y84.39 E8.92845
G1 X101.499 Y84.33 E8.94308
G1 X108.503 Y84.33 E9.06759
G1 X108.801 Y83.827 E9.07798
G1 X109.21 Y83.292 E9.08995
G1 X109.68 Y82.81 E9.10192
G1 X110.204 Y82.387 E9.11389
G1 X110.774 Y82.028 E9.12586
G1 X111.382 Y81.74 E9.13782
G1 X112.02 Y81.526 E9.14978
G1 X112.68 Y81.39 E9.16176
G1 X113.5 Y81.33 E9.17638
G1 X119.5 Y81.33 E9.28303
G1 X120.172 Y81.37 E9.295
G1 X120.835 Y81.489 E9.30697
G1 X121.478 Y81.686 E9.31893
G1 X122.094 Y81.958 E9.3309
G1 X122.673 Y82.301 E9.34286
G1 X123.208 Y82.71 E9.35483
G1 X123.69 Y83.18 E9.3668
G1 X124.113 Y83.704 E9.37877
G1 X124.472 Y84.274 E9.39074
G1 X124.499 Y84.33 E9.39185
G1 X131.5 Y84.33 E9.5163
G1 X132.172 Y84.37 E9.52827
G1 X132.835 Y84.489 E9.54024
G1 X133.478 Y84.686 E9.55219
G1 X134.094 Y84.958 E9.56416
G1 X134.673 Y85.301 E9.57613
G1 X135.208 Y85.71 E9.5881
G1 X135.69 Y86.18 E9.60006
G1 X136.113 Y86.704 E9.61204
G1 X136.472 Y87.274 E9.62401
G1 X136.76 Y87.882 E9.63597
G1 X136.974 Y88.52 E9.64793
G1 X137.11 Y89.18 E9.65991
G1 X137.17 Y90 E9.67452
G1 X137.169 Y113.026 E10.08383
G1 X137.166 Y113.21 E10.08711
G1 X137.135 Y114.164 E10.10407
G1 X137.111 Y114.534 E10.11066
G1 X137.015 Y115.512 E10.12813
G1 X136.967 Y115.876 E10.13466
G1 X136.808 Y116.845 E10.15211
G1 X136.733 Y117.223 E10.15896
G1 X136.509 Y118.177 E10.17638
G1 X136.415 Y118.526 E10.18281
G1 X136.13 Y119.466 E10.20027
G1 X136.009 Y119.822 E10.20695
G1 X135.662 Y120.742 E10.22443
G1 X135.523 Y121.078 E10.23089
G1 X135.119 Y121.971 E10.24832
G1 X134.952 Y122.31 E10.25504
G1 X134.489 Y123.175 E10.27248
G1 X134.309 Y123.486 E10.27886
G1 X133.792 Y124.32 E10.29631
G1 X133.579 Y124.639 E10.30312
G1 X133.007 Y125.436 E10.32056
G1 X132.784 Y125.727 E10.32708
G1 X132.161 Y126.486 E10.34453
G1 X131.918 Y126.763 E10.35108
G1 X131.247 Y127.48 E10.36854
G1 X130.981 Y127.746 E10.37523
G1 X130.263 Y128.418 E10.39271
G1 X129.986 Y128.661 E10.39926
G1 X129.228 Y129.283 E10.41669
G1 X128.937 Y129.506 E10.42321
G1 X128.14 Y130.078 E10.44064
G1 X127.824 Y130.29 E10.44741
G1 X126.991 Y130.807 E10.46484
G1 X126.676 Y130.988 E10.47129
G1 X125.809 Y131.452 E10.48877
G1 X125.471 Y131.619 E10.49548
G1 X124.578 Y132.023 E10.5129
G1 X124.242 Y132.162 E10.51936
G1 X123.322 Y132.509 E10.53684
G1 X122.966 Y132.63 E10.54353
G1 X122.026 Y132.915 E10.56099
G1 X121.672 Y133.01 E10.5675
G1 X120.718 Y133.233 E10.58492
G1 X120.351 Y133.306 E10.59157
G1 X119.382 Y133.466 E10.60903
G1 X119.012 Y133.515 E10.61566
G1 X118.034 Y133.611 E10.63313
G1 X117.665 Y133.635 E10.6397
G1 X116.685 Y133.667 E10.65713
G1 X116.315 Y133.667 E10.66371
G1 X115.335 Y133.635 E10.68114
G1 X114.966 Y133.611 E10.68771
G1 X113.988 Y133.515 E10.70518
G1 X113.624 Y133.467 E10.71171
G1 X112.655 Y133.308 E10.72916
G1 X112.277 Y133.233 E10.73601
G1 X111.323 Y133.009 E10.75343
G1 X110.974 Y132.915 E10.75986
G1 X110.034 Y132.63 E10.77732
G1 X109.678 Y132.509 E10.784
G1 X108.758 Y132.162 E10.80148
G1 X108.422 Y132.023 E10.80794
G1 X107.529 Y131.619 E10.82537
G1 X107.191 Y131.452 E10.83207
G1 X106.324 Y130.988 E10.84955
G1 X106.009 Y130.807 E10.85601
G1 X105.176 Y130.29 E10.87343
G1 X104.86 Y130.078 E10.8802
G1 X104.063 Y129.506 E10.89764
G1 X103.772 Y129.283 E10.90415
G1 X103.014 Y128.661 E10.92158
G1 X102.737 Y128.418 E10.92813
G1 X102.019 Y127.746 E10.94561
G1 X101.753 Y127.48 E10.9523
G1 X101.082 Y126.763 E10.96976
G1 X100.839 Y126.486 E10.97631
G1 X100.216 Y125.727 E10.99376
G1 X99.993 Y125.436 E11.00028
G1 X99.421 Y124.639 E11.01772
G1 X99.208 Y124.32 E11.02454
G1 X98.691 Y123.486 E11.04198
G1 X98.511 Y123.175 E11.04837
G1 X98.048 Y122.31 E11.06581
G1 X97.881 Y121.971 E11.07252
G1 X97.477 Y121.078 E11.08995
G1 X97.338 Y120.742 E11.09641
G1 X96.991 Y119.822 E11.11389
G1 X96.87 Y119.466 E11.12057
G1 X96.585 Y118.526 E11.13803
G1 X96.49 Y118.172 E11.14455
G1 X96.267 Y117.218 E11.16196
G1 X96.194 Y116.851 E11.16862
G1 X96.034 Y115.882 E11.18607
G1 X95.985 Y115.512 E11.19271
G1 X95.889 Y114.534 E11.21018
G1 X95.865 Y114.165 E11.21675
G1 X95.833 Y113.185 E11.23418
G1 X95.83 Y113 E11.23747
G1 X95.829 Y90 E11.64632
G1 X95.869 Y89.328 E11.65828
G1 X95.988 Y88.666 E11.67024
G1 X96.185 Y88.022 E11.68221
G1 X96.457 Y87.406 E11.69418
G1 X96.8 Y86.827 E11.70614
G1 X97.209 Y86.292 E11.71811
M204 S625
M205 X6 Y6
G0 F4285.7 X97.625 Y86.457
M204 S500
M205 X5 Y5
G1 F1200 X98.09 Y86.007 E11.72962
G1 X98.608 Y85.618 E11.74113
G1 X99.17 Y85.295 E11.75266
G1 X99.767 Y85.044 E11.76417
G1 X100.39 Y84.868 E11.77567
G1 X101.031 Y84.771 E11.7872
G1 X101.499 Y84.75 E11.79553
G1 X108.767 Y84.75 E11.92472
G1 X108.877 Y84.511 E11.9294
G1 X109.219 Y83.961 E11.94091
G1 X109.626 Y83.457 E11.95243
G1 X110.092 Y83.007 E11.96394
G1 X110.609 Y82.618 E11.97544
G1 X111.171 Y82.295 E11.98697
G1 X111.768 Y82.044 E11.99848
G1 X112.392 Y81.868 E12.01
G1 X113.032 Y81.771 E12.02151
G1 X113.5 Y81.75 E12.02984
G1 X119.5 Y81.75 E12.13649
G1 X120.147 Y81.79 E12.14802
G1 X120.783 Y81.909 E12.15952
G1 X121.4 Y82.106 E12.17103
G1 X121.989 Y82.377 E12.18256
G1 X122.539 Y82.719 E12.19407
G1 X123.043 Y83.126 E12.20559
G1 X123.493 Y83.592 E12.2171
G1 X123.882 Y84.109 E12.2286
G1 X124.205 Y84.671 E12.24012
G1 X124.238 Y84.75 E12.24165
G1 X131.5 Y84.75 E12.37074
G1 X132.147 Y84.79 E12.38226
G1 X132.783 Y84.909 E12.39376
G1 X133.4 Y85.106 E12.40527
G1 X133.989 Y85.377 E12.4168
G1 X134.539 Y85.719 E12.42831
G1 X135.043 Y86.126 E12.43983
G1 X135.493 Y86.592 E12.45134
G1 X135.882 Y87.109 E12.46284
G1 X136.205 Y87.671 E12.47437
G1 X136.456 Y88.268 E12.48588
G1 X136.632 Y88.892 E12.4974
G1 X136.729 Y89.532 E12.50891
G1 X136.75 Y90 E12.51724
G1 X136.749 Y113.026 E12.92655
G1 X136.746 Y113.197 E12.92959
G1 X136.715 Y114.151 E12.94655
G1 X136.693 Y114.493 E12.95265
G1 X136.597 Y115.471 E12.97011
G1 X136.553 Y115.808 E12.97616
G1 X136.394 Y116.777 E12.99361
G1 X136.324 Y117.127 E12.99996
G1 X136.1 Y118.081 E13.01738
G1 X136.013 Y118.404 E13.02332
G1 X135.728 Y119.344 E13.04078
G1 X135.616 Y119.674 E13.04698
G1 X135.269 Y120.594 E13.06446
G1 X135.14 Y120.905 E13.07044
G1 X134.736 Y121.798 E13.08786
G1 X134.582 Y122.112 E13.09408
G1 X134.119 Y122.977 E13.11152
G1 X133.952 Y123.265 E13.11744
G1 X133.435 Y124.099 E13.13488
G1 X133.238 Y124.394 E13.14119
G1 X132.666 Y125.191 E13.15862
G1 X132.459 Y125.461 E13.16467
G1 X131.836 Y126.22 E13.18213
G1 X131.611 Y126.476 E13.18819
G1 X130.94 Y127.193 E13.20564
G1 X130.694 Y127.439 E13.21183
G1 X129.976 Y128.111 E13.22931
G1 X129.719 Y128.337 E13.23539
G1 X128.961 Y128.959 E13.25282
G1 X128.692 Y129.165 E13.25884
G1 X127.895 Y129.737 E13.27628
G1 X127.603 Y129.933 E13.28253
G1 X126.77 Y130.45 E13.29996
G1 X126.478 Y130.618 E13.30595
G1 X125.611 Y131.082 E13.32343
G1 X125.298 Y131.236 E13.32963
G1 X124.405 Y131.64 E13.34705
G1 X124.094 Y131.769 E13.35304
G1 X123.174 Y132.116 E13.37052
G1 X122.844 Y132.228 E13.37671
G1 X121.904 Y132.513 E13.39417
G1 X121.576 Y132.601 E13.40021
G1 X120.622 Y132.824 E13.41762
G1 X120.282 Y132.892 E13.42379
G1 X119.313 Y133.052 E13.44125
G1 X118.971 Y133.097 E13.44738
G1 X117.993 Y133.193 E13.46485
G1 X117.651 Y133.215 E13.47094
G1 X116.671 Y133.247 E13.48837
G1 X116.329 Y133.247 E13.49445
G1 X115.349 Y133.215 E13.51188
G1 X115.007 Y133.193 E13.51797
G1 X114.029 Y133.097 E13.53544
G1 X113.692 Y133.053 E13.54148
G1 X112.723 Y132.894 E13.55893
G1 X112.373 Y132.824 E13.56528
G1 X111.419 Y132.6 E13.5827
G1 X111.096 Y132.513 E13.58864
G1 X110.156 Y132.228 E13.60611
G1 X109.826 Y132.116 E13.6123
G1 X108.906 Y131.769 E13.62978
G1 X108.595 Y131.64 E13.63576
G1 X107.702 Y131.236 E13.65319
G1 X107.389 Y131.082 E13.65939
G1 X106.522 Y130.618 E13.67687
G1 X106.23 Y130.45 E13.68286
G1 X105.397 Y129.933 E13.70028
G1 X105.105 Y129.737 E13.70653
G1 X104.308 Y129.165 E13.72397
G1 X104.039 Y128.959 E13.73
G1 X103.281 Y128.337 E13.74743
G1 X103.024 Y128.111 E13.75351
G1 X102.306 Y127.439 E13.77099
G1 X102.06 Y127.193 E13.77717
G1 X101.389 Y126.476 E13.79463
G1 X101.164 Y126.22 E13.80069
G1 X100.541 Y125.461 E13.81814
G1 X100.334 Y125.191 E13.82419
G1 X99.762 Y124.394 E13.84163
G1 X99.565 Y124.099 E13.84794
G1 X99.048 Y123.265 E13.86538
G1 X98.881 Y122.977 E13.8713
G1 X98.418 Y122.112 E13.88874
G1 X98.264 Y121.798 E13.89495
G1 X97.86 Y120.905 E13.91238
G1 X97.731 Y120.594 E13.91836
G1 X97.384 Y119.674 E13.93584
G1 X97.272 Y119.344 E13.94204
G1 X96.987 Y118.404 E13.9595
G1 X96.899 Y118.076 E13.96553
G1 X96.676 Y117.122 E13.98295
G1 X96.608 Y116.782 E13.98911
G1 X96.448 Y115.813 E14.00657
G1 X96.403 Y115.471 E14.0127
G1 X96.307 Y114.493 E14.03017
G1 X96.285 Y114.151 E14.03626
G1 X96.253 Y113.171 E14.05369
G1 X96.25 Y113 E14.05673
G1 X96.249 Y90 E14.46558
G1 X96.289 Y89.354 E14.47708
G1 X96.408 Y88.717 E14.4886
G1 X96.605 Y88.1 E14.50012
G1 X96.876 Y87.512 E14.51163
G1 X97.218 Y86.961 E14.52315
G1 X97.625 Y86.457 E14.53467
M204 S625
M205 X6 Y6
G0 F4285.7 X98.039 Y86.63
M204 S500
M205 X5 Y5
G1 F1200 X98.5 Y86.214 E14.54571
G1 X99.011 Y85.86 E14.55676
G1 X99.563 Y85.575 E14.5678
G1 X100.147 Y85.363 E14.57884
G1 X100.754 Y85.228 E14.5899
G1 X101.499 Y85.17 E14.60318
G1 X109.031 Y85.17 E14.73707
G1 X109.296 Y84.622 E14.74789
G1 X109.636 Y84.102 E14.75893
G1 X110.04 Y83.63 E14.76998
G1 X110.502 Y83.213 E14.78104
G1 X111.012 Y82.86 E14.79207
G1 X111.564 Y82.575 E14.80311
G1 X112.149 Y82.363 E14.81417
G1 X112.755 Y82.228 E14.82521
G1 X113.5 Y82.17 E14.83849
G1 X119.5 Y82.17 E14.94515
G1 X120.12 Y82.21 E14.95619
G1 X120.73 Y82.329 E14.96724
G1 X121.319 Y82.526 E14.97828
G1 X121.878 Y82.796 E14.98931
G1 X122.398 Y83.136 E15.00036
G1 X122.87 Y83.54 E15.0114
G1 X123.287 Y84.002 E15.02246
G1 X123.64 Y84.512 E15.03349
G1 X123.925 Y85.064 E15.04453
G1 X123.963 Y85.17 E15.04653
G1 X131.5 Y85.17 E15.18051
G1 X132.12 Y85.21 E15.19156
G1 X132.73 Y85.329 E15.2026
G1 X133.319 Y85.526 E15.21364
G1 X133.878 Y85.796 E15.22468
G1 X134.398 Y86.136 E15.23572
G1 X134.87 Y86.54 E15.24677
G1 X135.287 Y87.002 E15.25783
G1 X135.64 Y87.512 E15.26886
G1 X135.925 Y88.064 E15.2799
G1 X136.137 Y88.649 E15.29096
G1 X136.272 Y89.255 E15.302
G1 X136.33 Y90 E15.31528
G1 X136.329 Y113.026 E15.72459
G1 X136.326 Y113.183 E15.72738
G1 X136.295 Y114.137 E15.74435
G1 X136.275 Y114.452 E15.74996
G1 X136.179 Y115.43 E15.76743
G1 X136.138 Y115.74 E15.77298
G1 X135.979 Y116.709 E15.79044
G1 X135.915 Y117.031 E15.79628
G1 X135.691 Y117.985 E15.8137
G1 X135.611 Y118.282 E15.81916
G1 X135.326 Y119.222 E15.83662
G1 X135.223 Y119.526 E15.84233
G1 X134.876 Y120.446 E15.85981
G1 X134.758 Y120.732 E15.86531
G1 X134.354 Y121.625 E15.88273
G1 X134.211 Y121.913 E15.88845
G1 X133.748 Y122.778 E15.90589
G1 X133.595 Y123.044 E15.91134
G1 X133.078 Y123.878 E15.92878
G1 X132.897 Y124.149 E15.93458
G1 X132.325 Y124.946 E15.95202
G1 X132.134 Y125.194 E15.95758
G1 X131.511 Y125.953 E15.97503
G1 X131.305 Y126.189 E15.9806
G1 X130.634 Y126.906 E15.99806
G1 X130.407 Y127.132 E16.00375
G1 X129.689 Y127.804 E16.02123
G1 X129.453 Y128.012 E16.02683
G1 X128.695 Y128.634 E16.04426
G1 X128.447 Y128.824 E16.04981
G1 X127.65 Y129.396 E16.06725
G1 X127.381 Y129.576 E16.073
G1 X126.548 Y130.093 E16.09043
G1 X126.28 Y130.247 E16.09592
G1 X125.413 Y130.711 E16.1134
G1 X125.125 Y130.854 E16.11912
G1 X124.232 Y131.258 E16.13654
G1 X123.946 Y131.376 E16.14204
G1 X123.026 Y131.723 E16.15952
G1 X122.722 Y131.826 E16.16523
G1 X121.782 Y132.111 E16.18269
G1 X121.48 Y132.192 E16.18824
G1 X120.526 Y132.415 E16.20566
G1 X120.214 Y132.477 E16.21131
G1 X119.245 Y132.637 E16.22877
G1 X118.93 Y132.679 E16.23442
G1 X117.952 Y132.775 E16.25189
G1 X117.638 Y132.795 E16.25748
G1 X116.658 Y132.827 E16.27491
G1 X116.342 Y132.827 E16.28053
G1 X115.362 Y132.795 E16.29796
G1 X115.048 Y132.775 E16.30355
G1 X114.07 Y132.679 E16.32102
G1 X113.76 Y132.638 E16.32658
G1 X112.791 Y132.479 E16.34404
G1 X112.469 Y132.415 E16.34987
G1 X111.515 Y132.191 E16.36729
G1 X111.218 Y132.111 E16.37276
G1 X110.278 Y131.826 E16.39022
G1 X109.974 Y131.723 E16.39592
G1 X109.054 Y131.376 E16.4134
G1 X108.768 Y131.258 E16.4189
G1 X107.875 Y130.854 E16.43633
G1 X107.587 Y130.711 E16.44204
G1 X106.72 Y130.247 E16.45952
G1 X106.452 Y130.093 E16.46502
G1 X105.619 Y129.576 E16.48244
G1 X105.35 Y129.396 E16.4882
G1 X104.553 Y128.824 E16.50564
G1 X104.305 Y128.634 E16.51119
G1 X103.547 Y128.012 E16.52862
G1 X103.311 Y127.804 E16.53421
G1 X102.593 Y127.132 E16.55169
G1 X102.366 Y126.906 E16.55739
G1 X101.695 Y126.189 E16.57484
G1 X101.489 Y125.953 E16.58041
G1 X100.866 Y125.194 E16.59787
G1 X100.675 Y124.946 E16.60343
G1 X100.103 Y124.149 E16.62087
G1 X99.922 Y123.878 E16.62666
G1 X99.405 Y123.044 E16.6441
G1 X99.252 Y122.778 E16.64956
G1 X98.789 Y121.913 E16.667
G1 X98.646 Y121.625 E16.67271
G1 X98.242 Y120.732 E16.69014
G1 X98.124 Y120.446 E16.69564
G1 X97.777 Y119.526 E16.71312
G1 X97.674 Y119.222 E16.71882
G1 X97.389 Y118.282 E16.73628
G1 X97.308 Y117.98 E16.74184
G1 X97.085 Y117.026 E16.75926
G1 X97.023 Y116.714 E16.76491
G1 X96.863 Y115.745 E16.78237
G1 X96.821 Y115.43 E16.78802
G1 X96.725 Y114.452 E16.80549
G1 X96.705 Y114.138 E16.81108
G1 X96.673 Y113.158 E16.82851
G1 X96.67 Y113 E16.83132
G1 X96.669 Y90 E17.24017
G1 X96.709 Y89.38 E17.25121
G1 X96.828 Y88.77 E17.26226
G1 X97.025 Y88.181 E17.2733
G1 X97.295 Y87.622 E17.28433
G1 X97.635 Y87.102 E17.29538
G1 X98.039 Y86.63 E17.30642
M204 S625
M205 X6 Y6
G0 F4285.7 X98.453 Y86.811
M204 S500
M205 X5 Y5
G1 F1200 X98.909 Y86.431 E17.31697
G1 X99.411 Y86.115 E17.32752
G1 X99.952 Y85.87 E17.33807
G1 X100.521 Y85.7 E17.34863
G1 X101.107 Y85.607 E17.35918
G1 X101.499 Y85.59 E17.36615
G1 X109.332 Y85.59 E17.50539
G1 X109.445 Y85.266 E17.51149
G1 X109.715 Y84.737 E17.52205
G1 X110.053 Y84.249 E17.5326
G1 X110.454 Y83.811 E17.54316
G1 X110.91 Y83.431 E17.55371
G1 X111.413 Y83.115 E17.56427
G1 X111.953 Y82.87 E17.57481
G1 X112.522 Y82.7 E17.58536
G1 X113.108 Y82.607 E17.59591
G1 X113.5 Y82.59 E17.60289
G1 X119.5 Y82.59 E17.70954
G1 X120.092 Y82.63 E17.72009
G1 X120.674 Y82.749 E17.73065
G1 X121.234 Y82.945 E17.74119
G1 X121.763 Y83.215 E17.75175
G1 X122.251 Y83.553 E17.7623
G1 X122.689 Y83.954 E17.77286
G1 X123.069 Y84.41 E17.78341
G1 X123.385 Y84.913 E17.79397
G1 X123.63 Y85.453 E17.80451
G1 X123.671 Y85.59 E17.80705
G1 X131.5 Y85.59 E17.94622
G1 X132.092 Y85.63 E17.95677
G1 X132.674 Y85.749 E17.96733
G1 X133.234 Y85.945 E17.97788
G1 X133.763 Y86.215 E17.98843
G1 X134.251 Y86.553 E17.99899
G1 X134.689 Y86.954 E18.00954
G1 X135.069 Y87.41 E18.02009
G1 X135.385 Y87.913 E18.03065
G1 X135.63 Y88.453 E18.04119
G1 X135.8 Y89.022 E18.05175
G1 X135.893 Y89.608 E18.0623
G1 X135.91 Y90 E18.06927
G1 X135.909 Y113.026 E18.47858
G1 X135.907 Y113.169 E18.48112
G1 X135.876 Y114.123 E18.49809
G1 X135.857 Y114.411 E18.50322
G1 X135.761 Y115.389 E18.52069
G1 X135.724 Y115.672 E18.52576
G1 X135.565 Y116.641 E18.54322
G1 X135.506 Y116.935 E18.54855
G1 X135.282 Y117.889 E18.56597
G1 X135.209 Y118.161 E18.57097
G1 X134.924 Y119.101 E18.58844
G1 X134.83 Y119.377 E18.59362
G1 X134.483 Y120.297 E18.6111
G1 X134.375 Y120.559 E18.61613
G1 X133.971 Y121.452 E18.63356
G1 X133.841 Y121.715 E18.63877
G1 X133.378 Y122.58 E18.65621
G1 X133.238 Y122.823 E18.6612
G1 X132.721 Y123.657 E18.67864
G1 X132.556 Y123.904 E18.68392
G1 X131.984 Y124.701 E18.70136
G1 X131.81 Y124.928 E18.70644
G1 X131.187 Y125.687 E18.7239
G1 X130.998 Y125.902 E18.72899
G1 X130.327 Y126.619 E18.74644
G1 X130.12 Y126.826 E18.75165
G1 X129.402 Y127.498 E18.76913
G1 X129.186 Y127.687 E18.77423
G1 X128.428 Y128.309 E18.79166
G1 X128.202 Y128.483 E18.79673
G1 X127.405 Y129.055 E18.81417
G1 X127.16 Y129.219 E18.81941
G1 X126.327 Y129.736 E18.83684
G1 X126.082 Y129.877 E18.84186
G1 X125.215 Y130.341 E18.85934
G1 X124.952 Y130.471 E18.86456
G1 X124.059 Y130.875 E18.88198
G1 X123.797 Y130.983 E18.88702
G1 X122.877 Y131.33 E18.9045
G1 X122.601 Y131.424 E18.90968
G1 X121.661 Y131.709 E18.92714
G1 X121.385 Y131.783 E18.93222
G1 X120.431 Y132.006 E18.94963
G1 X120.145 Y132.063 E18.95482
G1 X119.176 Y132.223 E18.97228
G1 X118.889 Y132.261 E18.97742
G1 X117.911 Y132.357 E18.99489
G1 X117.624 Y132.376 E19
G1 X116.644 Y132.408 E19.01743
G1 X116.356 Y132.408 E19.02255
G1 X115.376 Y132.376 E19.03998
G1 X115.089 Y132.357 E19.04509
G1 X114.111 Y132.261 E19.06256
G1 X113.828 Y132.224 E19.06764
G1 X112.859 Y132.065 E19.08509
G1 X112.565 Y132.006 E19.09042
G1 X111.611 Y131.782 E19.10784
G1 X111.339 Y131.709 E19.11285
G1 X110.399 Y131.424 E19.13031
G1 X110.123 Y131.33 E19.13549
G1 X109.203 Y130.983 E19.15297
G1 X108.941 Y130.875 E19.15801
G1 X108.048 Y130.471 E19.17543
G1 X107.785 Y130.341 E19.18065
G1 X106.918 Y129.877 E19.19813
G1 X106.673 Y129.736 E19.20315
G1 X105.84 Y129.219 E19.22058
G1 X105.595 Y129.055 E19.22582
G1 X104.798 Y128.483 E19.24326
G1 X104.572 Y128.309 E19.24833
G1 X103.814 Y127.687 E19.26576
G1 X103.598 Y127.498 E19.27086
G1 X102.88 Y126.826 E19.28834
G1 X102.673 Y126.619 E19.29354
G1 X102.002 Y125.902 E19.311
G1 X101.813 Y125.687 E19.31609
G1 X101.19 Y124.928 E19.33354
G1 X101.016 Y124.701 E19.33863
G1 X100.444 Y123.904 E19.35607
G1 X100.279 Y123.657 E19.36135
G1 X99.762 Y122.823 E19.37879
G1 X99.622 Y122.58 E19.38377
G1 X99.159 Y121.715 E19.40121
G1 X99.029 Y121.452 E19.40643
G1 X98.625 Y120.559 E19.42385
G1 X98.517 Y120.297 E19.42889
G1 X98.17 Y119.377 E19.44637
G1 X98.076 Y119.101 E19.45155
G1 X97.791 Y118.161 E19.46901
G1 X97.717 Y117.885 E19.47409
G1 X97.494 Y116.931 E19.49151
G1 X97.437 Y116.645 E19.49669
G1 X97.277 Y115.676 E19.51415
G1 X97.239 Y115.389 E19.5193
G1 X97.143 Y114.411 E19.53676
G1 X97.124 Y114.124 E19.54188
G1 X97.092 Y113.144 E19.55931
G1 X97.09 Y113 E19.56187
G1 X97.089 Y90 E19.97071
G1 X97.129 Y89.408 E19.98126
G1 X97.248 Y88.826 E19.99182
G1 X97.444 Y88.266 E20.00237
G1 X97.714 Y87.737 E20.01292
G1 X98.052 Y87.249 E20.02348
G1 X98.453 Y86.811 E20.03403
M204 S625
M205 X6 Y6
G0 F4285.7 X98.468 Y87.405
M204 S500
M205 X5 Y5
G1 F1200 X98.865 Y87.003 E20.04408
G1 X99.314 Y86.661 E20.05411
G1 X99.807 Y86.386 E20.06414
G1 X100.334 Y86.184 E20.07418
G1 X100.885 Y86.058 E20.08422
G1 X101.499 Y86.01 E20.09517
G1 X109.642 Y86.01 E20.23992
G1 X109.669 Y85.885 E20.24219
G1 X109.865 Y85.355 E20.25224
G1 X110.133 Y84.859 E20.26226
G1 X110.469 Y84.405 E20.2723
G1 X110.866 Y84.003 E20.28234
G1 X111.315 Y83.661 E20.29238
G1 X111.809 Y83.386 E20.30243
G1 X112.336 Y83.184 E20.31246
G1 X112.886 Y83.058 E20.32249
G1 X113.5 Y83.01 E20.33344
G1 X119.5 Y83.01 E20.44009
G1 X120.063 Y83.05 E20.45013
G1 X120.615 Y83.169 E20.46017
G1 X121.145 Y83.365 E20.47021
G1 X121.641 Y83.633 E20.48023
G1 X122.095 Y83.969 E20.49027
G1 X122.497 Y84.366 E20.50031
G1 X122.839 Y84.815 E20.51035
G1 X123.114 Y85.309 E20.5204
G1 X123.316 Y85.836 E20.53043
G1 X123.356 Y86.01 E20.5336
G1 X131.5 Y86.01 E20.67837
G1 X132.063 Y86.05 E20.68841
G1 X132.615 Y86.169 E20.69844
G1 X133.145 Y86.365 E20.70849
G1 X133.641 Y86.633 E20.71851
G1 X134.095 Y86.969 E20.72855
G1 X134.497 Y87.366 E20.73859
G1 X134.839 Y87.815 E20.74863
G1 X135.114 Y88.309 E20.75868
G1 X135.316 Y88.836 E20.76871
G1 X135.442 Y89.386 E20.77874
G1 X135.49 Y90 E20.78969
G1 X135.489 Y113.026 E21.199
G1 X135.487 Y113.156 E21.20131
G1 X135.456 Y114.11 E21.21827
G1 X135.439 Y114.37 E21.22291
G1 X135.343 Y115.348 E21.24037
G1 X135.309 Y115.604 E21.24497
G1 X135.15 Y116.573 E21.26242
G1 X135.097 Y116.839 E21.26724
G1 X134.873 Y117.793 E21.28466
G1 X134.807 Y118.039 E21.28919
G1 X134.522 Y118.979 E21.30665
G1 X134.437 Y119.229 E21.31134
G1 X134.09 Y120.149 E21.32882
G1 X133.992 Y120.386 E21.33338
G1 X133.588 Y121.279 E21.3508
G1 X133.471 Y121.517 E21.35552
G1 X133.008 Y122.382 E21.37296
G1 X132.881 Y122.601 E21.37746
G1 X132.364 Y123.435 E21.3949
G1 X132.215 Y123.659 E21.39968
G1 X131.643 Y124.456 E21.41712
G1 X131.485 Y124.661 E21.42172
G1 X130.862 Y125.42 E21.43918
G1 X130.691 Y125.615 E21.44379
G1 X130.02 Y126.332 E21.46124
G1 X129.833 Y126.519 E21.46594
G1 X129.115 Y127.191 E21.48343
G1 X128.92 Y127.362 E21.48804
G1 X128.162 Y127.984 E21.50547
G1 X127.957 Y128.142 E21.51007
G1 X127.16 Y128.714 E21.52751
G1 X126.938 Y128.862 E21.53225
G1 X126.105 Y129.379 E21.54968
G1 X125.884 Y129.507 E21.55422
G1 X125.017 Y129.971 E21.5717
G1 X124.779 Y130.088 E21.57641
G1 X123.886 Y130.492 E21.59383
G1 X123.649 Y130.59 E21.59839
G1 X122.729 Y130.937 E21.61587
G1 X122.479 Y131.022 E21.62056
G1 X121.539 Y131.307 E21.63802
G1 X121.289 Y131.374 E21.64263
G1 X120.335 Y131.597 E21.66004
G1 X120.077 Y131.649 E21.66472
G1 X119.108 Y131.809 E21.68218
G1 X118.848 Y131.843 E21.68684
G1 X117.87 Y131.939 E21.70431
G1 X117.61 Y131.956 E21.70894
G1 X116.63 Y131.988 E21.72637
G1 X116.37 Y131.988 E21.73099
G1 X115.39 Y131.956 E21.74842
G1 X115.13 Y131.939 E21.75305
G1 X114.152 Y131.843 E21.77052
G1 X113.896 Y131.809 E21.77511
G1 X112.927 Y131.65 E21.79257
G1 X112.661 Y131.597 E21.79739
G1 X111.707 Y131.373 E21.81481
G1 X111.461 Y131.307 E21.81933
G1 X110.521 Y131.022 E21.83679
G1 X110.271 Y130.937 E21.84149
G1 X109.351 Y130.59 E21.85897
G1 X109.114 Y130.492 E21.86353
G1 X108.221 Y130.088 E21.88095
G1 X107.983 Y129.971 E21.88566
G1 X107.116 Y129.507 E21.90314
G1 X106.895 Y129.379 E21.90768
G1 X106.062 Y128.862 E21.92511
G1 X105.84 Y128.714 E21.92985
G1 X105.043 Y128.142 E21.94729
G1 X104.838 Y127.984 E21.95189
G1 X104.08 Y127.362 E21.96932
G1 X103.885 Y127.191 E21.97393
G1 X103.167 Y126.519 E21.99141
G1 X102.98 Y126.332 E21.99611
G1 X102.309 Y125.615 E22.01357
G1 X102.138 Y125.42 E22.01818
G1 X101.515 Y124.661 E22.03564
G1 X101.357 Y124.456 E22.04024
G1 X100.785 Y123.659 E22.05768
G1 X100.636 Y123.435 E22.06246
G1 X100.119 Y122.601 E22.0799
G1 X99.992 Y122.382 E22.0844
G1 X99.529 Y121.517 E22.10184
G1 X99.412 Y121.279 E22.10656
G1 X99.008 Y120.386 E22.12398
G1 X98.91 Y120.149 E22.12854
G1 X98.563 Y119.229 E22.14602
G1 X98.478 Y118.979 E22.15071
G1 X98.193 Y118.039 E22.16817
G1 X98.126 Y117.789 E22.17277
G1 X97.903 Y116.835 E22.19019
G1 X97.851 Y116.577 E22.19486
G1 X97.691 Y115.608 E22.21232
G1 X97.657 Y115.348 E22.21698
G1 X97.561 Y114.37 E22.23445
G1 X97.544 Y114.11 E22.23908
G1 X97.512 Y113.13 E22.25651
G1 X97.51 Y113 E22.25882
G1 X97.509 Y90 E22.66767
G1 X97.549 Y89.437 E22.67771
G1 X97.668 Y88.885 E22.68774
G1 X97.864 Y88.355 E22.69779
G1 X98.132 Y87.859 E22.70781
G1 X98.468 Y87.405 E22.71785
M204 S625
M205 X6 Y6
G0 F4285.7 X98.883 Y87.57
M204 S500
M205 X5 Y5
G1 F1200 X99.275 Y87.207 E22.72735
G1 X99.717 Y86.907 E22.73684
G1 X100.198 Y86.675 E22.74634
G1 X100.709 Y86.519 E22.75583
G1 X101.499 Y86.43 E22.76996
G1 X109.978 Y86.43 E22.92069
G1 X110.089 Y85.947 E22.9295
G1 X110.284 Y85.45 E22.93899
G1 X110.551 Y84.987 E22.94849
G1 X110.885 Y84.57 E22.95798
G1 X111.276 Y84.207 E22.96747
G1 X111.718 Y83.907 E22.97696
G1 X112.199 Y83.675 E22.98646
G1 X112.71 Y83.519 E22.99595
G1 X113.5 Y83.43 E23.01009
G1 X119.5 Y83.43 E23.11674
G1 X120.033 Y83.47 E23.12624
G1 X120.553 Y83.589 E23.13573
G1 X121.05 Y83.784 E23.14522
G1 X121.513 Y84.051 E23.15472
G1 X121.93 Y84.385 E23.16421
G1 X122.293 Y84.776 E23.1737
G1 X122.593 Y85.218 E23.18319
G1 X122.825 Y85.699 E23.19269
G1 X122.981 Y86.21 E23.20218
G1 X123.006 Y86.43 E23.20612
G1 X131.5 Y86.43 E23.35711
G1 X132.033 Y86.47 E23.36661
G1 X132.553 Y86.589 E23.37609
G1 X133.05 Y86.784 E23.38558
G1 X133.513 Y87.051 E23.39508
G1 X133.93 Y87.385 E23.40458
G1 X134.293 Y87.776 E23.41407
G1 X134.593 Y88.218 E23.42356
G1 X134.825 Y88.699 E23.43305
G1 X134.981 Y89.21 E23.44255
G1 X135.07 Y90 E23.45668
G1 X135.069 Y113.026 E23.86599
G1 X135.067 Y113.142 E23.86806
G1 X135.036 Y114.096 E23.88502
G1 X135.021 Y114.329 E23.88917
G1 X134.925 Y115.307 E23.90664
G1 X134.895 Y115.536 E23.91075
G1 X134.736 Y116.505 E23.9282
G1 X134.688 Y116.743 E23.93252
G1 X134.464 Y117.697 E23.94994
G1 X134.405 Y117.917 E23.95399
G1 X134.12 Y118.857 E23.97145
G1 X134.044 Y119.081 E23.97565
G1 X133.697 Y120.001 E23.99313
G1 X133.61 Y120.213 E23.9972
G1 X133.206 Y121.106 E24.01463
G1 X133.1 Y121.319 E24.01886
G1 X132.637 Y122.184 E24.0363
G1 X132.524 Y122.38 E24.04032
G1 X132.007 Y123.214 E24.05776
G1 X131.873 Y123.415 E24.06205
G1 X131.301 Y124.212 E24.07949
G1 X131.16 Y124.395 E24.0836
G1 X130.537 Y125.154 E24.10105
G1 X130.385 Y125.328 E24.10516
G1 X129.714 Y126.045 E24.12262
G1 X129.546 Y126.212 E24.12683
G1 X128.828 Y126.884 E24.14431
G1 X128.654 Y127.038 E24.14844
G1 X127.896 Y127.66 E24.16587
G1 X127.713 Y127.8 E24.16997
G1 X126.916 Y128.372 E24.1874
G1 X126.717 Y128.505 E24.19166
G1 X125.884 Y129.022 E24.20909
G1 X125.686 Y129.137 E24.21316
G1 X124.819 Y129.601 E24.23064
G1 X124.606 Y129.706 E24.23486
G1 X123.713 Y130.11 E24.25228
G1 X123.501 Y130.197 E24.25635
G1 X122.581 Y130.544 E24.27383
G1 X122.357 Y130.62 E24.27804
G1 X121.417 Y130.905 E24.2955
G1 X121.194 Y130.965 E24.2996
G1 X120.24 Y131.188 E24.31702
G1 X120.009 Y131.234 E24.32121
G1 X119.04 Y131.394 E24.33866
G1 X118.807 Y131.425 E24.34284
G1 X117.829 Y131.521 E24.36031
G1 X117.597 Y131.536 E24.36444
G1 X116.617 Y131.568 E24.38187
G1 X116.383 Y131.568 E24.38603
G1 X115.403 Y131.536 E24.40346
G1 X115.171 Y131.521 E24.4076
G1 X114.193 Y131.425 E24.42506
G1 X113.964 Y131.395 E24.42917
G1 X112.995 Y131.236 E24.44662
G1 X112.757 Y131.188 E24.45094
G1 X111.803 Y130.964 E24.46836
G1 X111.583 Y130.905 E24.47241
G1 X110.643 Y130.62 E24.48987
G1 X110.419 Y130.544 E24.49407
G1 X109.499 Y130.197 E24.51155
G1 X109.287 Y130.11 E24.51563
G1 X108.394 Y129.706 E24.53305
G1 X108.181 Y129.601 E24.53727
G1 X107.314 Y129.137 E24.55475
G1 X107.116 Y129.022 E24.55882
G1 X106.283 Y128.505 E24.57625
G1 X106.084 Y128.372 E24.5805
G1 X105.287 Y127.8 E24.59794
G1 X105.104 Y127.66 E24.60204
G1 X104.346 Y127.038 E24.61947
G1 X104.172 Y126.884 E24.6236
G1 X103.454 Y126.212 E24.64108
G1 X103.286 Y126.045 E24.64529
G1 X102.615 Y125.328 E24.66275
G1 X102.463 Y125.154 E24.66685
G1 X101.84 Y124.395 E24.68431
G1 X101.699 Y124.212 E24.68841
G1 X101.127 Y123.415 E24.70585
G1 X100.993 Y123.214 E24.71015
G1 X100.476 Y122.38 E24.72759
G1 X100.363 Y122.184 E24.73161
G1 X99.9 Y121.319 E24.74905
G1 X99.794 Y121.106 E24.75328
G1 X99.39 Y120.213 E24.7707
G1 X99.303 Y120.001 E24.77478
G1 X98.956 Y119.081 E24.79226
G1 X98.88 Y118.857 E24.79646
G1 X98.595 Y117.917 E24.81392
G1 X98.535 Y117.694 E24.81803
G1 X98.312 Y116.74 E24.83544
G1 X98.266 Y116.509 E24.83963
G1 X98.106 Y115.54 E24.85709
G1 X98.075 Y115.307 E24.86126
G1 X97.979 Y114.329 E24.87873
G1 X97.964 Y114.097 E24.88287
G1 X97.932 Y113.117 E24.9003
G1 X97.93 Y113 E24.90238
G1 X97.929 Y90 E25.31122
G1 X97.969 Y89.468 E25.32071
G1 X98.088 Y88.947 E25.33021
G1 X98.283 Y88.45 E25.3397
G1 X98.55 Y87.988 E25.34918
G1 X98.883 Y87.57 E25.35868
M204 S625
M205 X6 Y6
G0 F4285.7 X99.298 Y87.747
M204 S500
M205 X5 Y5
G1 F1200 X99.683 Y87.426 E25.36759
G1 X100.115 Y87.17 E25.37652
G1 X100.581 Y86.987 E25.38542
G1 X101.071 Y86.879 E25.39434
G1 X101.499 Y86.85 E25.40196
G1 X110.362 Y86.85 E25.55951
G1 X110.39 Y86.5 E25.56575
G1 X110.509 Y86.013 E25.57466
G1 X110.703 Y85.55 E25.58359
G1 X110.969 Y85.125 E25.5925
G1 X111.299 Y84.747 E25.60142
G1 X111.684 Y84.426 E25.61033
G1 X112.116 Y84.17 E25.61926
G1 X112.583 Y83.987 E25.62817
G1 X113.072 Y83.879 E25.63707
G1 X113.5 Y83.85 E25.6447
G1 X119.5 Y83.85 E25.75136
G1 X120 Y83.89 E25.76027
G1 X120.487 Y84.009 E25.76918
G1 X120.95 Y84.203 E25.77811
G1 X121.375 Y84.469 E25.78702
G1 X121.753 Y84.799 E25.79594
G1 X122.074 Y85.184 E25.80485
G1 X122.33 Y85.616 E25.81378
G1 X122.513 Y86.083 E25.82269
G1 X122.621 Y86.572 E25.83159
G1 X122.64 Y86.85 E25.83655
G1 X131.5 Y86.85 E25.99404
G1 X132 Y86.89 E26.00296
G1 X132.487 Y87.009 E26.01187
G1 X132.95 Y87.203 E26.02079
G1 X133.375 Y87.469 E26.02971
G1 X133.753 Y87.799 E26.03863
G1 X134.074 Y88.184 E26.04754
G1 X134.33 Y88.616 E26.05646
G1 X134.513 Y89.083 E26.06538
G1 X134.621 Y89.572 E26.07428
G1 X134.65 Y90 E26.08191
G1 X134.649 Y113.026 E26.49122
G1 X134.647 Y113.128 E26.49303
G1 X134.616 Y114.082 E26.51
G1 X134.603 Y114.288 E26.51367
G1 X134.507 Y115.266 E26.53113
G1 X134.48 Y115.468 E26.53476
G1 X134.321 Y116.437 E26.55221
G1 X134.28 Y116.647 E26.55602
G1 X134.056 Y117.601 E26.57344
G1 X134.003 Y117.795 E26.57701
G1 X133.718 Y118.735 E26.59447
G1 X133.651 Y118.933 E26.59819
G1 X133.304 Y119.853 E26.61567
G1 X133.227 Y120.039 E26.61924
G1 X132.823 Y120.932 E26.63667
G1 X132.73 Y121.121 E26.64041
G1 X132.267 Y121.986 E26.65785
G1 X132.167 Y122.159 E26.6614
G1 X131.65 Y122.993 E26.67885
G1 X131.532 Y123.17 E26.68263
G1 X130.96 Y123.967 E26.70007
G1 X130.836 Y124.129 E26.70369
G1 X130.213 Y124.888 E26.72115
G1 X130.078 Y125.041 E26.72477
G1 X129.407 Y125.758 E26.74223
G1 X129.259 Y125.906 E26.74595
G1 X128.541 Y126.578 E26.76343
G1 X128.387 Y126.713 E26.76707
G1 X127.629 Y127.335 E26.7845
G1 X127.468 Y127.459 E26.78811
G1 X126.671 Y128.031 E26.80555
G1 X126.495 Y128.148 E26.80931
G1 X125.662 Y128.665 E26.82674
G1 X125.487 Y128.766 E26.83033
G1 X124.62 Y129.23 E26.84781
G1 X124.432 Y129.323 E26.85154
G1 X123.539 Y129.727 E26.86896
G1 X123.353 Y129.804 E26.87254
G1 X122.433 Y130.151 E26.89002
G1 X122.235 Y130.218 E26.89373
G1 X121.295 Y130.503 E26.91119
G1 X121.098 Y130.556 E26.91482
G1 X120.144 Y130.779 E26.93224
G1 X119.94 Y130.82 E26.93593
G1 X118.971 Y130.98 E26.95339
G1 X118.766 Y131.007 E26.95707
G1 X117.788 Y131.103 E26.97454
G1 X117.583 Y131.116 E26.97819
G1 X116.603 Y131.148 E26.99562
G1 X116.397 Y131.148 E26.99928
G1 X115.417 Y131.116 E27.01671
G1 X115.212 Y131.103 E27.02036
G1 X114.234 Y131.007 E27.03783
G1 X114.032 Y130.98 E27.04145
G1 X113.063 Y130.821 E27.05891
G1 X112.853 Y130.78 E27.06271
G1 X111.899 Y130.556 E27.08013
G1 X111.705 Y130.503 E27.08371
G1 X110.765 Y130.218 E27.10117
G1 X110.567 Y130.151 E27.10488
G1 X109.647 Y129.804 E27.12236
G1 X109.461 Y129.727 E27.12594
G1 X108.568 Y129.323 E27.14336
G1 X108.38 Y129.23 E27.14709
G1 X107.513 Y128.766 E27.16457
G1 X107.338 Y128.665 E27.16816
G1 X106.505 Y128.148 E27.18559
G1 X106.329 Y128.031 E27.18935
G1 X105.532 Y127.459 E27.20678
G1 X105.371 Y127.335 E27.2104
G1 X104.613 Y126.713 E27.22783
G1 X104.459 Y126.578 E27.23147
G1 X103.741 Y125.906 E27.24895
G1 X103.593 Y125.758 E27.25267
G1 X102.922 Y125.041 E27.27012
G1 X102.787 Y124.888 E27.27375
G1 X102.164 Y124.129 E27.29121
G1 X102.04 Y123.967 E27.29483
G1 X101.468 Y123.17 E27.31227
G1 X101.35 Y122.993 E27.31605
G1 X100.833 Y122.159 E27.3335
G1 X100.733 Y121.986 E27.33705
G1 X100.27 Y121.121 E27.35449
G1 X100.177 Y120.932 E27.35823
G1 X99.773 Y120.039 E27.37566
G1 X99.696 Y119.853 E27.37923
G1 X99.349 Y118.933 E27.39671
G1 X99.282 Y118.735 E27.40043
G1 X98.997 Y117.795 E27.41789
G1 X98.944 Y117.598 E27.42152
G1 X98.721 Y116.644 E27.43893
G1 X98.68 Y116.44 E27.44263
G1 X98.52 Y115.471 E27.46009
G1 X98.493 Y115.266 E27.46376
G1 X98.397 Y114.288 E27.48123
G1 X98.384 Y114.083 E27.48488
G1 X98.352 Y113.103 E27.50231
G1 X98.35 Y113 E27.50414
G1 X98.349 Y90 E27.91299
G1 X98.389 Y89.5 E27.92191
G1 X98.508 Y89.013 E27.93082
G1 X98.702 Y88.55 E27.93974
G1 X98.968 Y88.125 E27.94866
G1 X99.298 Y87.747 E27.95758
M204 S625
M205 X6 Y6
G0 F4285.7 X99.385 Y88.273
M204 S500
M205 X5 Y5
G1 F1200 X99.71 Y87.938 E27.96587
G1 X100.087 Y87.663 E27.97417
G1 X100.506 Y87.457 E27.98247
G1 X100.954 Y87.325 E27.99077
G1 X101.499 Y87.27 E28.00051
G1 X110.77 Y87.27 E28.16531
G1 X110.81 Y86.535 E28.17839
G1 X110.929 Y86.083 E28.1867
G1 X111.122 Y85.658 E28.195
G1 X111.386 Y85.273 E28.2033
G1 X111.711 Y84.938 E28.21159
G1 X112.089 Y84.663 E28.2199
G1 X112.507 Y84.457 E28.22819
G1 X112.955 Y84.325 E28.23649
G1 X113.5 Y84.27 E28.24622
G1 X119.5 Y84.27 E28.35288
G1 X119.965 Y84.31 E28.36118
G1 X120.417 Y84.429 E28.36949
G1 X120.842 Y84.622 E28.37778
G1 X121.227 Y84.886 E28.38608
G1 X121.562 Y85.211 E28.39438
G1 X121.837 Y85.589 E28.40269
G1 X122.043 Y86.007 E28.41097
G1 X122.175 Y86.455 E28.41927
G1 X122.23 Y87 E28.42901
G1 X122.23 Y87.27 E28.43381
G1 X131.5 Y87.27 E28.59859
G1 X131.965 Y87.31 E28.60689
G1 X132.417 Y87.429 E28.6152
G1 X132.842 Y87.622 E28.62349
G1 X133.227 Y87.886 E28.63179
G1 X133.562 Y88.211 E28.64009
G1 X133.837 Y88.589 E28.6484
G1 X134.043 Y89.007 E28.65668
G1 X134.175 Y89.455 E28.66499
G1 X134.23 Y90 E28.67472
G1 X134.228 Y113.115 E29.08561
G1 X134.197 Y114.069 E29.10258
G1 X134.185 Y114.247 E29.10575
G1 X134.089 Y115.225 E29.12322
G1 X134.066 Y115.4 E29.12636
G1 X133.907 Y116.369 E29.14381
G1 X133.871 Y116.551 E29.14711
G1 X133.647 Y117.505 E29.16453
G1 X133.602 Y117.673 E29.16762
G1 X133.317 Y118.613 E29.18508
G1 X133.258 Y118.784 E29.1883
G1 X132.911 Y119.704 E29.20578
G1 X132.844 Y119.866 E29.20889
G1 X132.44 Y120.759 E29.22632
G1 X132.36 Y120.922 E29.22954
G1 X131.897 Y121.787 E29.24698
G1 X131.81 Y121.937 E29.25007
G1 X131.293 Y122.771 E29.26751
G1 X131.191 Y122.925 E29.27079
G1 X130.619 Y123.722 E29.28823
G1 X130.511 Y123.862 E29.29137
G1 X129.888 Y124.621 E29.30883
G1 X129.771 Y124.754 E29.31198
G1 X129.1 Y125.471 E29.32943
G1 X128.972 Y125.599 E29.33265
G1 X128.254 Y126.271 E29.35013
G1 X128.121 Y126.388 E29.35328
G1 X127.363 Y127.01 E29.37071
G1 X127.223 Y127.118 E29.37386
G1 X126.426 Y127.69 E29.39129
G1 X126.274 Y127.792 E29.39455
G1 X125.441 Y128.309 E29.41198
G1 X125.289 Y128.396 E29.41509
G1 X124.422 Y128.86 E29.43257
G1 X124.259 Y128.94 E29.4358
G1 X123.366 Y129.344 E29.45322
G1 X123.204 Y129.411 E29.45634
G1 X122.284 Y129.758 E29.47381
G1 X122.113 Y129.817 E29.47703
G1 X121.173 Y130.102 E29.49449
G1 X121.002 Y130.147 E29.49763
G1 X120.048 Y130.37 E29.51505
G1 X119.872 Y130.406 E29.51824
G1 X118.903 Y130.566 E29.5357
G1 X118.725 Y130.589 E29.53889
G1 X117.747 Y130.685 E29.55636
G1 X117.569 Y130.697 E29.55953
G1 X116.589 Y130.729 E29.57696
G1 X116.411 Y130.729 E29.58012
G1 X115.431 Y130.697 E29.59755
G1 X115.253 Y130.685 E29.60073
G1 X114.275 Y130.589 E29.61819
G1 X114.1 Y130.566 E29.62133
G1 X113.131 Y130.407 E29.63879
G1 X112.949 Y130.371 E29.64208
G1 X111.995 Y130.147 E29.6595
G1 X111.827 Y130.102 E29.6626
G1 X110.887 Y129.817 E29.68006
G1 X110.716 Y129.758 E29.68327
G1 X109.796 Y129.411 E29.70075
G1 X109.634 Y129.344 E29.70387
G1 X108.741 Y128.94 E29.72129
G1 X108.578 Y128.86 E29.72452
G1 X107.711 Y128.396 E29.742
G1 X107.559 Y128.309 E29.74511
G1 X106.726 Y127.792 E29.76254
G1 X106.574 Y127.69 E29.76579
G1 X105.777 Y127.118 E29.78323
G1 X105.637 Y127.01 E29.78637
G1 X104.879 Y126.388 E29.8038
G1 X104.746 Y126.271 E29.80695
G1 X104.028 Y125.599 E29.82443
G1 X103.9 Y125.471 E29.82765
G1 X103.229 Y124.754 E29.84511
G1 X103.112 Y124.621 E29.84826
G1 X102.489 Y123.862 E29.86571
G1 X102.381 Y123.722 E29.86885
G1 X101.809 Y122.925 E29.88629
G1 X101.707 Y122.771 E29.88958
G1 X101.19 Y121.937 E29.90702
G1 X101.103 Y121.787 E29.9101
G1 X100.64 Y120.922 E29.92754
G1 X100.56 Y120.759 E29.93077
G1 X100.156 Y119.866 E29.94819
G1 X100.089 Y119.704 E29.95131
G1 X99.742 Y118.784 E29.96879
G1 X99.683 Y118.613 E29.972
G1 X99.398 Y117.673 E29.98946
G1 X99.353 Y117.502 E29.99261
G1 X99.13 Y116.548 E30.01002
G1 X99.094 Y116.372 E30.01321
G1 X98.934 Y115.403 E30.03067
G1 X98.911 Y115.225 E30.03386
G1 X98.815 Y114.247 E30.05133
G1 X98.803 Y114.069 E30.0545
G1 X98.771 Y113.089 E30.07193
G1 X98.769 Y90 E30.48236
G1 X98.809 Y89.535 E30.49066
G1 X98.927 Y89.083 E30.49896
G1 X99.121 Y88.659 E30.50725
G1 X99.385 Y88.273 E30.51556
M204 S625
M205 X6 Y6
G0 F4285.7 X99.8 Y88.435
M204 S500
M205 X5 Y5
G1 F1200 X100.119 Y88.147 E30.5232
G1 X100.486 Y87.924 E30.53084
G1 X100.888 Y87.772 E30.53848
G1 X101.499 Y87.69 E30.54944
G1 X111.19 Y87.69 E30.7217
G1 X111.19 Y87 E30.73397
G1 X111.23 Y86.572 E30.74161
G1 X111.348 Y86.16 E30.74923
G1 X111.541 Y85.776 E30.75687
G1 X111.801 Y85.434 E30.7645
G1 X112.121 Y85.147 E30.77214
G1 X112.487 Y84.924 E30.77976
G1 X112.889 Y84.772 E30.7874
G1 X113.5 Y84.69 E30.79836
G1 X119.5 Y84.69 E30.90502
G1 X119.928 Y84.73 E30.91266
G1 X120.34 Y84.848 E30.92028
G1 X120.724 Y85.041 E30.92792
G1 X121.066 Y85.301 E30.93555
G1 X121.353 Y85.621 E30.94319
G1 X121.576 Y85.987 E30.95081
G1 X121.728 Y86.389 E30.95845
G1 X121.81 Y87 E30.96941
G1 X121.81 Y87.69 E30.98168
G1 X131.5 Y87.69 E31.15393
G1 X131.928 Y87.73 E31.16157
G1 X132.34 Y87.848 E31.16918
G1 X132.724 Y88.041 E31.17682
G1 X133.066 Y88.301 E31.18446
G1 X133.353 Y88.621 E31.1921
G1 X133.576 Y88.987 E31.19972
G1 X133.728 Y89.389 E31.20736
G1 X133.81 Y90 E31.21832
G1 X133.808 Y113.101 E31.62896
G1 X133.777 Y114.055 E31.64593
G1 X133.767 Y114.206 E31.64862
G1 X133.671 Y115.184 E31.66609
G1 X133.652 Y115.332 E31.66874
G1 X133.493 Y116.301 E31.68619
G1 X133.462 Y116.455 E31.68899
G1 X133.238 Y117.409 E31.70641
G1 X133.2 Y117.551 E31.70902
G1 X132.915 Y118.491 E31.72648
G1 X132.865 Y118.636 E31.72921
G1 X132.518 Y119.556 E31.74669
G1 X132.462 Y119.693 E31.74932
G1 X132.058 Y120.586 E31.76674
G1 X131.99 Y120.724 E31.76947
G1 X131.527 Y121.589 E31.78691
G1 X131.453 Y121.716 E31.78953
G1 X130.936 Y122.55 E31.80697
G1 X130.85 Y122.68 E31.80974
G1 X130.278 Y123.477 E31.82718
G1 X130.187 Y123.596 E31.82984
G1 X129.564 Y124.355 E31.8473
G1 X129.465 Y124.467 E31.84995
G1 X128.794 Y125.184 E31.86741
G1 X128.685 Y125.293 E31.87015
G1 X127.967 Y125.965 E31.88763
G1 X127.854 Y126.064 E31.8903
G1 X127.096 Y126.686 E31.90773
G1 X126.978 Y126.777 E31.91038
G1 X126.181 Y127.349 E31.92782
G1 X126.052 Y127.435 E31.93058
G1 X125.219 Y127.952 E31.948
G1 X125.091 Y128.026 E31.95063
G1 X124.224 Y128.49 E31.96811
G1 X124.086 Y128.558 E31.97085
G1 X123.193 Y128.962 E31.98827
G1 X123.056 Y129.018 E31.9909
G1 X122.136 Y129.365 E32.00838
G1 X121.991 Y129.415 E32.0111
G1 X121.051 Y129.7 E32.02856
G1 X120.907 Y129.738 E32.03121
G1 X119.953 Y129.961 E32.04863
G1 X119.803 Y129.991 E32.05135
G1 X118.834 Y130.151 E32.06881
G1 X118.684 Y130.171 E32.0715
G1 X117.706 Y130.267 E32.08896
G1 X117.555 Y130.277 E32.09165
G1 X116.575 Y130.309 E32.10908
G1 X116.425 Y130.309 E32.11175
G1 X115.445 Y130.277 E32.12918
G1 X115.294 Y130.267 E32.13187
G1 X114.316 Y130.171 E32.14934
G1 X114.168 Y130.152 E32.15199
G1 X113.199 Y129.993 E32.16945
G1 X113.045 Y129.962 E32.17224
G1 X112.091 Y129.738 E32.18966
G1 X111.949 Y129.7 E32.19227
G1 X111.009 Y129.415 E32.20973
G1 X110.864 Y129.365 E32.21246
G1 X109.944 Y129.018 E32.22994
G1 X109.807 Y128.962 E32.23257
G1 X108.914 Y128.558 E32.24999
G1 X108.776 Y128.49 E32.25272
G1 X107.909 Y128.026 E32.2702
G1 X107.781 Y127.952 E32.27283
G1 X106.948 Y127.435 E32.29026
G1 X106.819 Y127.349 E32.29302
G1 X106.022 Y126.777 E32.31045
G1 X105.904 Y126.686 E32.3131
G1 X105.146 Y126.064 E32.33053
G1 X105.033 Y125.965 E32.3332
G1 X104.315 Y125.293 E32.35069
G1 X104.206 Y125.184 E32.35343
G1 X103.535 Y124.467 E32.37088
G1 X103.436 Y124.355 E32.37354
G1 X102.813 Y123.596 E32.39099
G1 X102.722 Y123.477 E32.39366
G1 X102.15 Y122.68 E32.4111
G1 X102.064 Y122.55 E32.41387
G1 X101.547 Y121.716 E32.43131
G1 X101.473 Y121.589 E32.43392
G1 X101.01 Y120.724 E32.45136
G1 X100.942 Y120.586 E32.4541
G1 X100.538 Y119.693 E32.47152
G1 X100.482 Y119.556 E32.47415
G1 X100.135 Y118.636 E32.49163
G1 X100.085 Y118.491 E32.49436
G1 X99.8 Y117.551 E32.51182
G1 X99.762 Y117.407 E32.51446
G1 X99.539 Y116.453 E32.53188
G1 X99.509 Y116.303 E32.5346
G1 X99.349 Y115.334 E32.55206
G1 X99.329 Y115.184 E32.55475
G1 X99.233 Y114.206 E32.57221
G1 X99.223 Y114.055 E32.5749
G1 X99.191 Y113.075 E32.59233
G1 X99.189 Y90 E33.00251
G1 X99.229 Y89.573 E33.01014
G1 X99.347 Y89.16 E33.01777
G1 X99.54 Y88.776 E33.02541
G1 X99.8 Y88.435 E33.03304
M204 S625
M205 X6 Y6
G0 F4285.7 X100.214 Y88.614
M204 S500
M205 X5 Y5
G1 F1200 X100.525 Y88.381 E33.03994
G1 X100.876 Y88.216 E33.04684
G1 X101.254 Y88.126 E33.05375
G1 X101.499 Y88.11 E33.05811
G1 X111.61 Y88.11 E33.23784
G1 X111.61 Y87 E33.25757
G1 X111.65 Y86.614 E33.26447
G1 X111.768 Y86.244 E33.27138
G1 X111.959 Y85.906 E33.27828
G1 X112.215 Y85.614 E33.28518
G1 X112.526 Y85.381 E33.29209
G1 X112.877 Y85.216 E33.29898
G1 X113.255 Y85.126 E33.30589
G1 X113.5 Y85.11 E33.31025
G1 X119.5 Y85.11 E33.41691
G1 X119.886 Y85.15 E33.42381
G1 X120.256 Y85.268 E33.43071
G1 X120.594 Y85.459 E33.43761
G1 X120.886 Y85.715 E33.44452
G1 X121.119 Y86.026 E33.45142
G1 X121.284 Y86.377 E33.45832
G1 X121.374 Y86.755 E33.46522
G1 X121.39 Y87 E33.46959
G1 X121.39 Y88.11 E33.48932
G1 X131.5 Y88.11 E33.66904
G1 X131.886 Y88.15 E33.67593
G1 X132.256 Y88.268 E33.68284
G1 X132.594 Y88.459 E33.68974
G1 X132.886 Y88.715 E33.69664
G1 X133.119 Y89.026 E33.70355
G1 X133.284 Y89.377 E33.71044
G1 X133.374 Y89.755 E33.71735
G1 X133.39 Y90 E33.72171
G1 X133.388 Y113.087 E34.13211
G1 X133.357 Y114.041 E34.14908
G1 X133.349 Y114.165 E34.15128
G1 X133.253 Y115.143 E34.16875
G1 X133.237 Y115.264 E34.17092
G1 X133.078 Y116.233 E34.18838
G1 X133.053 Y116.359 E34.19066
G1 X132.829 Y117.313 E34.20808
G1 X132.798 Y117.429 E34.21022
G1 X132.513 Y118.369 E34.22768
G1 X132.472 Y118.488 E34.22991
G1 X132.125 Y119.408 E34.24739
G1 X132.079 Y119.52 E34.24954
G1 X131.675 Y120.413 E34.26697
G1 X131.619 Y120.526 E34.26921
G1 X131.156 Y121.391 E34.28665
G1 X131.096 Y121.495 E34.28878
G1 X130.579 Y122.329 E34.30623
G1 X130.508 Y122.435 E34.30849
G1 X129.936 Y123.232 E34.32593
G1 X129.862 Y123.329 E34.3281
G1 X129.239 Y124.088 E34.34556
G1 X129.158 Y124.18 E34.34774
G1 X128.487 Y124.897 E34.36519
G1 X128.398 Y124.986 E34.36743
G1 X127.68 Y125.658 E34.38491
G1 X127.588 Y125.739 E34.38709
G1 X126.83 Y126.361 E34.40452
G1 X126.733 Y126.435 E34.40669
G1 X125.936 Y127.007 E34.42413
G1 X125.831 Y127.078 E34.42638
G1 X124.998 Y127.595 E34.44381
G1 X124.893 Y127.655 E34.44596
G1 X124.026 Y128.119 E34.46344
G1 X123.913 Y128.175 E34.46568
G1 X123.02 Y128.579 E34.4831
G1 X122.908 Y128.625 E34.48525
G1 X121.988 Y128.972 E34.50273
G1 X121.869 Y129.013 E34.50497
G1 X120.929 Y129.298 E34.52243
G1 X120.811 Y129.329 E34.5246
G1 X119.857 Y129.552 E34.54201
G1 X119.735 Y129.577 E34.54423
G1 X118.766 Y129.737 E34.56169
G1 X118.643 Y129.753 E34.56389
G1 X117.665 Y129.849 E34.58136
G1 X117.542 Y129.857 E34.58355
G1 X116.562 Y129.889 E34.60098
G1 X116.438 Y129.889 E34.60318
G1 X115.458 Y129.857 E34.62061
G1 X115.335 Y129.849 E34.6228
G1 X114.357 Y129.753 E34.64027
G1 X114.236 Y129.737 E34.64244
G1 X113.267 Y129.578 E34.6599
G1 X113.141 Y129.553 E34.66218
G1 X112.187 Y129.329 E34.6796
G1 X112.071 Y129.298 E34.68174
G1 X111.131 Y129.013 E34.6992
G1 X111.012 Y128.972 E34.70143
G1 X110.092 Y128.625 E34.71891
G1 X109.98 Y128.579 E34.72106
G1 X109.087 Y128.175 E34.73849
G1 X108.974 Y128.119 E34.74073
G1 X108.107 Y127.655 E34.75821
G1 X108.002 Y127.595 E34.76036
G1 X107.169 Y127.078 E34.77779
G1 X107.064 Y127.007 E34.78004
G1 X106.267 Y126.435 E34.79748
G1 X106.17 Y126.361 E34.79965
G1 X105.412 Y125.739 E34.81708
G1 X105.32 Y125.658 E34.81926
G1 X104.602 Y124.986 E34.83674
G1 X104.513 Y124.897 E34.83897
G1 X103.842 Y124.18 E34.85643
G1 X103.761 Y124.088 E34.85861
G1 X103.138 Y123.329 E34.87606
G1 X103.064 Y123.232 E34.87823
G1 X102.492 Y122.435 E34.89567
G1 X102.421 Y122.329 E34.89794
G1 X101.904 Y121.495 E34.91538
G1 X101.844 Y121.391 E34.91752
G1 X101.381 Y120.526 E34.93496
G1 X101.325 Y120.413 E34.9372
G1 X100.921 Y119.52 E34.95462
G1 X100.875 Y119.408 E34.95677
G1 X100.528 Y118.488 E34.97425
G1 X100.487 Y118.369 E34.97649
G1 X100.202 Y117.429 E34.99395
G1 X100.171 Y117.311 E34.99612
G1 X99.948 Y116.357 E35.01353
G1 X99.923 Y116.235 E35.01575
G1 X99.763 Y115.266 E35.03321
G1 X99.747 Y115.143 E35.03541
G1 X99.651 Y114.165 E35.05288
G1 X99.643 Y114.042 E35.05507
G1 X99.61 Y113 E35.0736
G1 X99.609 Y90 E35.48245
G1 X99.649 Y89.614 E35.48935
G1 X99.767 Y89.244 E35.49625
G1 X99.958 Y88.906 E35.50315
G1 X100.214 Y88.614 E35.51006
M204 S625
M205 X6 Y6
G0 F4285.7 X100.375 Y89.053
M204 S500
M205 X5 Y5
G1 F1200 X100.624 Y88.818 E35.51614
G1 X100.921 Y88.648 E35.52222
G1 X101.25 Y88.551 E35.52832
G1 X101.499 Y88.53 E35.53276
G1 X112.03 Y88.53 E35.71996
G1 X112.03 Y87 E35.74716
G1 X112.07 Y86.66 E35.75325
G1 X112.187 Y86.338 E35.75934
G1 X112.376 Y86.053 E35.76541
G1 X112.626 Y85.818 E35.77151
G1 X112.923 Y85.648 E35.7776
G1 X113.251 Y85.551 E35.78368
G1 X113.5 Y85.53 E35.78812
G1 X119.5 Y85.53 E35.89477
G1 X119.84 Y85.57 E35.90086
G1 X120.162 Y85.687 E35.90695
G1 X120.447 Y85.876 E35.91303
G1 X120.682 Y86.126 E35.91913
G1 X120.852 Y86.423 E35.92521
G1 X120.949 Y86.751 E35.93129
G1 X120.97 Y87 E35.93573
G1 X120.97 Y88.53 E35.96293
G1 X131.5 Y88.53 E36.15011
G1 X131.84 Y88.57 E36.1562
G1 X132.162 Y88.687 E36.16229
G1 X132.447 Y88.876 E36.16837
G1 X132.682 Y89.126 E36.17447
G1 X132.852 Y89.423 E36.18055
G1 X132.949 Y89.751 E36.18663
G1 X132.97 Y90 E36.19107
G1 X132.968 Y113.074 E36.60123
G1 X132.937 Y114.028 E36.6182
G1 X132.931 Y114.124 E36.61991
G1 X132.835 Y115.102 E36.63738
G1 X132.823 Y115.196 E36.63906
G1 X132.664 Y116.165 E36.65652
G1 X132.644 Y116.263 E36.6583
G1 X132.42 Y117.217 E36.67572
G1 X132.396 Y117.308 E36.67739
G1 X132.111 Y118.248 E36.69485
G1 X132.079 Y118.34 E36.69658
G1 X131.732 Y119.26 E36.71406
G1 X131.696 Y119.347 E36.71573
G1 X131.292 Y120.24 E36.73316
G1 X131.249 Y120.328 E36.7349
G1 X130.786 Y121.193 E36.75234
G1 X130.739 Y121.274 E36.754
G1 X130.222 Y122.108 E36.77144
G1 X130.167 Y122.19 E36.7732
G1 X129.595 Y122.987 E36.79064
G1 X129.537 Y123.063 E36.79234
G1 X128.914 Y123.822 E36.80979
G1 X128.851 Y123.893 E36.81148
G1 X128.18 Y124.61 E36.82894
G1 X128.111 Y124.679 E36.83067
G1 X127.393 Y125.351 E36.84815
G1 X127.321 Y125.414 E36.84985
G1 X126.563 Y126.036 E36.86728
G1 X126.488 Y126.094 E36.86897
G1 X125.691 Y126.666 E36.88641
G1 X125.609 Y126.721 E36.88816
G1 X124.776 Y127.238 E36.90559
G1 X124.695 Y127.285 E36.90725
G1 X123.828 Y127.749 E36.92473
G1 X123.74 Y127.792 E36.92647
G1 X122.847 Y128.196 E36.9439
G1 X122.76 Y128.232 E36.94557
G1 X121.84 Y128.579 E36.96305
G1 X121.748 Y128.611 E36.96478
G1 X120.808 Y128.896 E36.98224
G1 X120.716 Y128.92 E36.98393
G1 X119.762 Y129.143 E37.00135
G1 X119.666 Y129.162 E37.00309
G1 X118.697 Y129.322 E37.02055
G1 X118.602 Y129.335 E37.02225
G1 X117.624 Y129.431 E37.03972
G1 X117.528 Y129.437 E37.04143
G1 X116.548 Y129.469 E37.05886
G1 X116.452 Y129.469 E37.06056
G1 X115.472 Y129.437 E37.07799
G1 X115.376 Y129.431 E37.0797
G1 X114.398 Y129.335 E37.09717
G1 X114.304 Y129.323 E37.09886
G1 X113.335 Y129.164 E37.11631
G1 X113.237 Y129.144 E37.11809
G1 X112.283 Y128.92 E37.13551
G1 X112.192 Y128.896 E37.13718
G1 X111.252 Y128.611 E37.15464
G1 X111.16 Y128.579 E37.15637
G1 X110.24 Y128.232 E37.17385
G1 X110.153 Y128.196 E37.17553
G1 X109.26 Y127.792 E37.19295
G1 X109.172 Y127.749 E37.19469
G1 X108.305 Y127.285 E37.21217
G1 X108.224 Y127.238 E37.21384
G1 X107.391 Y126.721 E37.23126
G1 X107.309 Y126.666 E37.23302
G1 X106.512 Y126.094 E37.25046
G1 X106.437 Y126.036 E37.25214
G1 X105.679 Y125.414 E37.26957
G1 X105.607 Y125.351 E37.27127
G1 X104.889 Y124.679 E37.28875
G1 X104.82 Y124.61 E37.29049
G1 X104.149 Y123.893 E37.30794
G1 X104.086 Y123.822 E37.30963
G1 X103.463 Y123.063 E37.32709
G1 X103.405 Y122.987 E37.32879
G1 X102.833 Y122.19 E37.34622
G1 X102.778 Y122.108 E37.34798
G1 X102.261 Y121.274 E37.36542
G1 X102.214 Y121.193 E37.36709
G1 X101.751 Y120.328 E37.38453
G1 X101.708 Y120.24 E37.38627
G1 X101.304 Y119.347 E37.40369
G1 X101.268 Y119.26 E37.40536
G1 X100.921 Y118.34 E37.42284
G1 X100.889 Y118.248 E37.42457
G1 X100.604 Y117.308 E37.44204
G1 X100.58 Y117.216 E37.44373
G1 X100.357 Y116.262 E37.46114
G1 X100.338 Y116.166 E37.46288
G1 X100.178 Y115.197 E37.48034
G1 X100.165 Y115.102 E37.48204
G1 X100.069 Y114.124 E37.49951
G1 X100.063 Y114.028 E37.50122
G1 X100.03 Y113 E37.5195
G1 X100.029 Y90 E37.92835
G1 X100.069 Y89.66 E37.93444
G1 X100.186 Y89.338 E37.94053
G1 X100.375 Y89.053 E37.94661
M204 S625
M205 X6 Y6
G0 F4285.7 X100.789 Y89.226
M204 S500
M205 X5 Y5
G1 F1200 X101.027 Y89.062 E37.95174
G1 X101.301 Y88.969 E37.95689
G1 X101.499 Y88.95 E37.96042
G1 X112.45 Y88.95 E38.15509
G1 X112.45 Y87 E38.18975
G1 X112.49 Y86.714 E38.19488
G1 X112.606 Y86.449 E38.20003
G1 X112.79 Y86.226 E38.20517
G1 X113.028 Y86.062 E38.2103
G1 X113.302 Y85.969 E38.21545
G1 X113.5 Y85.95 E38.21898
G1 X119.5 Y85.95 E38.32564
G1 X119.786 Y85.99 E38.33077
G1 X120.051 Y86.106 E38.33591
G1 X120.274 Y86.29 E38.34105
G1 X120.438 Y86.528 E38.34619
G1 X120.531 Y86.802 E38.35134
G1 X120.55 Y87 E38.35487
G1 X120.55 Y88.95 E38.38953
G1 X131.5 Y88.95 E38.58418
G1 X131.786 Y88.99 E38.58931
G1 X132.051 Y89.106 E38.59446
G1 X132.274 Y89.29 E38.5996
G1 X132.438 Y89.528 E38.60473
G1 X132.531 Y89.802 E38.60988
G1 X132.55 Y90 E38.61341
G1 X132.548 Y113.06 E39.02333
G1 X132.517 Y114.014 E39.04029
G1 X132.513 Y114.083 E39.04152
G1 X132.417 Y115.061 E39.05899
G1 X132.408 Y115.128 E39.06019
G1 X132.249 Y116.097 E39.07765
G1 X132.235 Y116.167 E39.07892
G1 X132.011 Y117.121 E39.09634
G1 X131.994 Y117.186 E39.09753
G1 X131.709 Y118.126 E39.11499
G1 X131.686 Y118.192 E39.11623
G1 X131.339 Y119.112 E39.13371
G1 X131.314 Y119.174 E39.1349
G1 X130.91 Y120.067 E39.15232
G1 X130.879 Y120.13 E39.15357
G1 X130.416 Y120.995 E39.17101
G1 X130.382 Y121.052 E39.17219
G1 X129.865 Y121.886 E39.18963
G1 X129.826 Y121.945 E39.19089
G1 X129.254 Y122.742 E39.20833
G1 X129.213 Y122.796 E39.20954
G1 X128.59 Y123.555 E39.22699
G1 X128.545 Y123.606 E39.2282
G1 X127.874 Y124.323 E39.24566
G1 X127.824 Y124.373 E39.24691
G1 X127.106 Y125.045 E39.26439
G1 X127.055 Y125.09 E39.2656
G1 X126.297 Y125.712 E39.28303
G1 X126.243 Y125.753 E39.28424
G1 X125.446 Y126.325 E39.30168
G1 X125.388 Y126.364 E39.30292
G1 X124.555 Y126.881 E39.32035
G1 X124.496 Y126.915 E39.32156
G1 X123.629 Y127.379 E39.33904
G1 X123.567 Y127.41 E39.34027
G1 X122.674 Y127.814 E39.35769
G1 X122.612 Y127.839 E39.35888
G1 X121.692 Y128.186 E39.37636
G1 X121.626 Y128.209 E39.3776
G1 X120.686 Y128.494 E39.39506
G1 X120.62 Y128.511 E39.39627
G1 X119.666 Y128.734 E39.41369
G1 X119.598 Y128.748 E39.41492
G1 X118.629 Y128.908 E39.43238
G1 X118.561 Y128.917 E39.4336
G1 X117.583 Y129.013 E39.45107
G1 X117.514 Y129.017 E39.4523
G1 X116.534 Y129.049 E39.46973
G1 X116.466 Y129.049 E39.47094
G1 X115.486 Y129.017 E39.48837
G1 X115.417 Y129.013 E39.48959
G1 X114.439 Y128.917 E39.50706
G1 X114.372 Y128.908 E39.50826
G1 X113.403 Y128.749 E39.52572
G1 X113.333 Y128.735 E39.52699
G1 X112.379 Y128.511 E39.54441
G1 X112.314 Y128.494 E39.5456
G1 X111.374 Y128.209 E39.56306
G1 X111.308 Y128.186 E39.56431
G1 X110.388 Y127.839 E39.58178
G1 X110.326 Y127.814 E39.58297
G1 X109.433 Y127.41 E39.6004
G1 X109.371 Y127.379 E39.60163
G1 X108.504 Y126.915 E39.61911
G1 X108.445 Y126.881 E39.62032
G1 X107.612 Y126.364 E39.63775
G1 X107.554 Y126.325 E39.63899
G1 X106.757 Y125.753 E39.65643
G1 X106.703 Y125.712 E39.65763
G1 X105.945 Y125.09 E39.67506
G1 X105.894 Y125.045 E39.67627
G1 X105.176 Y124.373 E39.69375
G1 X105.126 Y124.323 E39.69501
G1 X104.455 Y123.606 E39.71246
G1 X104.41 Y123.555 E39.71367
G1 X103.787 Y122.796 E39.73113
G1 X103.746 Y122.742 E39.73233
G1 X103.174 Y121.945 E39.74977
G1 X103.135 Y121.886 E39.75103
G1 X102.618 Y121.052 E39.76847
G1 X102.584 Y120.995 E39.76965
G1 X102.121 Y120.13 E39.78709
G1 X102.09 Y120.067 E39.78834
G1 X101.686 Y119.174 E39.80576
G1 X101.661 Y119.112 E39.80695
G1 X101.314 Y118.192 E39.82443
G1 X101.291 Y118.126 E39.82567
G1 X101.006 Y117.186 E39.84313
G1 X100.989 Y117.12 E39.84434
G1 X100.766 Y116.166 E39.86176
G1 X100.752 Y116.098 E39.86299
G1 X100.592 Y115.129 E39.88045
G1 X100.583 Y115.061 E39.88167
G1 X100.487 Y114.083 E39.89914
G1 X100.483 Y114.014 E39.90037
G1 X100.45 Y113 E39.9184
G1 X100.449 Y90 E40.32725
G1 X100.489 Y89.714 E40.33238
G1 X100.605 Y89.449 E40.33753
G1 X100.789 Y89.226 E40.34267
M204 S625
M205 X6 Y6
G0 F4285.7 X101.023 Y89.588
M204 S500
M205 X5 Y5
G1 F1200 X101.197 Y89.447 E40.34665
G1 X101.499 Y89.37 E40.35219
G1 X112.87 Y89.37 E40.55432
G1 X112.87 Y87 E40.59645
G1 X112.91 Y86.78 E40.60042
G1 X113.024 Y86.588 E40.60439
G1 X113.198 Y86.447 E40.60837
G1 X113.5 Y86.37 E40.61391
G1 X119.5 Y86.37 E40.72057
G1 X119.72 Y86.41 E40.72454
G1 X119.912 Y86.524 E40.72851
G1 X120.053 Y86.698 E40.73249
G1 X120.13 Y87 E40.73803
G1 X120.13 Y89.37 E40.78016
G1 X131.5 Y89.37 E40.98227
G1 X131.72 Y89.41 E40.98625
G1 X131.912 Y89.524 E40.99022
G1 X132.053 Y89.698 E40.9942
G1 X132.13 Y90 E40.99974
G1 X132.129 Y113.046 E41.40941
G1 X132.098 Y114 E41.42637
G1 X132.095 Y114.042 E41.42712
G1 X131.999 Y115.02 E41.44459
G1 X131.994 Y115.06 E41.44531
G1 X131.835 Y116.029 E41.46276
G1 X131.602 Y117.025 E41.48094
G1 X131.592 Y117.064 E41.48166
G1 X131.307 Y118.004 E41.49912
G1 X130.931 Y119.001 E41.51806
G1 X130.527 Y119.894 E41.53548
G1 X130.045 Y120.796 E41.55366
G1 X130.025 Y120.831 E41.55438
G1 X129.508 Y121.665 E41.57182
G1 X129.485 Y121.7 E41.57257
G1 X128.913 Y122.497 E41.59001
G1 X128.888 Y122.53 E41.59074
G1 X128.265 Y123.289 E41.6082
G1 X127.567 Y124.036 E41.62637
G1 X127.537 Y124.066 E41.62712
G1 X126.789 Y124.765 E41.64532
G1 X126.031 Y125.387 E41.66275
G1 X125.998 Y125.412 E41.66349
G1 X125.201 Y125.984 E41.68093
G1 X125.166 Y126.007 E41.68167
G1 X124.333 Y126.524 E41.6991
G1 X124.298 Y126.544 E41.69982
G1 X123.394 Y127.027 E41.71804
G1 X122.501 Y127.431 E41.73546
G1 X121.504 Y127.807 E41.7544
G1 X120.564 Y128.092 E41.77186
G1 X119.53 Y128.334 E41.79074
G1 X118.561 Y128.494 E41.80819
G1 X117.542 Y128.595 E41.8264
G1 X117.501 Y128.598 E41.82713
G1 X116.521 Y128.63 E41.84456
G1 X116.479 Y128.63 E41.8453
G1 X115.499 Y128.598 E41.86273
G1 X114.48 Y128.499 E41.88093
G1 X114.44 Y128.494 E41.88165
G1 X113.471 Y128.335 E41.89911
G1 X112.475 Y128.102 E41.91729
G1 X112.436 Y128.092 E41.918
G1 X111.496 Y127.807 E41.93546
G1 X110.499 Y127.431 E41.95441
G1 X109.606 Y127.027 E41.97183
G1 X108.702 Y126.544 E41.99005
G1 X108.667 Y126.524 E41.99076
G1 X107.834 Y126.007 E42.00819
G1 X107.799 Y125.984 E42.00894
G1 X107.002 Y125.412 E42.02637
G1 X106.969 Y125.387 E42.02711
G1 X106.211 Y124.765 E42.04454
G1 X105.463 Y124.066 E42.06274
G1 X105.433 Y124.036 E42.06349
G1 X104.735 Y123.289 E42.08167
G1 X104.112 Y122.53 E42.09912
G1 X104.087 Y122.497 E42.09986
G1 X103.515 Y121.7 E42.1173
G1 X103.492 Y121.665 E42.11804
G1 X102.975 Y120.831 E42.13548
G1 X102.955 Y120.796 E42.1362
G1 X102.473 Y119.894 E42.15438
G1 X102.069 Y119.001 E42.1718
G1 X101.693 Y118.004 E42.19074
G1 X101.408 Y117.064 E42.2082
G1 X101.166 Y116.03 E42.22708
G1 X101.006 Y115.061 E42.24454
G1 X100.905 Y114.042 E42.26274
G1 X100.902 Y114.001 E42.26347
G1 X100.87 Y113 E42.28127
G1 X100.869 Y90 E42.69012
G1 X100.909 Y89.78 E42.6941
G1 X101.023 Y89.588 E42.69807
M204 S625
M205 X6 Y6
G0 F4285.7 X101.328 Y89.878
M204 S500
M205 X5 Y5
G1 F1200 X101.499 Y89.79 E42.70149
G1 X113.29 Y89.79 E42.91108
G1 X113.29 Y87 E42.96068
G1 X113.329 Y86.878 E42.96295
G1 X113.5 Y86.79 E42.96637
G1 X119.5 Y86.79 E43.07303
G1 X119.622 Y86.829 E43.0753
G1 X119.71 Y87 E43.07872
G1 X119.71 Y89.79 E43.12832
G1 X131.5 Y89.79 E43.3379
G1 X131.622 Y89.829 E43.34017
G1 X131.71 Y90 E43.34359
G1 X131.709 Y113.033 E43.75303
G1 X131.677 Y114.001 E43.77024
G1 X131.579 Y114.992 E43.78794
G1 X131.417 Y115.975 E43.80565
G1 X131.19 Y116.942 E43.82331
G1 X130.9 Y117.895 E43.84102
G1 X130.548 Y118.828 E43.85874
G1 X130.138 Y119.733 E43.87641
G1 X129.668 Y120.61 E43.89409
G1 X129.144 Y121.455 E43.91177
G1 X128.563 Y122.263 E43.92946
G1 X127.931 Y123.032 E43.94715
G1 X127.25 Y123.759 E43.96486
G1 X126.522 Y124.44 E43.98258
G1 X125.753 Y125.071 E44.00026
G1 X124.945 Y125.65 E44.01793
G1 X124.1 Y126.174 E44.03561
G1 X123.221 Y126.644 E44.05332
G1 X122.315 Y127.053 E44.07099
G1 X121.382 Y127.405 E44.08872
G1 X120.429 Y127.693 E44.10642
G1 X119.461 Y127.919 E44.12409
G1 X118.479 Y128.081 E44.14178
G1 X117.487 Y128.178 E44.1595
G1 X116.493 Y128.21 E44.17718
G1 X115.499 Y128.177 E44.19486
G1 X114.508 Y128.079 E44.21256
G1 X113.525 Y127.917 E44.23027
G1 X112.558 Y127.69 E44.24792
G1 X111.605 Y127.4 E44.26563
G1 X110.672 Y127.048 E44.28336
G1 X109.767 Y126.638 E44.30102
G1 X108.888 Y126.167 E44.31874
G1 X108.044 Y125.643 E44.3364
G1 X107.236 Y125.062 E44.35409
G1 X106.468 Y124.431 E44.37176
G1 X105.74 Y123.749 E44.3895
G1 X105.06 Y123.022 E44.40719
G1 X104.428 Y122.252 E44.4249
G1 X103.849 Y121.444 E44.44257
G1 X103.325 Y120.598 E44.46026
G1 X102.856 Y119.721 E44.47794
G1 X102.447 Y118.815 E44.49561
G1 X102.095 Y117.882 E44.51333
G1 X101.807 Y116.929 E44.53103
G1 X101.581 Y115.961 E44.5487
G1 X101.419 Y114.979 E44.56639
G1 X101.322 Y113.987 E44.58411
G1 X101.29 Y113 E44.60166
G1 X101.289 Y90 E45.01051
G1 X101.328 Y89.878 E45.01279
M204 S625
M205 X6 Y6
G1 F1500 E38.51279
;MESH:Lens holder.stl
G0 F4285.7 X102.114 Y90.614
G0 X114.128 Y90.628
G0 X118.8 Y90.21
G0 X119.29 Y90.21
M204 S500
M205 X5 Y5
;TYPE:WALL-OUTER
G1 F1500 E45.01279
G1 F1200 X131.08 Y90.21 E45.22237
G1 X131.29 Y90.21 E45.2261
G1 X131.29 Y90.42 E45.22852
G1 X131.289 Y113.019 E45.63024
G1 X131.258 Y113.968 E45.64712
G1 X131.163 Y114.935 E45.66439
G1 X131.007 Y115.878 E45.68138
G1 X130.784 Y116.834 E45.69883
G1 X130.507 Y117.748 E45.7158
G1 X130.161 Y118.666 E45.73324
G1 X129.764 Y119.542 E45.75034
G1 X129.308 Y120.396 E45.76755
G1 X128.801 Y121.212 E45.78463
G1 X128.229 Y122.009 E45.80206
G1 X127.619 Y122.754 E45.81918
G1 X126.959 Y123.459 E45.83635
G1 X126.257 Y124.116 E45.85344
G1 X125.509 Y124.729 E45.87063
G1 X124.714 Y125.3 E45.88803
G1 X123.896 Y125.808 E45.90515
G1 X123.042 Y126.264 E45.92236
G1 X122.166 Y126.661 E45.93945
G1 X121.249 Y127.007 E45.95687
G1 X120.334 Y127.284 E45.97387
G1 X119.378 Y127.507 E45.99132
G1 X118.435 Y127.663 E46.00831
G1 X117.468 Y127.758 E46.02558
G1 X116.5 Y127.79 E46.0428
G1 X115.532 Y127.758 E46.06001
G1 X114.565 Y127.663 E46.07729
G1 X113.622 Y127.507 E46.09428
G1 X112.666 Y127.284 E46.11173
G1 X111.751 Y127.007 E46.12872
G1 X110.834 Y126.661 E46.14614
G1 X109.958 Y126.264 E46.16324
G1 X109.104 Y125.808 E46.18045
G1 X108.286 Y125.3 E46.19756
G1 X107.491 Y124.729 E46.21496
G1 X106.743 Y124.116 E46.23216
G1 X106.041 Y123.459 E46.24925
G1 X105.381 Y122.754 E46.26641
G1 X104.771 Y122.009 E46.28353
G1 X104.199 Y121.212 E46.30097
G1 X103.692 Y120.396 E46.31804
G1 X103.236 Y119.542 E46.33525
G1 X102.839 Y118.666 E46.35235
G1 X102.493 Y117.748 E46.36979
G1 X102.216 Y116.834 E46.38677
G1 X101.993 Y115.878 E46.40422
G1 X101.837 Y114.935 E46.42121
G1 X101.742 Y113.968 E46.43848
G1 X101.71 Y113 E46.4557
G1 X101.71 Y90.21 E46.86081
G1 X113.71 Y90.21 E47.07412
G1 X113.71 Y87.21 E47.12745
G1 X119.29 Y87.21 E47.22664
G1 X119.29 Y90.21 E47.27997
M204 S625
M205 X6 Y6
G0 F4285.7 X119.49 Y90.21
G0 X119.49 Y90.672
G0 X119.49 Y90.7
G0 X106.496 Y105.276
G0 X105.417 Y106.801
G0 X105.852 Y107.024
M204 S500
M205 X5 Y5
G1 F1200 X105.445 Y107.818 E47.29583
G1 X105.096 Y108.638 E47.31167
G1 X104.808 Y109.482 E47.32752
G1 X104.582 Y110.345 E47.34338
G1 X104.42 Y111.222 E47.35923
G1 X104.322 Y112.109 E47.3751
G1 X104.29 Y113 E47.39094
G1 X104.322 Y113.891 E47.40679
G1 X104.42 Y114.778 E47.42266
G1 X104.582 Y115.655 E47.43851
G1 X104.808 Y116.518 E47.45437
G1 X105.096 Y117.362 E47.47022
G1 X105.445 Y118.182 E47.48606
G1 X105.852 Y118.976 E47.50192
G1 X106.317 Y119.737 E47.51778
G1 X106.836 Y120.462 E47.53362
G1 X107.406 Y121.148 E47.54948
G1 X108.025 Y121.79 E47.56533
G1 X108.69 Y122.386 E47.58121
G1 X109.396 Y122.93 E47.59705
G1 X110.139 Y123.422 E47.61289
G1 X110.917 Y123.859 E47.62875
G1 X111.725 Y124.237 E47.64461
G1 X112.557 Y124.556 E47.66045
G1 X113.412 Y124.813 E47.67632
G1 X114.282 Y125.007 E47.69216
G1 X115.165 Y125.137 E47.70803
G1 X116.054 Y125.202 E47.72387
G1 X116.946 Y125.202 E47.73973
G1 X117.835 Y125.137 E47.75557
G1 X118.718 Y125.007 E47.77144
G1 X119.588 Y124.813 E47.78729
G1 X120.443 Y124.556 E47.80316
G1 X121.275 Y124.237 E47.81899
G1 X122.083 Y123.859 E47.83485
G1 X122.861 Y123.422 E47.85071
G1 X123.604 Y122.93 E47.86655
G1 X124.31 Y122.386 E47.8824
G1 X124.975 Y121.79 E47.89827
G1 X125.594 Y121.148 E47.91412
G1 X126.164 Y120.462 E47.92998
G1 X126.683 Y119.737 E47.94583
G1 X127.148 Y118.976 E47.96168
G1 X127.555 Y118.182 E47.97754
G1 X127.904 Y117.362 E47.99338
G1 X128.192 Y116.518 E48.00924
G1 X128.418 Y115.655 E48.02509
G1 X128.58 Y114.778 E48.04095
G1 X128.678 Y113.891 E48.05681
G1 X128.71 Y113 E48.07266
G1 X128.678 Y112.109 E48.08851
G1 X128.58 Y111.222 E48.10437
G1 X128.418 Y110.345 E48.12022
G1 X128.192 Y109.482 E48.13608
G1 X127.904 Y108.638 E48.15193
G1 X127.555 Y107.818 E48.16778
G1 X127.148 Y107.024 E48.18364
G1 X126.683 Y106.263 E48.19949
G1 X126.164 Y105.538 E48.21534
G1 X125.594 Y104.852 E48.23119
G1 X124.975 Y104.21 E48.24705
G1 X124.31 Y103.614 E48.26292
G1 X123.604 Y103.07 E48.27876
G1 X122.861 Y102.578 E48.2946
G1 X122.083 Y102.141 E48.31047
G1 X121.275 Y101.763 E48.32632
G1 X120.443 Y101.444 E48.34216
G1 X119.588 Y101.187 E48.35803
G1 X118.718 Y100.993 E48.37388
G1 X117.835 Y100.863 E48.38974
G1 X116.946 Y100.798 E48.40559
G1 X116.054 Y100.798 E48.42144
G1 X115.165 Y100.863 E48.43729
G1 X114.282 Y100.993 E48.45315
G1 X113.412 Y101.187 E48.469
G1 X112.557 Y101.444 E48.48487
G1 X111.725 Y101.763 E48.50071
G1 X110.917 Y102.141 E48.51657
G1 X110.139 Y102.578 E48.53243
G1 X109.396 Y103.07 E48.54827
G1 X108.69 Y103.614 E48.56411
G1 X108.025 Y104.21 E48.57999
G1 X107.406 Y104.852 E48.59584
G1 X106.836 Y105.538 E48.61169
G1 X106.317 Y106.263 E48.62754
G1 X105.852 Y107.024 E48.6434
M204 S625
M205 X6 Y6
G0 F4285.7 X105.761 Y107.202
G0 X105.512 Y106.833
M204 S500
M205 X5 Y5
;TYPE:WALL-INNER
G1 F1200 X105.092 Y107.652 E48.65742
G1 X104.732 Y108.498 E48.67143
G1 X104.434 Y109.369 E48.68545
G1 X104.201 Y110.26 E48.69949
G1 X104.034 Y111.165 E48.71351
G1 X103.933 Y112.081 E48.72755
G1 X103.9 Y113 E48.74156
G1 X103.933 Y113.919 E48.75557
G1 X104.034 Y114.835 E48.76961
G1 X104.201 Y115.74 E48.78364
G1 X104.434 Y116.631 E48.79767
G1 X104.732 Y117.502 E48.81169
G1 X105.092 Y118.348 E48.8257
G1 X105.512 Y119.167 E48.83973
G1 X105.992 Y119.952 E48.85375
G1 X106.527 Y120.7 E48.86776
G1 X107.115 Y121.408 E48.88178
G1 X107.754 Y122.071 E48.89581
G1 X108.44 Y122.686 E48.90985
G1 X109.169 Y123.247 E48.92386
G1 X109.936 Y123.755 E48.93788
G1 X110.739 Y124.206 E48.95191
G1 X111.572 Y124.596 E48.96593
G1 X112.431 Y124.925 E48.97994
G1 X113.313 Y125.191 E48.99398
G1 X114.211 Y125.391 E49.008
G1 X115.122 Y125.525 E49.02203
G1 X116.04 Y125.592 E49.03605
G1 X116.96 Y125.592 E49.05007
G1 X117.878 Y125.525 E49.06409
G1 X118.789 Y125.391 E49.07812
G1 X119.687 Y125.191 E49.09214
G1 X120.569 Y124.925 E49.10618
G1 X121.428 Y124.596 E49.12019
G1 X122.261 Y124.206 E49.13421
G1 X123.064 Y123.755 E49.14824
G1 X123.831 Y123.247 E49.16226
G1 X124.56 Y122.686 E49.17627
G1 X125.246 Y122.071 E49.19031
G1 X125.885 Y121.408 E49.20434
G1 X126.473 Y120.7 E49.21836
G1 X127.008 Y119.952 E49.23238
G1 X127.488 Y119.167 E49.2464
G1 X127.908 Y118.348 E49.26042
G1 X128.268 Y117.502 E49.27443
G1 X128.566 Y116.631 E49.28845
G1 X128.799 Y115.74 E49.30249
G1 X128.966 Y114.835 E49.31651
G1 X129.067 Y113.919 E49.33055
G1 X129.1 Y113 E49.34456
G1 X129.067 Y112.081 E49.35857
G1 X128.966 Y111.165 E49.37261
G1 X128.799 Y110.26 E49.38664
G1 X128.566 Y109.369 E49.40067
G1 X128.268 Y108.498 E49.41469
G1 X127.908 Y107.652 E49.4287
G1 X127.488 Y106.833 E49.44273
G1 X127.008 Y106.048 E49.45675
G1 X126.473 Y105.3 E49.47076
G1 X125.885 Y104.592 E49.48478
G1 X125.246 Y103.929 E49.49881
G1 X124.56 Y103.314 E49.51285
G1 X123.831 Y102.753 E49.52686
G1 X123.064 Y102.245 E49.54088
G1 X122.261 Y101.794 E49.55491
G1 X121.428 Y101.404 E49.56893
G1 X120.569 Y101.075 E49.58294
G1 X119.687 Y100.809 E49.59698
G1 X118.789 Y100.609 E49.611
G1 X117.878 Y100.475 E49.62503
G1 X116.96 Y100.408 E49.63905
G1 X116.04 Y100.408 E49.65307
G1 X115.122 Y100.475 E49.66709
G1 X114.211 Y100.609 E49.68112
G1 X113.313 Y100.809 E49.69514
G1 X112.431 Y101.075 E49.70918
G1 X111.572 Y101.404 E49.72319
G1 X110.739 Y101.794 E49.73721
G1 X109.936 Y102.245 E49.75124
G1 X109.169 Y102.753 E49.76526
G1 X108.44 Y103.314 E49.77927
G1 X107.754 Y103.929 E49.79331
G1 X107.115 Y104.592 E49.80734
G1 X106.527 Y105.3 E49.82136
G1 X105.992 Y106.048 E49.83538
G1 X105.512 Y106.833 E49.84939
M204 S625
M205 X6 Y6
G0 F4285.7 X105.198 Y106.657
M204 S500
M205 X5 Y5
G1 F1200 X104.766 Y107.499 E49.86381
G1 X104.402 Y108.357 E49.87801
G1 X104.396 Y108.369 E49.87822
G1 X104.089 Y109.265 E49.89265
G1 X103.849 Y110.182 E49.90709
G1 X103.681 Y111.1 E49.92131
G1 X103.678 Y111.113 E49.92152
G1 X103.574 Y112.055 E49.93596
G1 X103.54 Y113 E49.95036
G1 X103.574 Y113.945 E49.96477
G1 X103.678 Y114.887 E49.97921
G1 X103.849 Y115.818 E49.99363
G1 X104.089 Y116.735 E50.00808
G1 X104.396 Y117.631 E50.02251
G1 X104.766 Y118.501 E50.03691
G1 X105.198 Y119.343 E50.05133
G1 X105.692 Y120.151 E50.06576
G1 X106.242 Y120.92 E50.08017
G1 X106.847 Y121.648 E50.09459
G1 X107.504 Y122.33 E50.10902
G1 X108.21 Y122.963 E50.12347
G1 X108.96 Y123.54 E50.13788
G1 X109.748 Y124.062 E50.15228
G1 X110.574 Y124.526 E50.16672
G1 X111.431 Y124.928 E50.18114
G1 X112.314 Y125.266 E50.19555
G1 X113.222 Y125.54 E50.21
G1 X114.146 Y125.745 E50.22442
G1 X114.158 Y125.746 E50.2246
G1 X115.069 Y125.88 E50.23863
G1 X115.083 Y125.883 E50.23885
G1 X116.027 Y125.952 E50.25327
G1 X116.973 Y125.952 E50.26769
G1 X117.917 Y125.883 E50.28211
G1 X118.854 Y125.745 E50.29654
G1 X119.778 Y125.54 E50.31096
G1 X120.686 Y125.266 E50.32541
G1 X121.569 Y124.928 E50.33982
G1 X122.426 Y124.526 E50.35424
G1 X123.252 Y124.062 E50.36868
G1 X124.04 Y123.54 E50.38308
G1 X124.79 Y122.963 E50.3975
G1 X125.496 Y122.33 E50.41194
G1 X126.153 Y121.648 E50.42637
G1 X126.758 Y120.92 E50.44079
G1 X127.308 Y120.151 E50.4552
G1 X127.802 Y119.343 E50.46963
G1 X128.234 Y118.501 E50.48405
G1 X128.598 Y117.643 E50.49825
G1 X128.604 Y117.631 E50.49845
G1 X128.911 Y116.735 E50.51288
G1 X129.151 Y115.818 E50.52733
G1 X129.319 Y114.9 E50.54155
G1 X129.322 Y114.887 E50.54175
G1 X129.426 Y113.945 E50.55619
G1 X129.46 Y113 E50.5706
G1 X129.426 Y112.055 E50.58501
G1 X129.322 Y111.113 E50.59945
G1 X129.151 Y110.182 E50.61387
G1 X128.911 Y109.265 E50.62831
G1 X128.604 Y108.369 E50.64274
G1 X128.234 Y107.499 E50.65715
G1 X127.802 Y106.657 E50.67157
G1 X127.308 Y105.849 E50.686
G1 X126.758 Y105.08 E50.7004
G1 X126.153 Y104.352 E50.71482
G1 X125.496 Y103.67 E50.72925
G1 X124.79 Y103.037 E50.7437
G1 X124.04 Y102.46 E50.75812
G1 X123.252 Y101.938 E50.77252
G1 X122.426 Y101.474 E50.78695
G1 X121.569 Y101.072 E50.80138
G1 X120.686 Y100.734 E50.81578
G1 X119.778 Y100.46 E50.83023
G1 X118.854 Y100.255 E50.84466
G1 X118.842 Y100.254 E50.84484
G1 X117.931 Y100.12 E50.85887
G1 X117.917 Y100.117 E50.85909
G1 X116.973 Y100.048 E50.87351
G1 X116.027 Y100.048 E50.88792
G1 X115.083 Y100.117 E50.90234
G1 X114.146 Y100.255 E50.91677
G1 X113.222 Y100.46 E50.9312
G1 X112.314 Y100.734 E50.94565
G1 X111.431 Y101.072 E50.96005
G1 X110.574 Y101.474 E50.97448
G1 X109.748 Y101.938 E50.98891
G1 X108.96 Y102.46 E51.00331
G1 X108.21 Y103.037 E51.01773
G1 X107.504 Y103.67 E51.03218
G1 X106.847 Y104.352 E51.04661
G1 X106.242 Y105.08 E51.06103
G1 X105.692 Y105.849 E51.07543
G1 X105.198 Y106.657 E51.08986
M204 S625
M205 X6 Y6
G0 F4285.7 X118.83 Y90.67
G0 X118.9 Y90.6
M204 S500
M205 X5 Y5
G1 F1200 X130.721 Y90.6 E51.26998
G1 X130.9 Y90.6 E51.2727
G1 X130.9 Y90.779 E51.27447
G1 X130.899 Y113.006 E51.61313
G1 X130.868 Y113.948 E51.62749
G1 X130.778 Y114.871 E51.64162
G1 X130.624 Y115.802 E51.656
G1 X130.405 Y116.741 E51.67069
G1 X130.142 Y117.61 E51.68452
G1 X129.798 Y118.522 E51.69937
G1 X129.416 Y119.365 E51.71348
G1 X128.968 Y120.204 E51.72797
G1 X128.477 Y120.995 E51.74215
G1 X127.922 Y121.768 E51.75665
G1 X127.329 Y122.492 E51.77091
G1 X126.676 Y123.19 E51.78547
G1 X126.003 Y123.82 E51.79952
G1 X125.275 Y124.416 E51.81386
G1 X124.489 Y124.981 E51.8286
G1 X123.704 Y125.468 E51.84268
G1 X122.865 Y125.916 E51.85717
G1 X122.022 Y126.298 E51.87127
G1 X121.117 Y126.64 E51.88601
G1 X120.241 Y126.905 E51.89996
G1 X119.302 Y127.124 E51.91465
G1 X118.378 Y127.277 E51.92892
G1 X117.448 Y127.368 E51.94316
G1 X116.5 Y127.4 E51.95761
G1 X115.552 Y127.368 E51.97206
G1 X114.622 Y127.277 E51.9863
G1 X113.698 Y127.124 E52.00057
G1 X112.759 Y126.905 E52.01526
G1 X111.883 Y126.64 E52.02921
G1 X110.978 Y126.298 E52.04395
G1 X110.135 Y125.916 E52.05805
G1 X109.296 Y125.468 E52.07254
G1 X108.511 Y124.981 E52.08662
G1 X107.725 Y124.416 E52.10137
G1 X106.997 Y123.82 E52.1157
G1 X106.324 Y123.19 E52.12975
G1 X105.671 Y122.492 E52.14431
G1 X105.078 Y121.768 E52.15857
G1 X104.523 Y120.995 E52.17307
G1 X104.032 Y120.204 E52.18725
G1 X103.584 Y119.365 E52.20175
G1 X103.202 Y118.522 E52.21585
G1 X102.858 Y117.61 E52.2307
G1 X102.595 Y116.741 E52.24453
G1 X102.376 Y115.802 E52.25922
G1 X102.373 Y115.779 E52.25958
G1 X102.222 Y114.871 E52.2736
G1 X102.132 Y113.948 E52.28773
G1 X102.1 Y113 E52.30218
G1 X102.1 Y90.6 E52.64348
G1 X114.1 Y90.6 E52.82632
G1 X114.1 Y87.6 E52.87203
G1 X118.9 Y87.6 E52.94517
G1 X118.9 Y90.6 E52.99088
M204 S625
M205 X6 Y6
G0 F4285.7 X118.54 Y90.96
M204 S500
M205 X5 Y5
G1 F1200 X130.361 Y90.96 E53.17099
G1 X130.54 Y90.96 E53.17371
G1 X130.54 Y91.139 E53.17548
G1 X130.539 Y112.994 E53.50847
G1 X130.508 Y113.932 E53.52277
G1 X130.421 Y114.822 E53.5364
G1 X130.273 Y115.72 E53.55026
G1 X130.056 Y116.65 E53.56482
G1 X129.8 Y117.497 E53.5783
G1 X129.466 Y118.382 E53.59271
G1 X129.098 Y119.195 E53.60631
G1 X128.653 Y120.029 E53.62071
G1 X128.173 Y120.801 E53.63456
G1 X127.643 Y121.54 E53.64842
G1 X127.056 Y122.257 E53.66254
G1 X126.421 Y122.935 E53.67669
G1 X125.768 Y123.547 E53.69033
G1 X125.048 Y124.136 E53.7045
G1 X124.295 Y124.677 E53.71863
G1 X123.529 Y125.153 E53.73237
G1 X122.701 Y125.595 E53.74667
G1 X121.882 Y125.966 E53.76037
G1 X121.004 Y126.298 E53.77467
G1 X120.15 Y126.556 E53.78826
G1 X119.223 Y126.772 E53.80277
G1 X118.329 Y126.92 E53.81657
G1 X117.432 Y127.008 E53.83031
G1 X116.5 Y127.04 E53.84451
G1 X115.568 Y127.008 E53.85872
G1 X114.671 Y126.92 E53.87246
G1 X113.777 Y126.772 E53.88626
G1 X112.85 Y126.556 E53.90077
G1 X111.996 Y126.298 E53.91436
G1 X111.118 Y125.966 E53.92866
G1 X110.299 Y125.595 E53.94236
G1 X109.471 Y125.153 E53.95666
G1 X108.705 Y124.677 E53.9704
G1 X107.952 Y124.136 E53.98453
G1 X107.232 Y123.547 E53.9987
G1 X106.579 Y122.935 E54.01234
G1 X105.944 Y122.257 E54.02649
G1 X105.357 Y121.54 E54.04061
G1 X104.827 Y120.801 E54.05447
G1 X104.347 Y120.029 E54.06832
G1 X103.902 Y119.195 E54.08272
G1 X103.534 Y118.382 E54.09632
G1 X103.2 Y117.497 E54.11073
G1 X102.944 Y116.65 E54.12421
G1 X102.727 Y115.72 E54.13876
G1 X102.579 Y114.822 E54.15263
G1 X102.492 Y113.932 E54.16626
G1 X102.46 Y113 E54.18046
G1 X102.46 Y90.96 E54.51628
G1 X114.46 Y90.96 E54.69912
G1 X114.46 Y87.96 E54.74483
G1 X118.54 Y87.96 E54.80699
G1 X118.54 Y90.96 E54.8527
M204 S625
M205 X6 Y6
G0 F4285.7 X118.16 Y91.34
M204 S500
M205 X5 Y5
;TYPE:SKIN
G1 F1200 X130.16 Y91.34 E55.06601
G1 X130.159 Y112.981 E55.4507
G1 X130.128 Y113.913 E55.46728
G1 X130.044 Y114.769 E55.48257
G1 X129.9 Y115.646 E55.49837
G1 X129.689 Y116.553 E55.51492
G1 X129.445 Y117.362 E55.52994
G1 X129.115 Y118.237 E55.54656
G1 X128.759 Y119.023 E55.5619
G1 X128.325 Y119.836 E55.57828
G1 X127.858 Y120.587 E55.594
G1 X127.338 Y121.312 E55.60986
G1 X126.768 Y122.009 E55.62587
G1 X126.152 Y122.666 E55.64188
G1 X125.527 Y123.253 E55.65712
G1 X124.816 Y123.835 E55.67345
G1 X124.094 Y124.354 E55.68926
G1 X123.338 Y124.824 E55.70508
G1 X122.533 Y125.254 E55.72131
G1 X121.734 Y125.616 E55.7369
G1 X120.875 Y125.941 E55.75323
G1 X120.059 Y126.187 E55.76838
G1 X119.149 Y126.399 E55.78499
G1 X118.278 Y126.543 E55.80068
G1 X117.412 Y126.628 E55.81615
G1 X116.5 Y126.66 E55.83237
G1 X115.588 Y126.628 E55.84859
G1 X114.722 Y126.543 E55.86406
G1 X113.851 Y126.399 E55.87975
G1 X112.941 Y126.187 E55.89636
G1 X112.125 Y125.941 E55.91151
G1 X111.266 Y125.616 E55.92784
G1 X110.467 Y125.254 E55.94343
G1 X109.662 Y124.824 E55.95965
G1 X108.906 Y124.354 E55.97548
G1 X108.184 Y123.835 E55.99128
G1 X107.473 Y123.253 E56.00761
G1 X106.848 Y122.666 E56.02286
G1 X106.232 Y122.009 E56.03887
G1 X105.662 Y121.312 E56.05487
G1 X105.142 Y120.587 E56.07073
G1 X104.675 Y119.836 E56.08645
G1 X104.241 Y119.023 E56.10283
G1 X103.885 Y118.237 E56.11817
G1 X103.555 Y117.362 E56.1348
G1 X103.311 Y116.553 E56.14982
G1 X103.1 Y115.646 E56.16637
G1 X102.956 Y114.769 E56.18217
G1 X102.872 Y113.913 E56.19746
G1 X102.84 Y113 E56.2137
G1 X102.84 Y91.34 E56.59872
G1 X114.84 Y91.34 E56.81204
G1 X114.84 Y88.34 E56.86536
G1 X118.16 Y88.34 E56.92438
G1 X118.16 Y91.34 E56.97771
M204 S625
M205 X6 Y6
G0 F4285.7 X117.959 Y99.739
M204 S500
M205 X5 Y5
G1 F1200 X116.987 Y99.668 E56.99503
G1 X116.013 Y99.668 E57.01235
G1 X115.041 Y99.739 E57.02967
G1 X114.077 Y99.881 E57.04699
G1 X113.125 Y100.092 E57.06432
G1 X112.191 Y100.375 E57.08167
G1 X111.283 Y100.722 E57.09895
G1 X110.4 Y101.136 E57.11629
G1 X109.55 Y101.613 E57.13361
G1 X108.739 Y102.15 E57.1509
G1 X107.967 Y102.744 E57.16822
G1 X107.24 Y103.396 E57.18558
G1 X106.564 Y104.099 E57.20291
G1 X105.941 Y104.848 E57.22023
G1 X105.375 Y105.64 E57.23754
G1 X104.866 Y106.471 E57.25486
G1 X104.422 Y107.338 E57.27217
G1 X104.041 Y108.233 E57.28947
G1 X103.725 Y109.155 E57.30679
G1 X103.478 Y110.1 E57.32415
G1 X103.302 Y111.058 E57.34147
G1 X103.194 Y112.027 E57.3588
G1 X103.16 Y113 E57.37611
G1 X103.194 Y113.973 E57.39341
G1 X103.302 Y114.942 E57.41074
G1 X103.478 Y115.9 E57.42806
G1 X103.725 Y116.845 E57.44542
G1 X104.041 Y117.767 E57.46275
G1 X104.422 Y118.662 E57.48004
G1 X104.866 Y119.529 E57.49735
G1 X105.375 Y120.36 E57.51468
G1 X105.941 Y121.152 E57.53198
G1 X106.564 Y121.901 E57.5493
G1 X107.24 Y122.604 E57.56663
G1 X107.967 Y123.256 E57.58399
G1 X108.739 Y123.85 E57.60131
G1 X109.55 Y124.387 E57.6186
G1 X110.4 Y124.864 E57.63592
G1 X111.283 Y125.278 E57.65326
G1 X112.191 Y125.625 E57.67054
G1 X113.125 Y125.908 E57.68789
G1 X114.077 Y126.119 E57.70522
G1 X115.041 Y126.261 E57.72254
G1 X116.013 Y126.332 E57.73987
G1 X116.987 Y126.332 E57.75718
G1 X117.959 Y126.261 E57.7745
G1 X118.923 Y126.119 E57.79182
G1 X119.875 Y125.908 E57.80916
G1 X120.809 Y125.625 E57.82651
G1 X121.717 Y125.278 E57.84379
G1 X122.6 Y124.864 E57.86112
G1 X123.45 Y124.387 E57.87845
G1 X124.261 Y123.85 E57.89574
G1 X125.033 Y123.256 E57.91305
G1 X125.76 Y122.604 E57.93041
G1 X126.436 Y121.901 E57.94775
G1 X127.059 Y121.152 E57.96507
G1 X127.625 Y120.36 E57.98237
G1 X128.134 Y119.529 E57.99969
G1 X128.578 Y118.662 E58.01701
G1 X128.959 Y117.767 E58.0343
G1 X129.275 Y116.845 E58.05162
G1 X129.522 Y115.9 E58.06899
G1 X129.698 Y114.942 E58.0863
G1 X129.806 Y113.973 E58.10363
G1 X129.84 Y113 E58.12094
G1 X129.806 Y112.027 E58.13825
G1 X129.698 Y111.058 E58.15558
G1 X129.522 Y110.1 E58.17289
G1 X129.275 Y109.155 E58.19026
G1 X128.959 Y108.233 E58.20758
G1 X128.578 Y107.338 E58.22487
G1 X128.134 Y106.471 E58.24219
G1 X127.625 Y105.64 E58.25951
G1 X127.059 Y104.848 E58.27681
G1 X126.436 Y104.099 E58.29413
G1 X125.76 Y103.396 E58.31147
G1 X125.033 Y102.744 E58.32883
G1 X124.261 Y102.15 E58.34614
G1 X123.45 Y101.613 E58.36343
G1 X122.6 Y101.136 E58.38076
G1 X121.717 Y100.722 E58.39809
G1 X120.809 Y100.375 E58.41537
G1 X119.875 Y100.092 E58.43272
G1 X118.923 Y99.881 E58.45005
G1 X117.959 Y99.739 E58.46738
M204 S625
M205 X6 Y6
G0 F4285.7 X129.981 Y91.967
M204 S500
M205 X5 Y5
G1 F1200 X129.532 Y91.518 E58.47866
M204 S625
M205 X6 Y6
G0 F4285.7 X128.938 Y91.518
M204 S500
M205 X5 Y5
G1 F1200 X129.981 Y92.561 E58.50488
M204 S625
M205 X6 Y6
G0 F4285.7 X129.981 Y93.155
M204 S500
M205 X5 Y5
G1 F1200 X128.344 Y91.518 E58.54604
M204 S625
M205 X6 Y6
G0 F4285.7 X127.75 Y91.518
M204 S500
M205 X5 Y5
G1 F1200 X129.981 Y93.749 E58.60212
M204 S625
M205 X6 Y6
G0 F4285.7 X129.981 Y94.343
M204 S500
M205 X5 Y5
G1 F1200 X127.156 Y91.518 E58.67314
M204 S625
M205 X6 Y6
G0 F4285.7 X126.562 Y91.518
M204 S500
M205 X5 Y5
G1 F1200 X129.981 Y94.937 E58.75909
M204 S625
M205 X6 Y6
G0 F4285.7 X129.981 Y95.531
M204 S500
M205 X5 Y5
G1 F1200 X125.968 Y91.518 E58.85997
M204 S625
M205 X6 Y6
G0 F4285.7 X125.374 Y91.518
M204 S500
M205 X5 Y5
G1 F1200 X129.981 Y96.125 E58.97579
M204 S625
M205 X6 Y6
G0 F4285.7 X129.981 Y96.719
M204 S500
M205 X5 Y5
G1 F1200 X124.78 Y91.518 E59.10654
M204 S625
M205 X6 Y6
G0 F4285.7 X124.186 Y91.518
M204 S500
M205 X5 Y5
G1 F1200 X129.981 Y97.313 E59.25222
M204 S625
M205 X6 Y6
G0 F4285.7 X129.981 Y97.907
M204 S500
M205 X5 Y5
G1 F1200 X123.592 Y91.518 E59.41283
M204 S625
M205 X6 Y6
G0 F4285.7 X122.998 Y91.518
M204 S500
M205 X5 Y5
G1 F1200 X129.981 Y98.501 E59.58838
M204 S625
M205 X6 Y6
G0 F4285.7 X129.981 Y99.095
M204 S500
M205 X5 Y5
G1 F1200 X122.404 Y91.518 E59.77885
M204 S625
M205 X6 Y6
G0 F4285.7 X121.81 Y91.518
M204 S500
M205 X5 Y5
G1 F1200 X129.981 Y99.689 E59.98426
M204 S625
M205 X6 Y6
G0 F4285.7 X129.981 Y100.283
M204 S500
M205 X5 Y5
G1 F1200 X121.216 Y91.518 E60.20461
M204 S625
M205 X6 Y6
G0 F4285.7 X120.622 Y91.518
M204 S500
M205 X5 Y5
G1 F1200 X129.981 Y100.877 E60.43988
M204 S625
M205 X6 Y6
G0 F4285.7 X129.981 Y101.471
M204 S500
M205 X5 Y5
G1 F1200 X120.028 Y91.518 E60.69009
M204 S625
M205 X6 Y6
G0 F4285.7 X119.434 Y91.518
M204 S500
M205 X5 Y5
G1 F1200 X129.981 Y102.064 E60.95522
M204 S625
M205 X6 Y6
G0 F4285.7 X129.981 Y102.658
M204 S500
M205 X5 Y5
G1 F1200 X118.84 Y91.518 E61.23528
M204 S625
M205 X6 Y6
G0 F4285.7 X118.246 Y91.518
M204 S500
M205 X5 Y5
G1 F1200 X129.981 Y103.252 E61.53028
M204 S625
M205 X6 Y6
G0 F4285.7 X129.981 Y103.846
M204 S500
M205 X5 Y5
G1 F1200 X115.017 Y88.882 E61.90646
M204 S625
M205 X6 Y6
G0 F4285.7 X115.246 Y88.517
M204 S500
M205 X5 Y5
G1 F1200 X117.981 Y91.252 E61.97521
M204 S625
M205 X6 Y6
G0 F4285.7 X117.981 Y90.658
M204 S500
M205 X5 Y5
G1 F1200 X115.84 Y88.517 E62.02904
M204 S625
M205 X6 Y6
G0 F4285.7 X116.434 Y88.517
M204 S500
M205 X5 Y5
G1 F1200 X117.981 Y90.064 E62.06793
M204 S625
M205 X6 Y6
G0 F4285.7 X117.981 Y89.47
M204 S500
M205 X5 Y5
G1 F1200 X117.028 Y88.517 E62.09188
M204 S625
M205 X6 Y6
G0 F4285.7 X117.622 Y88.517
M204 S500
M205 X5 Y5
G1 F1200 X117.981 Y88.876 E62.10091
M204 S625
M205 X6 Y6
G0 F4285.7 X115.017 Y89.476
M204 S500
M205 X5 Y5
G1 F1200 X129.981 Y104.44 E62.47709
M204 S625
M205 X6 Y6
G0 F4285.7 X129.981 Y105.034
M204 S500
M205 X5 Y5
G1 F1200 X115.017 Y90.07 E62.85327
M204 S625
M205 X6 Y6
G0 F4285.7 X115.017 Y90.664
M204 S500
M205 X5 Y5
G1 F1200 X129.981 Y105.628 E63.22945
M204 S625
M205 X6 Y6
G0 F4285.7 X129.981 Y106.222
M204 S500
M205 X5 Y5
G1 F1200 X115.017 Y91.258 E63.60563
M204 S625
M205 X6 Y6
G0 F4285.7 X114.682 Y91.518
M204 S500
M205 X5 Y5
G1 F1200 X129.981 Y106.816 E63.99022
M204 S625
M205 X6 Y6
G0 F4285.7 X129.981 Y107.41
M204 S500
M205 X5 Y5
G1 F1200 X126.649 Y104.079 E64.07397
M204 S625
M205 X6 Y6
G0 F4285.7 X125.45 Y102.879
M204 S500
M205 X5 Y5
G1 F1200 X114.088 Y91.518 E64.35959
M204 S625
M205 X6 Y6
G0 F4285.7 X113.494 Y91.518
M204 S500
M205 X5 Y5
G1 F1200 X123.305 Y101.328 E64.60621
M204 S625
M205 X6 Y6
G0 F4285.7 X122.078 Y100.695
M204 S500
M205 X5 Y5
G1 F1200 X112.9 Y91.518 E64.83693
M204 S625
M205 X6 Y6
G0 F4285.7 X112.306 Y91.518
M204 S500
M205 X5 Y5
G1 F1200 X121.075 Y100.286 E65.05736
M204 S625
M205 X6 Y6
G0 F4285.7 X120.199 Y100.004
M204 S500
M205 X5 Y5
G1 F1200 X111.712 Y91.518 E65.2707
M204 S625
M205 X6 Y6
G0 F4285.7 X111.119 Y91.518
M204 S500
M205 X5 Y5
G1 F1200 X119.406 Y99.805 E65.47903
M204 S625
M205 X6 Y6
G0 F4285.7 X118.67 Y99.663
M204 S500
M205 X5 Y5
G1 F1200 X110.525 Y91.518 E65.68378
M204 S625
M205 X6 Y6
G0 F4285.7 X109.931 Y91.518
M204 S500
M205 X5 Y5
G1 F1200 X117.974 Y99.561 E65.88598
M204 S625
M205 X6 Y6
G0 F4285.7 X117.333 Y99.514
M204 S500
M205 X5 Y5
G1 F1200 X109.337 Y91.518 E66.08699
M204 S625
M205 X6 Y6
G0 F4285.7 X108.743 Y91.518
M204 S500
M205 X5 Y5
G1 F1200 X116.715 Y99.489 E66.28739
M204 S625
M205 X6 Y6
G0 F4285.7 X116.121 Y99.489
M204 S500
M205 X5 Y5
G1 F1200 X108.149 Y91.518 E66.48778
M204 S625
M205 X6 Y6
G0 F4285.7 X107.555 Y91.518
M204 S500
M205 X5 Y5
G1 F1200 X115.559 Y99.522 E66.68899
M204 S625
M205 X6 Y6
G0 F4285.7 X115.007 Y99.564
M204 S500
M205 X5 Y5
G1 F1200 X106.961 Y91.518 E66.89126
M204 S625
M205 X6 Y6
G0 F4285.7 X106.367 Y91.518
M204 S500
M205 X5 Y5
G1 F1200 X114.489 Y99.639 E67.09543
M204 S625
M205 X6 Y6
G0 F4285.7 X113.975 Y99.719
M204 S500
M205 X5 Y5
G1 F1200 X105.773 Y91.518 E67.30161
M204 S625
M205 X6 Y6
G0 F4285.7 X105.179 Y91.518
M204 S500
M205 X5 Y5
G1 F1200 X113.489 Y99.827 E67.5105
M204 S625
M205 X6 Y6
G0 F4285.7 X113.008 Y99.941
M204 S500
M205 X5 Y5
G1 F1200 X104.585 Y91.518 E67.72225
M204 S625
M205 X6 Y6
G0 F4285.7 X103.991 Y91.518
M204 S500
M205 X5 Y5
G1 F1200 X112.552 Y100.078 E67.93745
M204 S625
M205 X6 Y6
G0 F4285.7 X112.098 Y100.218
M204 S500
M205 X5 Y5
G1 F1200 X103.397 Y91.518 E68.15617
M204 S625
M205 X6 Y6
G0 F4285.7 X103.016 Y91.731
M204 S500
M205 X5 Y5
G1 F1200 X111.669 Y100.383 E68.37369
M204 S625
M205 X6 Y6
G0 F4285.7 X111.239 Y100.548
M204 S500
M205 X5 Y5
G1 F1200 X103.016 Y92.325 E68.5804
M204 S625
M205 X6 Y6
G0 F4285.7 X103.016 Y92.919
M204 S500
M205 X5 Y5
G1 F1200 X110.833 Y100.735 E68.7769
M204 S625
M205 X6 Y6
G0 F4285.7 X110.428 Y100.925
M204 S500
M205 X5 Y5
G1 F1200 X103.016 Y93.513 E68.96323
M204 S625
M205 X6 Y6
G0 F4285.7 X103.016 Y94.107
M204 S500
M205 X5 Y5
G1 F1200 X110.041 Y101.131 E69.13982
M204 S625
M205 X6 Y6
G0 F4285.7 X109.66 Y101.345
M204 S500
M205 X5 Y5
G1 F1200 X103.016 Y94.701 E69.30685
M204 S625
M205 X6 Y6
G0 F4285.7 X103.016 Y95.295
M204 S500
M205 X5 Y5
G1 F1200 X109.291 Y101.57 E69.46459
M204 S625
M205 X6 Y6
G0 F4285.7 X108.934 Y101.806
M204 S500
M205 X5 Y5
G1 F1200 X103.016 Y95.889 E69.61335
M204 S625
M205 X6 Y6
G0 F4285.7 X103.016 Y96.483
M204 S500
M205 X5 Y5
G1 F1200 X108.58 Y102.046 E69.75321
M204 S625
M205 X6 Y6
G0 F4285.7 X108.244 Y102.304
M204 S500
M205 X5 Y5
G1 F1200 X103.016 Y97.077 E69.88463
M204 S625
M205 X6 Y6
G0 F4285.7 X103.016 Y97.671
M204 S500
M205 X5 Y5
G1 F1200 X107.908 Y102.563 E70.00761
M204 S625
M205 X6 Y6
G0 F4285.7 X107.591 Y102.839
M204 S500
M205 X5 Y5
G1 F1200 X103.016 Y98.265 E70.12261
M204 S625
M205 X6 Y6
G0 F4285.7 X103.016 Y98.859
M204 S500
M205 X5 Y5
G1 F1200 X107.278 Y103.12 E70.22974
M204 S625
M205 X6 Y6
G0 F4285.7 X106.976 Y103.412
M204 S500
M205 X5 Y5
G1 F1200 X103.016 Y99.453 E70.32928
M204 S625
M205 X6 Y6
G0 F4285.7 X103.016 Y100.047
M204 S500
M205 X5 Y5
G1 F1200 X106.685 Y103.715 E70.4215
M204 S625
M205 X6 Y6
G0 F4285.7 X106.396 Y104.021
M204 S500
M205 X5 Y5
G1 F1200 X103.016 Y100.641 E70.50647
M204 S625
M205 X6 Y6
G0 F4285.7 X103.016 Y101.235
M204 S500
M205 X5 Y5
G1 F1200 X106.127 Y104.345 E70.58466
M204 S625
M205 X6 Y6
G0 F4285.7 X105.858 Y104.67
M204 S500
M205 X5 Y5
G1 F1200 X103.016 Y101.829 E70.6561
M204 S625
M205 X6 Y6
G0 F4285.7 X103.016 Y102.423
M204 S500
M205 X5 Y5
G1 F1200 X105.605 Y105.011 E70.72117
M204 S625
M205 X6 Y6
G0 F4285.7 X105.358 Y105.358
M204 S500
M205 X5 Y5
G1 F1200 X103.016 Y103.016 E70.78004
M204 S625
M205 X6 Y6
G0 F4285.7 X103.016 Y103.61
M104 S200
M204 S500
M205 X5 Y5
G1 F1200 X105.12 Y105.714 E70.83294
M204 S625
M205 X6 Y6
G0 F4285.7 X104.895 Y106.082
M204 S500
M205 X5 Y5
G1 F1200 X103.016 Y104.204 E70.88016
M204 S625
M205 X6 Y6
G0 F4285.7 X103.016 Y104.798
M204 S500
M205 X5 Y5
G1 F1200 X104.673 Y106.455 E70.92181
M204 S625
M205 X6 Y6
G0 F4285.7 X104.472 Y106.848
M204 S500
M205 X5 Y5
G1 F1200 X103.016 Y105.392 E70.95842
M204 S625
