;START_OF_HEADER
;HEADER_VERSION:0.1
;FLAVOR:Griffin
;GENERATOR.NAME:Cura_SteamEngine
;GENERATOR.VERSION:4.7.1
;GENERATOR.BUILD_DATE:2020-09-02
;TARGET_MACHINE.NAME:Ultimaker 3
;EXTRUDER_TRAIN.0.INITIAL_TEMPERATURE:205
;EXTRUDER_TRAIN.0.MATERIAL.VOLUME_USED:3660
;EXTRUDER_TRAIN.0.MATERIAL.GUID:506c9f0d-e3aa-4bd4-b2d2-23e2425b1aa9
;EXTRUDER_TRAIN.0.NOZZLE.DIAMETER:0.4
;EXTRUDER_TRAIN.0.NOZZLE.NAME:AA 0.4
;BUILD_PLATE.TYPE:glass
;BUILD_PLATE.INITIAL_TEMPERATURE:60
;PRINT.TIME:3523
;PRINT.GROUPS:1
;PRINT.SIZE.MIN.X:9
;PRINT.SIZE.MIN.Y:6
;PRINT.SIZE.MIN.Z:0.27
;PRINT.SIZE.MAX.X:153.921
;PRINT.SIZE.MAX.Y:132.421
;PRINT.SIZE.MAX.Z:5.97
;END_OF_HEADER
;Generated with Cura_SteamEngine 4.7.1
T0
M82 ;absolute extrusion mode

G92 E0
M109 S205
G0 F15000 X9 Y6 Z2
G280
G1 F1500 E-6.5
;LAYER_COUNT:58
;LAYER:0
M107
M204 S625
M205 X6 Y6
G1 F600 Z2.27
G0 F4285.7 X83.077 Y105.529 Z2.27
M204 S500
M205 X5 Y5
;TYPE:SKIRT
G1 F600 Z0.27
G1 F1500 E0
G1 F1200 X83.817 Y105.037 E0.0158
G1 X84.463 Y104.667 E0.02903
G1 X85.288 Y104.298 E0.04509
G1 X85.986 Y104.04 E0.05832
G1 X86.826 Y103.819 E0.07376
G1 X87.556 Y103.676 E0.08699
G1 X88.424 Y103.594 E0.10248
G1 X88.996 Y103.57 E0.11266
G1 X110.489 Y103.57 E0.49472
G1 X110.614 Y102.995 E0.50518
G1 X110.76 Y102.436 E0.51545
G1 X111.057 Y101.466 E0.53348
G1 X111.256 Y100.902 E0.54411
G1 X111.636 Y99.96 E0.56217
G1 X111.876 Y99.432 E0.57248
G1 X112.334 Y98.524 E0.59056
G1 X112.618 Y98.015 E0.60092
G1 X113.15 Y97.15 E0.61897
G1 X113.478 Y96.664 E0.62939
G1 X114.082 Y95.846 E0.64747
G1 X114.133 Y95.782 E0.64892
G1 X114.134 Y92.631 E0.70494
G1 X114.171 Y91.92 E0.71759
G1 X114.212 Y91.523 E0.72469
G1 X114.328 Y90.788 E0.73791
G1 X114.486 Y90.182 E0.74904
G1 X114.602 Y89.808 E0.75601
G1 X114.86 Y89.11 E0.76923
G1 X115.152 Y88.515 E0.78102
G1 X115.345 Y88.165 E0.78812
G1 X115.739 Y87.533 E0.80136
G1 X116.1 Y87.062 E0.81191
G1 X116.352 Y86.761 E0.81889
G1 X116.86 Y86.217 E0.83212
G1 X117.339 Y85.797 E0.84344
G1 X117.648 Y85.55 E0.85047
G1 X118.254 Y85.117 E0.86371
G1 X118.836 Y84.785 E0.87562
G1 X119.208 Y84.596 E0.88304
G1 X119.999 Y84.254 E0.89836
G1 X121.154 Y83.838 E0.92018
G1 X121.625 Y83.687 E0.92897
G1 X122.83 Y83.348 E0.95123
G1 X123.289 Y83.236 E0.95962
G1 X124.518 Y82.979 E0.98194
G1 X124.996 Y82.896 E0.99057
G1 X126.238 Y82.726 E1.01285
G1 X126.719 Y82.677 E1.02145
G1 X127.969 Y82.594 E1.04371
G1 X128.45 Y82.579 E1.05227
G1 X129.704 Y82.583 E1.07456
G1 X130.191 Y82.602 E1.08322
G1 X131.441 Y82.694 E1.1055
G1 X131.915 Y82.745 E1.11398
G1 X133.157 Y82.923 E1.13628
G1 X133.638 Y83.009 E1.14497
G1 X134.864 Y83.274 E1.16726
G1 X135.326 Y83.391 E1.17574
G1 X136.529 Y83.739 E1.198
G1 X136.987 Y83.889 E1.20656
G1 X138.166 Y84.321 E1.22888
G1 X138.62 Y84.506 E1.2376
G1 X139.763 Y85.019 E1.25987
G1 X140.193 Y85.23 E1.26838
G1 X141.298 Y85.821 E1.29066
G1 X141.716 Y86.063 E1.29924
G1 X142.778 Y86.73 E1.32154
G1 X143.175 Y87 E1.33007
G1 X144.187 Y87.738 E1.35234
G1 X144.569 Y88.037 E1.36096
G1 X145.528 Y88.845 E1.38325
G1 X145.885 Y89.168 E1.39181
G1 X146.786 Y90.041 E1.41411
G1 X147.122 Y90.39 E1.42272
G1 X147.959 Y91.323 E1.445
G1 X148.269 Y91.694 E1.4536
G1 X149.039 Y92.683 E1.47588
G1 X149.319 Y93.069 E1.48435
G1 X150.02 Y94.11 E1.50666
G1 X150.277 Y94.523 E1.51531
G1 X150.903 Y95.61 E1.53761
G1 X151.132 Y96.042 E1.5463
G1 X151.679 Y97.169 E1.56857
G1 X151.87 Y97.598 E1.57691
G1 X152.34 Y98.761 E1.59921
G1 X152.508 Y99.223 E1.60795
G1 X152.894 Y100.415 E1.63022
G1 X153.026 Y100.876 E1.63875
G1 X153.329 Y102.093 E1.66104
G1 X153.429 Y102.568 E1.66967
G1 X153.646 Y103.803 E1.69196
G1 X153.714 Y104.284 E1.70059
G1 X153.844 Y105.532 E1.7229
G1 X153.877 Y106.007 E1.73136
G1 X153.921 Y107.259 E1.75363
G1 X153.921 Y107.745 E1.76227
G1 X153.877 Y108.998 E1.78456
G1 X153.843 Y109.478 E1.79311
G1 X153.712 Y110.726 E1.81542
G1 X153.645 Y111.207 E1.82405
G1 X153.427 Y112.443 E1.84636
G1 X153.328 Y112.909 E1.85483
G1 X153.026 Y114.125 E1.8771
G1 X152.891 Y114.595 E1.8858
G1 X152.504 Y115.787 E1.90807
G1 X152.339 Y116.241 E1.91666
G1 X151.87 Y117.403 E1.93893
G1 X151.675 Y117.842 E1.94747
G1 X151.126 Y118.97 E1.96977
G1 X150.9 Y119.395 E1.97833
G1 X150.274 Y120.482 E2.00063
G1 X150.018 Y120.894 E2.00925
G1 X149.318 Y121.934 E2.03153
G1 X149.034 Y122.325 E2.04012
G1 X148.263 Y123.314 E2.06242
G1 X147.954 Y123.684 E2.07099
G1 X147.116 Y124.617 E2.09328
G1 X146.782 Y124.963 E2.10183
G1 X145.882 Y125.835 E2.1241
G1 X145.525 Y126.158 E2.13266
G1 X144.566 Y126.966 E2.15495
G1 X144.179 Y127.269 E2.16369
G1 X143.165 Y128.007 E2.18598
G1 X142.771 Y128.273 E2.19443
G1 X141.71 Y128.939 E2.2167
G1 X141.296 Y129.18 E2.22522
G1 X140.19 Y129.772 E2.24752
G1 X139.751 Y129.987 E2.2562
G1 X138.607 Y130.499 E2.27848
G1 X138.16 Y130.681 E2.28706
G1 X136.981 Y131.113 E2.30938
G1 X136.519 Y131.264 E2.31802
G1 X135.317 Y131.611 E2.34026
G1 X134.858 Y131.727 E2.34868
G1 X133.631 Y131.992 E2.37099
G1 X133.151 Y132.078 E2.37966
G1 X131.909 Y132.256 E2.40196
G1 X131.429 Y132.308 E2.41055
G1 X130.179 Y132.399 E2.43283
G1 X129.698 Y132.417 E2.44138
G1 X128.444 Y132.421 E2.46367
G1 X127.957 Y132.405 E2.47233
G1 X126.707 Y132.321 E2.4946
G1 X126.232 Y132.273 E2.50309
G1 X124.99 Y132.103 E2.52537
G1 X124.517 Y132.021 E2.53391
G1 X123.288 Y131.765 E2.55622
G1 X122.809 Y131.648 E2.56499
G1 X121.604 Y131.306 E2.58725
G1 X121.151 Y131.16 E2.59572
G1 X119.969 Y130.735 E2.61804
G1 X119.084 Y130.345 E2.63524
G1 X118.729 Y130.158 E2.64237
G1 X118.09 Y129.777 E2.65559
G1 X117.596 Y129.411 E2.66652
G1 X117.285 Y129.159 E2.67364
G1 X116.733 Y128.66 E2.68686
G1 X116.303 Y128.185 E2.69825
G1 X116.053 Y127.882 E2.70524
G1 X115.61 Y127.284 E2.71847
G1 X115.296 Y126.758 E2.72935
G1 X115.107 Y126.407 E2.73644
G1 X114.79 Y125.733 E2.74968
G1 X114.571 Y125.111 E2.7614
G1 X114.458 Y124.734 E2.7684
G1 X114.283 Y124.01 E2.78164
G1 X114.207 Y123.43 E2.79204
G1 X88.983 Y123.429 E3.24042
G1 X88.384 Y123.403 E3.25108
G1 X87.888 Y123.36 E3.25993
G1 X87.151 Y123.256 E3.27316
G1 X86.282 Y123.044 E3.28906
G1 X85.572 Y122.82 E3.30229
G1 X84.753 Y122.47 E3.31812
G1 X84.089 Y122.133 E3.33136
G1 X83.323 Y121.641 E3.34754
G1 X82.725 Y121.198 E3.36077
G1 X82.055 Y120.591 E3.37684
G1 X81.539 Y120.055 E3.39007
G1 X80.993 Y119.366 E3.4057
G1 X80.57 Y118.754 E3.41892
G1 X80.123 Y117.941 E3.43541
G1 X79.682 Y116.921 E3.45517
G1 X79.524 Y116.456 E3.4639
G1 X79.323 Y115.739 E3.47713
G1 X79.168 Y114.869 E3.49284
G1 X79.086 Y114.13 E3.50606
G1 X79.077 Y113.212 E3.52238
G1 X79.12 Y112.469 E3.53561
G1 X79.262 Y111.575 E3.5517
G1 X79.428 Y110.849 E3.56494
G1 X79.71 Y110.006 E3.58074
G1 X79.992 Y109.317 E3.59397
G1 X80.403 Y108.538 E3.60963
G1 X80.793 Y107.904 E3.62286
G1 X81.354 Y107.171 E3.63927
G1 X81.845 Y106.611 E3.65251
G1 X82.5 Y105.999 E3.66844
G1 X83.077 Y105.529 E3.68167
M204 S625
M205 X6 Y6
G0 F4285.7 X83.627 Y105.661
M204 S500
M205 X5 Y5
G1 F1200 X84.046 Y105.39 E3.69054
G1 X84.672 Y105.032 E3.70336
G1 X85.455 Y104.683 E3.7186
G1 X86.45 Y104.346 E3.73727
G1 X86.928 Y104.226 E3.74603
G1 X87.976 Y104.052 E3.76492
G1 X88.459 Y104.012 E3.77353
G1 X88.996 Y103.99 E3.78309
G1 X110.827 Y103.99 E4.17115
G1 X111.024 Y103.084 E4.18764
G1 X111.161 Y102.559 E4.19728
G1 X111.458 Y101.589 E4.21531
G1 X111.646 Y101.06 E4.22529
G1 X112.026 Y100.118 E4.24335
G1 X112.251 Y99.621 E4.25305
G1 X112.709 Y98.713 E4.27112
G1 X112.976 Y98.235 E4.28086
G1 X113.508 Y97.37 E4.29891
G1 X113.816 Y96.913 E4.3087
G1 X114.42 Y96.095 E4.32678
G1 X114.553 Y95.93 E4.33055
G1 X114.554 Y92.631 E4.38919
G1 X114.588 Y91.963 E4.40108
G1 X114.629 Y91.566 E4.40817
G1 X114.743 Y90.854 E4.42099
G1 X114.887 Y90.306 E4.43106
G1 X115.003 Y89.932 E4.43802
G1 X115.255 Y89.256 E4.45085
G1 X115.52 Y88.717 E4.46153
G1 X115.713 Y88.367 E4.46863
G1 X116.096 Y87.756 E4.48145
G1 X116.422 Y87.332 E4.49096
G1 X116.674 Y87.031 E4.49793
G1 X117.167 Y86.504 E4.51076
G1 X117.601 Y86.125 E4.521
G1 X117.91 Y85.878 E4.52804
G1 X118.498 Y85.459 E4.54087
G1 X119.026 Y85.159 E4.55167
G1 X119.398 Y84.97 E4.55908
G1 X120.141 Y84.649 E4.57347
G1 X121.296 Y84.233 E4.59529
G1 X121.739 Y84.091 E4.60356
G1 X122.944 Y83.752 E4.62581
G1 X123.374 Y83.647 E4.63368
G1 X124.603 Y83.39 E4.656
G1 X125.053 Y83.312 E4.66412
G1 X126.295 Y83.142 E4.6864
G1 X126.747 Y83.096 E4.69448
G1 X127.997 Y83.013 E4.71675
G1 X128.449 Y82.999 E4.72479
G1 X129.703 Y83.003 E4.74708
G1 X130.16 Y83.021 E4.75521
G1 X131.41 Y83.113 E4.77749
G1 X131.856 Y83.161 E4.78546
G1 X133.098 Y83.339 E4.80777
G1 X133.549 Y83.42 E4.81591
G1 X134.775 Y83.685 E4.83821
G1 X135.209 Y83.794 E4.84616
G1 X136.412 Y84.142 E4.86842
G1 X136.843 Y84.283 E4.87648
G1 X138.022 Y84.715 E4.8988
G1 X138.448 Y84.889 E4.90698
G1 X139.591 Y85.402 E4.92926
G1 X139.995 Y85.6 E4.93725
G1 X141.1 Y86.191 E4.95953
G1 X141.492 Y86.419 E4.96759
G1 X142.554 Y87.086 E4.98988
G1 X142.928 Y87.339 E4.99791
G1 X143.94 Y88.077 E5.02017
G1 X144.299 Y88.359 E5.02829
G1 X145.258 Y89.167 E5.05058
G1 X145.593 Y89.47 E5.05861
G1 X146.494 Y90.343 E5.08091
G1 X146.81 Y90.671 E5.08901
G1 X147.647 Y91.604 E5.11129
G1 X147.938 Y91.952 E5.11935
G1 X148.708 Y92.941 E5.14163
G1 X148.971 Y93.304 E5.1496
G1 X149.672 Y94.345 E5.17191
G1 X149.913 Y94.732 E5.18001
G1 X150.539 Y95.819 E5.20231
G1 X150.755 Y96.225 E5.21049
G1 X151.302 Y97.352 E5.23275
G1 X151.481 Y97.756 E5.24061
G1 X151.951 Y98.919 E5.26291
G1 X152.108 Y99.352 E5.27109
G1 X152.494 Y100.544 E5.29337
G1 X152.618 Y100.977 E5.30137
G1 X152.921 Y102.194 E5.32367
G1 X153.016 Y102.64 E5.33177
G1 X153.233 Y103.875 E5.35406
G1 X153.296 Y104.328 E5.36219
G1 X153.426 Y105.576 E5.3845
G1 X153.457 Y106.021 E5.39243
G1 X153.501 Y107.273 E5.4147
G1 X153.501 Y107.73 E5.42282
G1 X153.457 Y108.983 E5.44511
G1 X153.425 Y109.435 E5.45316
G1 X153.294 Y110.683 E5.47547
G1 X153.231 Y111.134 E5.48356
G1 X153.013 Y112.37 E5.50587
G1 X152.92 Y112.808 E5.51383
G1 X152.618 Y114.024 E5.5361
G1 X152.492 Y114.465 E5.54426
G1 X152.105 Y115.657 E5.56653
G1 X151.95 Y116.084 E5.57461
G1 X151.481 Y117.246 E5.59688
G1 X151.298 Y117.658 E5.6049
G1 X150.749 Y118.786 E5.6272
G1 X150.536 Y119.186 E5.63525
G1 X149.91 Y120.273 E5.65755
G1 X149.67 Y120.659 E5.66563
G1 X148.97 Y121.699 E5.68792
G1 X148.703 Y122.067 E5.696
G1 X147.932 Y123.056 E5.71829
G1 X147.641 Y123.403 E5.72634
G1 X146.803 Y124.336 E5.74863
G1 X146.49 Y124.661 E5.75665
G1 X145.59 Y125.533 E5.77893
G1 X145.255 Y125.836 E5.78696
G1 X144.296 Y126.644 E5.80925
G1 X143.932 Y126.93 E5.81748
G1 X142.918 Y127.668 E5.83977
G1 X142.548 Y127.918 E5.84771
G1 X141.487 Y128.584 E5.86998
G1 X141.098 Y128.81 E5.87797
G1 X139.992 Y129.402 E5.90027
G1 X139.579 Y129.604 E5.90845
G1 X138.435 Y130.116 E5.93073
G1 X138.016 Y130.287 E5.93877
G1 X136.837 Y130.719 E5.96109
G1 X136.403 Y130.861 E5.96921
G1 X135.201 Y131.208 E5.99145
G1 X134.769 Y131.316 E5.99936
G1 X133.542 Y131.581 E6.02168
G1 X133.092 Y131.662 E6.0298
G1 X131.85 Y131.84 E6.05211
G1 X131.399 Y131.889 E6.06017
G1 X130.149 Y131.98 E6.08245
G1 X129.697 Y131.997 E6.09049
G1 X128.443 Y132.001 E6.11278
G1 X127.986 Y131.986 E6.12091
G1 X126.736 Y131.902 E6.14318
G1 X126.289 Y131.857 E6.15117
G1 X125.047 Y131.687 E6.17345
G1 X124.602 Y131.61 E6.18148
G1 X123.373 Y131.354 E6.20379
G1 X122.924 Y131.244 E6.21201
G1 X121.719 Y130.902 E6.23428
G1 X121.293 Y130.765 E6.24223
G1 X120.111 Y130.34 E6.26456
G1 X119.28 Y129.974 E6.2807
G1 X118.925 Y129.787 E6.28783
G1 X118.306 Y129.416 E6.30066
G1 X117.861 Y129.085 E6.31052
G1 X117.55 Y128.833 E6.31764
G1 X117.015 Y128.348 E6.33047
G1 X116.627 Y127.918 E6.34077
G1 X116.377 Y127.615 E6.34775
G1 X115.949 Y127.034 E6.36058
G1 X115.666 Y126.558 E6.37042
G1 X115.477 Y126.207 E6.37751
G1 X115.171 Y125.554 E6.39033
G1 X114.973 Y124.99 E6.40095
G1 X114.86 Y124.613 E6.40795
G1 X114.692 Y123.912 E6.42076
G1 X114.605 Y123.241 E6.43279
G1 X114.587 Y123.01 E6.43691
G1 X88.983 Y123.009 E6.89204
G1 X88.421 Y122.985 E6.90204
G1 X87.925 Y122.942 E6.91089
G1 X86.865 Y122.761 E6.93001
G1 X86.387 Y122.638 E6.93878
G1 X85.375 Y122.286 E6.95783
G1 X84.923 Y122.086 E6.96662
G1 X84.28 Y121.758 E6.97945
G1 X83.554 Y121.291 E6.99479
G1 X82.707 Y120.624 E7.01396
G1 X82.342 Y120.284 E7.02282
G1 X81.628 Y119.501 E7.04166
G1 X81.325 Y119.109 E7.05047
G1 X80.916 Y118.515 E7.06329
G1 X80.494 Y117.744 E7.07891
G1 X80.08 Y116.785 E7.09748
G1 X79.922 Y116.32 E7.10621
G1 X79.664 Y115.29 E7.12508
G1 X79.583 Y114.801 E7.13389
G1 X79.504 Y114.084 E7.14672
G1 X79.497 Y113.214 E7.16218
G1 X79.54 Y112.494 E7.175
G1 X79.676 Y111.646 E7.19027
G1 X79.943 Y110.612 E7.20925
G1 X80.106 Y110.144 E7.21806
G1 X80.534 Y109.177 E7.23686
G1 X80.772 Y108.739 E7.24572
G1 X81.151 Y108.125 E7.25855
G1 X81.684 Y107.43 E7.27412
G1 X82.42 Y106.64 E7.29331
G1 X82.783 Y106.31 E7.30203
G1 X83.627 Y105.661 E7.32096
M204 S625
M205 X6 Y6
G0 F4285.7 X83.855 Y106.013
M204 S500
M205 X5 Y5
G1 F1200 X84.274 Y105.742 E7.32983
G1 X85.167 Y105.265 E7.34782
G1 X85.621 Y105.069 E7.35661
G1 X86.552 Y104.753 E7.37409
G1 X87.03 Y104.633 E7.38285
G1 X88.01 Y104.471 E7.40051
G1 X88.493 Y104.431 E7.40912
G1 X88.996 Y104.41 E7.41807
G1 X111.177 Y104.41 E7.81236
G1 X111.219 Y104.168 E7.81673
G1 X111.435 Y103.173 E7.83483
G1 X111.563 Y102.682 E7.84385
G1 X111.86 Y101.712 E7.86188
G1 X112.035 Y101.217 E7.87121
G1 X112.415 Y100.275 E7.88927
G1 X112.626 Y99.81 E7.89834
G1 X113.084 Y98.902 E7.91642
G1 X113.334 Y98.455 E7.92553
G1 X113.866 Y97.59 E7.94358
G1 X114.154 Y97.163 E7.95273
G1 X114.758 Y96.345 E7.97081
G1 X114.973 Y96.078 E7.9769
G1 X114.974 Y92.631 E8.03818
G1 X115.006 Y92.006 E8.0493
G1 X115.047 Y91.609 E8.05639
G1 X115.159 Y90.921 E8.06879
G1 X115.288 Y90.431 E8.07779
G1 X115.404 Y90.057 E8.08475
G1 X115.649 Y89.403 E8.09717
G1 X115.888 Y88.92 E8.10675
G1 X116.081 Y88.57 E8.11385
G1 X116.452 Y87.98 E8.12624
G1 X116.996 Y87.301 E8.14171
G1 X117.474 Y86.792 E8.15412
G1 X117.863 Y86.453 E8.16329
G1 X118.172 Y86.206 E8.17032
G1 X118.742 Y85.802 E8.18274
G1 X119.216 Y85.534 E8.19242
G1 X119.588 Y85.345 E8.19984
G1 X120.283 Y85.044 E8.2133
G1 X121.438 Y84.628 E8.23512
G1 X121.853 Y84.496 E8.24287
G1 X123.058 Y84.157 E8.26512
G1 X123.46 Y84.058 E8.27248
G1 X124.689 Y83.801 E8.2948
G1 X125.11 Y83.728 E8.30239
G1 X126.352 Y83.558 E8.32467
G1 X126.775 Y83.515 E8.33223
G1 X128.025 Y83.432 E8.3545
G1 X128.447 Y83.419 E8.36201
G1 X129.701 Y83.423 E8.3843
G1 X130.129 Y83.439 E8.39191
G1 X131.379 Y83.531 E8.41419
G1 X131.796 Y83.577 E8.42165
G1 X133.038 Y83.755 E8.44395
G1 X133.461 Y83.83 E8.45159
G1 X134.687 Y84.095 E8.47389
G1 X135.092 Y84.198 E8.48131
G1 X136.295 Y84.546 E8.50358
G1 X136.698 Y84.678 E8.51111
G1 X137.877 Y85.11 E8.53343
G1 X138.276 Y85.272 E8.54109
G1 X139.419 Y85.785 E8.56336
G1 X139.797 Y85.971 E8.57085
G1 X140.902 Y86.562 E8.59312
G1 X141.269 Y86.775 E8.60067
G1 X142.331 Y87.442 E8.62296
G1 X142.68 Y87.678 E8.63045
G1 X143.692 Y88.416 E8.65271
G1 X144.028 Y88.68 E8.66031
G1 X144.987 Y89.488 E8.6826
G1 X145.301 Y89.771 E8.69011
G1 X146.202 Y90.644 E8.71241
G1 X146.497 Y90.951 E8.71998
G1 X147.334 Y91.884 E8.74226
G1 X147.606 Y92.21 E8.74981
G1 X148.376 Y93.199 E8.77209
G1 X148.622 Y93.538 E8.77954
G1 X149.323 Y94.579 E8.80185
G1 X149.549 Y94.942 E8.80945
G1 X150.175 Y96.029 E8.83175
G1 X150.377 Y96.409 E8.83939
G1 X150.924 Y97.536 E8.86166
G1 X151.091 Y97.913 E8.86899
G1 X151.561 Y99.076 E8.89129
G1 X151.709 Y99.482 E8.89897
G1 X152.095 Y100.674 E8.92124
G1 X152.211 Y101.079 E8.92873
G1 X152.514 Y102.296 E8.95103
G1 X152.602 Y102.713 E8.9586
G1 X152.819 Y103.948 E8.98089
G1 X152.878 Y104.371 E8.98848
G1 X153.008 Y105.619 E9.01079
G1 X153.037 Y106.036 E9.01822
G1 X153.081 Y107.288 E9.04049
G1 X153.081 Y107.716 E9.0481
G1 X153.037 Y108.969 E9.07038
G1 X153.008 Y109.391 E9.0779
G1 X152.877 Y110.639 E9.10021
G1 X152.817 Y111.061 E9.10779
G1 X152.599 Y112.297 E9.1301
G1 X152.512 Y112.707 E9.13755
G1 X152.21 Y113.923 E9.15982
G1 X152.092 Y114.336 E9.16745
G1 X151.705 Y115.528 E9.18973
G1 X151.56 Y115.926 E9.19726
G1 X151.091 Y117.088 E9.21954
G1 X150.92 Y117.474 E9.22704
G1 X150.371 Y118.602 E9.24934
G1 X150.172 Y118.976 E9.25687
G1 X149.546 Y120.063 E9.27917
G1 X149.321 Y120.425 E9.28675
G1 X148.621 Y121.465 E9.30903
G1 X148.372 Y121.808 E9.31657
G1 X147.601 Y122.797 E9.33886
G1 X147.329 Y123.122 E9.34639
G1 X146.491 Y124.055 E9.36868
G1 X146.198 Y124.36 E9.3762
G1 X145.298 Y125.232 E9.39848
G1 X144.984 Y125.515 E9.40599
G1 X144.025 Y126.323 E9.42828
G1 X143.685 Y126.59 E9.43597
G1 X142.671 Y127.328 E9.45826
G1 X142.325 Y127.562 E9.46569
G1 X141.264 Y128.228 E9.48795
G1 X140.9 Y128.439 E9.49543
G1 X139.794 Y129.031 E9.51773
G1 X139.408 Y129.221 E9.52538
G1 X138.264 Y129.733 E9.54766
G1 X137.871 Y129.892 E9.5552
G1 X136.692 Y130.324 E9.57752
G1 X136.286 Y130.457 E9.58511
G1 X135.084 Y130.804 E9.60735
G1 X134.681 Y130.906 E9.61474
G1 X133.454 Y131.171 E9.63705
G1 X133.032 Y131.246 E9.64467
G1 X131.79 Y131.424 E9.66698
G1 X131.368 Y131.47 E9.67452
G1 X130.118 Y131.561 E9.6968
G1 X129.695 Y131.577 E9.70432
G1 X128.441 Y131.581 E9.72662
G1 X128.014 Y131.567 E9.73421
G1 X126.764 Y131.483 E9.75648
G1 X126.346 Y131.441 E9.76395
G1 X125.104 Y131.271 E9.78623
G1 X124.688 Y131.199 E9.79374
G1 X123.459 Y130.943 E9.81605
G1 X123.038 Y130.84 E9.82376
G1 X121.833 Y130.498 E9.84602
G1 X121.435 Y130.37 E9.85345
G1 X120.253 Y129.945 E9.87578
G1 X119.476 Y129.602 E9.89088
G1 X119.121 Y129.415 E9.89801
G1 X118.523 Y129.055 E9.91042
G1 X117.814 Y128.507 E9.92635
G1 X117.298 Y128.037 E9.93876
G1 X116.951 Y127.651 E9.94798
G1 X116.701 Y127.348 E9.95497
G1 X116.288 Y126.785 E9.96738
G1 X115.847 Y126.008 E9.98326
G1 X115.552 Y125.376 E9.99566
G1 X115.375 Y124.87 E10.00519
G1 X115.262 Y124.493 E10.01218
G1 X115.101 Y123.814 E10.02459
G1 X115.024 Y123.209 E10.03543
G1 X114.978 Y122.59 E10.04646
G1 X88.983 Y122.589 E10.50855
G1 X88.457 Y122.566 E10.51791
G1 X87.961 Y122.523 E10.52676
G1 X86.969 Y122.354 E10.54464
G1 X86.491 Y122.231 E10.55342
G1 X85.545 Y121.902 E10.57122
G1 X85.093 Y121.702 E10.58001
G1 X84.199 Y121.213 E10.59812
G1 X83.786 Y120.94 E10.60692
G1 X82.993 Y120.316 E10.62486
G1 X82.628 Y119.976 E10.63373
G1 X81.961 Y119.244 E10.65133
G1 X81.658 Y118.852 E10.66014
G1 X81.097 Y117.984 E10.67851
G1 X80.865 Y117.547 E10.6873
G1 X80.478 Y116.65 E10.70467
G1 X80.32 Y116.185 E10.7134
G1 X80.078 Y115.221 E10.73107
G1 X79.997 Y114.732 E10.73988
G1 X79.915 Y113.712 E10.75807
G1 X79.917 Y113.215 E10.7669
G1 X80.006 Y112.205 E10.78493
G1 X80.09 Y111.718 E10.79371
G1 X80.34 Y110.75 E10.81148
G1 X80.503 Y110.282 E10.82029
G1 X80.903 Y109.377 E10.83788
G1 X81.141 Y108.939 E10.84674
G1 X81.707 Y108.08 E10.86503
G1 X82.014 Y107.69 E10.87385
G1 X82.702 Y106.951 E10.8918
G1 X83.065 Y106.621 E10.90052
G1 X83.855 Y106.013 E10.91824
M204 S625
M205 X6 Y6
G0 F4285.7 X84.083 Y106.366
M204 S500
M205 X5 Y5
G1 F1200 X84.502 Y106.095 E10.92711
G1 X85.334 Y105.65 E10.94388
G1 X85.788 Y105.454 E10.95267
G1 X86.654 Y105.161 E10.96892
G1 X87.132 Y105.041 E10.97769
G1 X88.045 Y104.889 E10.99414
G1 X88.996 Y104.83 E11.01108
G1 X111.534 Y104.83 E11.41171
G1 X111.629 Y104.257 E11.42204
G1 X111.845 Y103.262 E11.44013
G1 X111.964 Y102.805 E11.44853
G1 X112.261 Y101.835 E11.46656
G1 X112.425 Y101.374 E11.47526
G1 X112.805 Y100.432 E11.49332
G1 X113.001 Y99.999 E11.50176
G1 X113.459 Y99.091 E11.51984
G1 X113.691 Y98.675 E11.52831
G1 X114.223 Y97.81 E11.54636
G1 X114.492 Y97.412 E11.5549
G1 X115.096 Y96.594 E11.57297
G1 X115.393 Y96.225 E11.5814
G1 X115.394 Y92.631 E11.64528
G1 X115.424 Y92.05 E11.65562
G1 X115.465 Y91.653 E11.66272
G1 X115.574 Y90.988 E11.6747
G1 X115.806 Y90.181 E11.68962
G1 X116.043 Y89.551 E11.70159
G1 X116.449 Y88.773 E11.71719
G1 X116.808 Y88.204 E11.72915
G1 X117.318 Y87.57 E11.74361
G1 X117.781 Y87.081 E11.75558
G1 X118.435 Y86.534 E11.77074
G1 X118.985 Y86.146 E11.7827
G1 X119.779 Y85.719 E11.79873
G1 X120.426 Y85.439 E11.81126
G1 X121.581 Y85.023 E11.83308
G1 X121.966 Y84.9 E11.84027
G1 X123.171 Y84.561 E11.86252
G1 X123.546 Y84.469 E11.86938
G1 X124.775 Y84.212 E11.8917
G1 X125.167 Y84.144 E11.89877
G1 X126.409 Y83.974 E11.92106
G1 X126.802 Y83.934 E11.92808
G1 X128.052 Y83.851 E11.95035
G1 X128.446 Y83.839 E11.95735
G1 X129.7 Y83.843 E11.97965
G1 X130.098 Y83.858 E11.98673
G1 X131.348 Y83.95 E12.00901
G1 X131.736 Y83.992 E12.01594
G1 X132.978 Y84.17 E12.03825
G1 X133.372 Y84.241 E12.04536
G1 X134.598 Y84.506 E12.06766
G1 X134.976 Y84.601 E12.07459
G1 X136.179 Y84.949 E12.09685
G1 X136.554 Y85.072 E12.10386
G1 X137.733 Y85.504 E12.12619
G1 X138.104 Y85.655 E12.13331
G1 X139.247 Y86.168 E12.15558
G1 X139.599 Y86.341 E12.16255
G1 X140.704 Y86.932 E12.18482
G1 X141.046 Y87.13 E12.19185
G1 X142.108 Y87.797 E12.21414
G1 X142.433 Y88.018 E12.22113
G1 X143.445 Y88.756 E12.24339
G1 X143.757 Y89.001 E12.25044
G1 X144.716 Y89.809 E12.27273
G1 X145.009 Y90.073 E12.27975
G1 X145.91 Y90.946 E12.30205
G1 X146.185 Y91.232 E12.3091
G1 X147.022 Y92.165 E12.33138
G1 X147.275 Y92.468 E12.3384
G1 X148.045 Y93.457 E12.36068
G1 X148.274 Y93.773 E12.36761
G1 X148.975 Y94.814 E12.38992
G1 X149.185 Y95.151 E12.39698
G1 X149.811 Y96.238 E12.41928
G1 X149.999 Y96.592 E12.4264
G1 X150.546 Y97.719 E12.44867
G1 X150.702 Y98.071 E12.45552
G1 X151.172 Y99.234 E12.47782
G1 X151.309 Y99.611 E12.48495
G1 X151.695 Y100.803 E12.50722
G1 X151.803 Y101.18 E12.51419
G1 X152.106 Y102.397 E12.53648
G1 X152.188 Y102.786 E12.54355
G1 X152.405 Y104.021 E12.56584
G1 X152.46 Y104.415 E12.57291
G1 X152.59 Y105.663 E12.59522
G1 X152.618 Y106.051 E12.60213
G1 X152.662 Y107.303 E12.6244
G1 X152.662 Y107.701 E12.63147
G1 X152.618 Y108.954 E12.65376
G1 X152.59 Y109.347 E12.66077
G1 X152.459 Y110.595 E12.68307
G1 X152.404 Y110.988 E12.69013
G1 X152.186 Y112.224 E12.71244
G1 X152.105 Y112.606 E12.71938
G1 X151.803 Y113.822 E12.74165
G1 X151.693 Y114.206 E12.74875
G1 X151.306 Y115.398 E12.77103
G1 X151.171 Y115.769 E12.77805
G1 X150.702 Y116.931 E12.80032
G1 X150.542 Y117.29 E12.80731
G1 X149.993 Y118.418 E12.82961
G1 X149.808 Y118.767 E12.83663
G1 X149.182 Y119.854 E12.85893
G1 X148.973 Y120.19 E12.86596
G1 X148.273 Y121.23 E12.88824
G1 X148.041 Y121.55 E12.89527
G1 X147.27 Y122.539 E12.91756
G1 X147.016 Y122.842 E12.92459
G1 X146.178 Y123.775 E12.94688
G1 X145.905 Y124.058 E12.95387
G1 X145.005 Y124.93 E12.97615
G1 X144.713 Y125.194 E12.98315
G1 X143.754 Y126.002 E13.00544
G1 X143.438 Y126.25 E13.01258
G1 X142.424 Y126.988 E13.03487
G1 X142.101 Y127.206 E13.0418
G1 X141.04 Y127.872 E13.06407
G1 X140.702 Y128.069 E13.07102
G1 X139.596 Y128.661 E13.09332
G1 X139.236 Y128.837 E13.10044
G1 X138.092 Y129.349 E13.12272
G1 X137.727 Y129.498 E13.12973
G1 X136.548 Y129.93 E13.15205
G1 X136.17 Y130.054 E13.15912
G1 X134.968 Y130.401 E13.18136
G1 X134.592 Y130.495 E13.18825
G1 X133.365 Y130.76 E13.21057
G1 X132.972 Y130.831 E13.21766
G1 X131.73 Y131.009 E13.23997
G1 X131.338 Y131.051 E13.24698
G1 X130.088 Y131.142 E13.26925
G1 X129.694 Y131.157 E13.27626
G1 X128.44 Y131.161 E13.29855
G1 X128.042 Y131.148 E13.30563
G1 X126.792 Y131.064 E13.3279
G1 X126.403 Y131.025 E13.33485
G1 X125.161 Y130.855 E13.35714
G1 X124.774 Y130.788 E13.36412
G1 X123.545 Y130.532 E13.38643
G1 X123.153 Y130.436 E13.39361
G1 X121.948 Y130.094 E13.41587
G1 X121.578 Y129.975 E13.42278
G1 X120.396 Y129.55 E13.44511
G1 X119.671 Y129.231 E13.45919
G1 X119.316 Y129.044 E13.46632
G1 X118.741 Y128.695 E13.47828
G1 X118.078 Y128.18 E13.4932
G1 X117.581 Y127.726 E13.50517
G1 X117.024 Y127.081 E13.52032
G1 X116.628 Y126.537 E13.53228
G1 X116.217 Y125.809 E13.54714
G1 X115.933 Y125.199 E13.5591
G1 X115.665 Y124.372 E13.57455
G1 X115.51 Y123.717 E13.58652
G1 X115.443 Y123.177 E13.59619
G1 X115.397 Y122.568 E13.60705
G1 X115.359 Y122.203 E13.61357
G1 X115.133 Y122.17 E13.61763
G1 X88.983 Y122.169 E14.08247
G1 X87.997 Y122.105 E14.10004
G1 X87.074 Y121.947 E14.11668
G1 X86.596 Y121.824 E14.12546
G1 X85.715 Y121.518 E14.14204
G1 X85.263 Y121.318 E14.15082
G1 X84.43 Y120.863 E14.16769
G1 X84.017 Y120.59 E14.17649
G1 X83.279 Y120.009 E14.19319
G1 X82.914 Y119.669 E14.20206
G1 X82.293 Y118.988 E14.21844
G1 X81.99 Y118.596 E14.22725
G1 X81.468 Y117.787 E14.24436
G1 X81.236 Y117.35 E14.25316
G1 X80.875 Y116.515 E14.26933
G1 X80.717 Y116.05 E14.27806
G1 X80.492 Y115.153 E14.2945
G1 X80.411 Y114.664 E14.30331
G1 X80.335 Y113.714 E14.32025
G1 X80.337 Y113.217 E14.32908
G1 X80.42 Y112.276 E14.34588
G1 X80.504 Y111.789 E14.35466
G1 X80.736 Y110.888 E14.3712
G1 X80.899 Y110.42 E14.38001
G1 X81.272 Y109.578 E14.39638
G1 X81.51 Y109.14 E14.40524
G1 X82.037 Y108.34 E14.42227
G1 X82.344 Y107.95 E14.43109
G1 X82.985 Y107.262 E14.44781
G1 X83.348 Y106.932 E14.45653
G1 X84.083 Y106.366 E14.47302
M204 S625
M205 X6 Y6
G0 F4285.7 X84.311 Y106.719
M204 S500
M205 X5 Y5
G1 F1200 X84.73 Y106.448 E14.48189
G1 X85.5 Y106.036 E14.49741
G1 X85.954 Y105.84 E14.5062
G1 X86.757 Y105.568 E14.52127
G1 X87.235 Y105.448 E14.53003
G1 X88.08 Y105.308 E14.54526
G1 X88.996 Y105.25 E14.56157
G1 X111.903 Y105.25 E14.96877
G1 X112.039 Y104.346 E14.98502
G1 X112.255 Y103.351 E15.00312
G1 X112.366 Y102.928 E15.01089
G1 X112.663 Y101.958 E15.02892
G1 X112.814 Y101.531 E15.03698
G1 X113.194 Y100.589 E15.05503
G1 X113.376 Y100.189 E15.06284
G1 X113.834 Y99.281 E15.08092
G1 X114.049 Y98.895 E15.08877
G1 X114.581 Y98.03 E15.10683
G1 X114.83 Y97.661 E15.11474
G1 X115.434 Y96.843 E15.13281
G1 X115.813 Y96.383 E15.14341
G1 X115.814 Y92.631 E15.2101
G1 X115.842 Y92.093 E15.21968
G1 X115.883 Y91.696 E15.22678
G1 X115.989 Y91.057 E15.23829
G1 X116.207 Y90.306 E15.25219
G1 X116.436 Y89.7 E15.26371
G1 X116.817 Y88.976 E15.27825
G1 X117.164 Y88.429 E15.28976
G1 X117.641 Y87.84 E15.30324
G1 X118.086 Y87.37 E15.31474
G1 X118.697 Y86.862 E15.32887
G1 X119.227 Y86.49 E15.34038
G1 X119.969 Y86.093 E15.35534
G1 X120.568 Y85.835 E15.36693
G1 X121.723 Y85.419 E15.38875
G1 X122.08 Y85.304 E15.39542
G1 X123.285 Y84.965 E15.41767
G1 X123.632 Y84.88 E15.42402
G1 X124.861 Y84.623 E15.44634
G1 X125.224 Y84.56 E15.45289
G1 X126.466 Y84.39 E15.47517
G1 X126.83 Y84.354 E15.48168
G1 X128.08 Y84.271 E15.50394
G1 X128.445 Y84.259 E15.51044
G1 X129.699 Y84.263 E15.53273
G1 X130.067 Y84.277 E15.53927
G1 X131.317 Y84.369 E15.56155
G1 X131.677 Y84.408 E15.56799
G1 X132.919 Y84.586 E15.59029
G1 X133.283 Y84.652 E15.59687
G1 X134.509 Y84.917 E15.61917
G1 X134.859 Y85.005 E15.62558
G1 X136.062 Y85.353 E15.64784
G1 X136.409 Y85.466 E15.65433
G1 X137.588 Y85.898 E15.67665
G1 X137.932 Y86.038 E15.68325
G1 X139.075 Y86.551 E15.70552
G1 X139.401 Y86.712 E15.71199
G1 X140.506 Y87.303 E15.73426
G1 X140.822 Y87.486 E15.74075
G1 X141.884 Y88.153 E15.76305
G1 X142.185 Y88.357 E15.76951
G1 X143.197 Y89.095 E15.79177
G1 X143.487 Y89.322 E15.79832
G1 X144.446 Y90.13 E15.82061
G1 X144.716 Y90.375 E15.82709
G1 X145.617 Y91.248 E15.84939
G1 X145.872 Y91.512 E15.85592
G1 X146.709 Y92.445 E15.8782
G1 X146.944 Y92.726 E15.88471
G1 X147.714 Y93.715 E15.90699
G1 X147.926 Y94.008 E15.91342
G1 X148.627 Y95.049 E15.93573
G1 X148.821 Y95.361 E15.94226
G1 X149.447 Y96.448 E15.96456
G1 X149.621 Y96.776 E15.97116
G1 X150.168 Y97.903 E15.99343
G1 X150.313 Y98.228 E15.99975
G1 X150.783 Y99.391 E16.02205
G1 X150.91 Y99.741 E16.02867
G1 X151.296 Y100.933 E16.05094
G1 X151.395 Y101.282 E16.05739
G1 X151.698 Y102.499 E16.07968
G1 X151.775 Y102.858 E16.08621
G1 X151.992 Y104.093 E16.1085
G1 X152.043 Y104.458 E16.11505
G1 X152.173 Y105.706 E16.13736
G1 X152.198 Y106.066 E16.14377
G1 X152.242 Y107.318 E16.16604
G1 X152.242 Y107.686 E16.17258
G1 X152.198 Y108.939 E16.19487
G1 X152.172 Y109.303 E16.20135
G1 X152.041 Y110.551 E16.22366
G1 X151.99 Y110.915 E16.23019
G1 X151.772 Y112.151 E16.25251
G1 X151.697 Y112.504 E16.25892
G1 X151.395 Y113.72 E16.28119
G1 X151.293 Y114.076 E16.28778
G1 X150.906 Y115.268 E16.31005
G1 X150.781 Y115.612 E16.31656
G1 X150.312 Y116.774 E16.33883
G1 X150.165 Y117.107 E16.3453
G1 X149.616 Y118.235 E16.3676
G1 X149.444 Y118.557 E16.37409
G1 X148.818 Y119.644 E16.39639
G1 X148.624 Y119.955 E16.40291
G1 X147.924 Y120.995 E16.42519
G1 X147.709 Y121.292 E16.43171
G1 X146.938 Y122.281 E16.454
G1 X146.704 Y122.561 E16.46049
G1 X145.866 Y123.494 E16.48278
G1 X145.613 Y123.756 E16.48925
G1 X144.713 Y124.628 E16.51153
G1 X144.443 Y124.873 E16.51801
G1 X143.484 Y125.681 E16.5403
G1 X143.19 Y125.911 E16.54694
G1 X142.176 Y126.649 E16.56923
G1 X141.878 Y126.851 E16.57563
G1 X140.817 Y127.517 E16.5979
G1 X140.504 Y127.699 E16.60433
G1 X139.398 Y128.291 E16.62663
G1 X139.065 Y128.454 E16.63322
G1 X137.921 Y128.966 E16.6555
G1 X137.582 Y129.104 E16.66201
G1 X136.403 Y129.536 E16.68433
G1 X136.053 Y129.65 E16.69087
G1 X134.851 Y129.997 E16.71311
G1 X134.503 Y130.085 E16.71949
G1 X133.276 Y130.35 E16.74181
G1 X132.913 Y130.415 E16.74836
G1 X131.671 Y130.593 E16.77067
G1 X131.307 Y130.632 E16.77717
G1 X130.057 Y130.723 E16.79945
G1 X129.693 Y130.737 E16.80593
G1 X128.439 Y130.741 E16.82822
G1 X128.07 Y130.729 E16.83478
G1 X126.82 Y130.645 E16.85705
G1 X126.46 Y130.609 E16.86348
G1 X125.218 Y130.439 E16.88577
G1 X124.859 Y130.377 E16.89224
G1 X123.63 Y130.121 E16.91456
G1 X123.268 Y130.032 E16.92119
G1 X122.063 Y129.69 E16.94345
G1 X121.72 Y129.579 E16.94986
G1 X120.538 Y129.154 E16.97219
G1 X119.867 Y128.859 E16.98522
G1 X119.512 Y128.672 E16.99235
G1 X118.959 Y128.335 E17.00386
G1 X118.343 Y127.854 E17.01775
G1 X117.866 Y127.416 E17.02927
G1 X117.348 Y126.813 E17.0434
G1 X116.968 Y126.289 E17.0549
G1 X116.587 Y125.61 E17.06874
G1 X116.315 Y125.022 E17.08026
G1 X116.067 Y124.251 E17.09466
G1 X115.92 Y123.621 E17.10616
G1 X115.861 Y123.145 E17.11468
G1 X115.816 Y122.544 E17.1254
G1 X115.764 Y122.068 E17.13391
G1 X115.636 Y121.887 E17.13785
G1 X115.426 Y121.775 E17.14208
G1 X115.158 Y121.75 E17.14686
G1 X88.983 Y121.749 E17.61215
G1 X88.034 Y121.686 E17.62906
G1 X87.179 Y121.54 E17.64447
G1 X86.701 Y121.417 E17.65325
G1 X85.885 Y121.134 E17.6686
G1 X85.433 Y120.934 E17.67739
G1 X84.662 Y120.513 E17.693
G1 X84.249 Y120.24 E17.7018
G1 X83.566 Y119.702 E17.71726
G1 X83.201 Y119.362 E17.72613
G1 X82.625 Y118.731 E17.74131
G1 X82.322 Y118.339 E17.75012
G1 X81.839 Y117.59 E17.76596
G1 X81.607 Y117.153 E17.77476
G1 X81.273 Y116.38 E17.78973
G1 X81.115 Y115.915 E17.79846
G1 X80.907 Y115.084 E17.81368
G1 X80.826 Y114.595 E17.82249
G1 X80.755 Y113.716 E17.83817
G1 X80.757 Y113.219 E17.847
G1 X80.833 Y112.348 E17.86255
G1 X80.917 Y111.861 E17.87133
G1 X81.133 Y111.026 E17.88666
G1 X81.296 Y110.558 E17.89547
G1 X81.641 Y109.778 E17.91063
G1 X81.879 Y109.34 E17.91949
G1 X82.367 Y108.6 E17.93525
G1 X82.674 Y108.21 E17.94407
G1 X83.267 Y107.572 E17.95956
G1 X83.63 Y107.242 E17.96828
G1 X84.311 Y106.719 E17.98354
M204 S625
M205 X6 Y6
G0 F4285.7 X84.539 Y107.071
M204 S500
M205 X5 Y5
G1 F1200 X84.958 Y106.8 E17.99241
G1 X85.667 Y106.422 E18.00669
G1 X86.121 Y106.226 E18.01548
G1 X86.859 Y105.975 E18.02934
G1 X87.337 Y105.855 E18.0381
G1 X88.114 Y105.726 E18.0521
G1 X88.996 Y105.67 E18.06781
G1 X112.272 Y105.67 E18.48157
G1 X112.38 Y104.838 E18.49648
G1 X112.45 Y104.435 E18.50375
G1 X112.666 Y103.44 E18.52185
G1 X112.768 Y103.051 E18.529
G1 X113.065 Y102.081 E18.54703
G1 X113.204 Y101.688 E18.55444
G1 X113.584 Y100.746 E18.5725
G1 X113.751 Y100.378 E18.57968
G1 X114.209 Y99.47 E18.59776
G1 X114.407 Y99.115 E18.60498
G1 X114.939 Y98.25 E18.62304
G1 X115.167 Y97.911 E18.6303
G1 X115.771 Y97.093 E18.64837
G1 X116.233 Y96.541 E18.66117
G1 X116.234 Y92.631 E18.73067
G1 X116.301 Y91.739 E18.74657
G1 X116.404 Y91.126 E18.75762
G1 X116.608 Y90.43 E18.77052
G1 X116.83 Y89.85 E18.78156
G1 X117.184 Y89.179 E18.79504
G1 X117.519 Y88.655 E18.8061
G1 X117.963 Y88.109 E18.81861
G1 X118.391 Y87.66 E18.82963
G1 X118.959 Y87.19 E18.84274
G1 X119.468 Y86.834 E18.85378
G1 X120.159 Y86.468 E18.86768
G1 X120.71 Y86.23 E18.87835
G1 X121.865 Y85.814 E18.90017
G1 X122.194 Y85.708 E18.90631
G1 X123.399 Y85.369 E18.92857
G1 X123.718 Y85.291 E18.9344
G1 X124.947 Y85.034 E18.95672
G1 X125.281 Y84.977 E18.96275
G1 X126.523 Y84.807 E18.98503
G1 X126.858 Y84.773 E18.99102
G1 X128.108 Y84.69 E19.01328
G1 X128.443 Y84.679 E19.01924
G1 X129.697 Y84.683 E19.04153
G1 X130.037 Y84.696 E19.04758
G1 X131.287 Y84.788 E19.06986
G1 X131.617 Y84.824 E19.07576
G1 X132.859 Y85.002 E19.09807
G1 X133.194 Y85.062 E19.10412
G1 X134.42 Y85.327 E19.12641
G1 X134.742 Y85.408 E19.13231
G1 X135.945 Y85.756 E19.15458
G1 X136.265 Y85.861 E19.16056
G1 X137.444 Y86.293 E19.18288
G1 X137.76 Y86.421 E19.18894
G1 X138.903 Y86.934 E19.21121
G1 X139.203 Y87.082 E19.21716
G1 X140.308 Y87.673 E19.23944
G1 X140.599 Y87.842 E19.24542
G1 X141.661 Y88.509 E19.26771
G1 X141.938 Y88.696 E19.27365
G1 X142.95 Y89.434 E19.29592
G1 X143.216 Y89.643 E19.30193
G1 X144.175 Y90.451 E19.32422
G1 X144.424 Y90.676 E19.33019
G1 X145.325 Y91.549 E19.35249
G1 X145.559 Y91.793 E19.3585
G1 X146.396 Y92.726 E19.38078
G1 X146.612 Y92.984 E19.38676
G1 X147.382 Y93.973 E19.40904
G1 X147.577 Y94.242 E19.41495
G1 X148.278 Y95.283 E19.43725
G1 X148.458 Y95.571 E19.44329
G1 X149.084 Y96.658 E19.46559
G1 X149.243 Y96.959 E19.47164
G1 X149.79 Y98.086 E19.49391
G1 X149.923 Y98.385 E19.49973
G1 X150.393 Y99.548 E19.52202
G1 X150.51 Y99.87 E19.52811
G1 X150.896 Y101.062 E19.55039
G1 X150.988 Y101.383 E19.55632
G1 X151.291 Y102.6 E19.57862
G1 X151.361 Y102.931 E19.58463
G1 X151.578 Y104.166 E19.60692
G1 X151.625 Y104.502 E19.61295
G1 X151.755 Y105.75 E19.63526
G1 X151.778 Y106.08 E19.64114
G1 X151.822 Y107.332 E19.6634
G1 X151.822 Y107.672 E19.66945
G1 X151.778 Y108.925 E19.69174
G1 X151.755 Y109.259 E19.69769
G1 X151.624 Y110.507 E19.71999
G1 X151.577 Y110.842 E19.72601
G1 X151.359 Y112.078 E19.74832
G1 X151.29 Y112.403 E19.75422
G1 X150.988 Y113.619 E19.77649
G1 X150.894 Y113.946 E19.78254
G1 X150.507 Y115.138 E19.80482
G1 X150.392 Y115.455 E19.81081
G1 X149.923 Y116.617 E19.83309
G1 X149.787 Y116.923 E19.83904
G1 X149.238 Y118.051 E19.86134
G1 X149.081 Y118.347 E19.8673
G1 X148.455 Y119.434 E19.8896
G1 X148.276 Y119.721 E19.89561
G1 X147.576 Y120.761 E19.91789
G1 X147.378 Y121.034 E19.92389
G1 X146.607 Y122.023 E19.94618
G1 X146.391 Y122.28 E19.95215
G1 X145.553 Y123.213 E19.97444
G1 X145.321 Y123.455 E19.9804
G1 X144.421 Y124.327 E20.00267
G1 X144.172 Y124.552 E20.00864
G1 X143.213 Y125.36 E20.03093
G1 X142.943 Y125.571 E20.03702
G1 X141.929 Y126.309 E20.05932
G1 X141.655 Y126.495 E20.0652
G1 X140.594 Y127.161 E20.08747
G1 X140.305 Y127.328 E20.0934
G1 X139.199 Y127.92 E20.1157
G1 X138.893 Y128.071 E20.12177
G1 X137.749 Y128.583 E20.14405
G1 X137.438 Y128.709 E20.15001
G1 X136.259 Y129.141 E20.17233
G1 X135.937 Y129.247 E20.17836
G1 X134.735 Y129.594 E20.2006
G1 X134.415 Y129.674 E20.20646
G1 X133.188 Y129.939 E20.22878
G1 X132.853 Y129.999 E20.23483
G1 X131.611 Y130.177 E20.25713
G1 X131.277 Y130.213 E20.2631
G1 X130.027 Y130.304 E20.28538
G1 X129.691 Y130.317 E20.29136
G1 X128.437 Y130.321 E20.31365
G1 X128.098 Y130.31 E20.31968
G1 X126.848 Y130.226 E20.34195
G1 X126.517 Y130.192 E20.34786
G1 X125.275 Y130.022 E20.37015
G1 X124.945 Y129.966 E20.3761
G1 X123.716 Y129.71 E20.39841
G1 X123.382 Y129.627 E20.40453
G1 X122.177 Y129.285 E20.4268
G1 X121.862 Y129.184 E20.43268
G1 X120.68 Y128.759 E20.455
G1 X120.063 Y128.487 E20.46699
G1 X119.708 Y128.3 E20.47412
G1 X119.178 Y127.976 E20.48517
G1 X118.607 Y127.528 E20.49807
G1 X118.151 Y127.106 E20.50911
G1 X117.672 Y126.546 E20.52221
G1 X117.309 Y126.042 E20.53325
G1 X116.956 Y125.411 E20.5461
G1 X116.698 Y124.846 E20.55714
G1 X116.469 Y124.131 E20.57049
G1 X116.33 Y123.525 E20.58154
G1 X116.28 Y123.113 E20.58892
G1 X116.235 Y122.519 E20.59951
G1 X116.192 Y122.028 E20.60827
G1 X116.061 Y121.736 E20.61396
G1 X115.811 Y121.491 E20.62018
G1 X115.527 Y121.367 E20.62569
G1 X115.166 Y121.33 E20.63214
G1 X88.983 Y121.329 E21.09757
G1 X88.07 Y121.268 E21.11384
G1 X87.283 Y121.134 E21.12803
G1 X86.805 Y121.011 E21.1368
G1 X86.055 Y120.75 E21.15092
G1 X85.603 Y120.55 E21.1597
G1 X84.894 Y120.162 E21.17407
G1 X84.481 Y119.889 E21.18287
G1 X83.852 Y119.394 E21.1971
G1 X83.487 Y119.054 E21.20596
G1 X82.958 Y118.474 E21.21992
G1 X82.655 Y118.082 E21.22873
G1 X82.21 Y117.393 E21.24331
G1 X81.978 Y116.956 E21.2521
G1 X81.671 Y116.245 E21.26587
G1 X81.513 Y115.78 E21.2746
G1 X81.321 Y115.015 E21.28862
G1 X81.24 Y114.526 E21.29743
G1 X81.175 Y113.718 E21.31184
G1 X81.177 Y113.221 E21.32067
G1 X81.247 Y112.419 E21.33498
G1 X81.331 Y111.932 E21.34377
G1 X81.53 Y111.164 E21.35787
G1 X81.693 Y110.696 E21.36668
G1 X82.01 Y109.979 E21.38062
G1 X82.248 Y109.541 E21.38948
G1 X82.697 Y108.859 E21.40399
G1 X83.004 Y108.469 E21.41281
G1 X83.55 Y107.883 E21.42705
G1 X83.913 Y107.553 E21.43577
G1 X84.539 Y107.071 E21.44982
M204 S625
M205 X6 Y6
G0 F4285.7 X84.767 Y107.424
M204 S500
M205 X5 Y5
G1 F1200 X85.186 Y107.153 E21.45869
G1 X85.833 Y106.807 E21.47173
G1 X86.287 Y106.611 E21.48052
G1 X86.961 Y106.383 E21.49317
G1 X87.439 Y106.263 E21.50193
G1 X88.149 Y106.145 E21.51472
G1 X88.996 Y106.09 E21.52981
G1 X112.649 Y106.09 E21.95027
G1 X112.666 Y105.9 E21.95366
G1 X112.797 Y104.892 E21.97173
G1 X112.86 Y104.524 E21.97836
G1 X113.076 Y103.529 E21.99646
G1 X113.169 Y103.174 E22.00298
G1 X113.466 Y102.204 E22.02102
G1 X113.593 Y101.845 E22.02779
G1 X113.973 Y100.903 E22.04584
G1 X114.126 Y100.567 E22.05241
G1 X114.584 Y99.659 E22.07048
G1 X114.765 Y99.335 E22.07708
G1 X115.297 Y98.47 E22.09513
G1 X115.505 Y98.16 E22.10177
G1 X116.109 Y97.342 E22.11984
G1 X116.653 Y96.7 E22.1348
G1 X116.654 Y92.631 E22.20713
G1 X116.718 Y91.782 E22.22227
G1 X116.893 Y90.929 E22.23774
G1 X117.009 Y90.555 E22.24471
G1 X117.223 Y90.001 E22.25526
G1 X117.552 Y89.382 E22.26772
G1 X118.033 Y88.68 E22.28285
G1 X118.285 Y88.379 E22.28983
G1 X118.912 Y87.765 E22.30543
G1 X119.221 Y87.518 E22.31246
G1 X119.709 Y87.18 E22.32301
G1 X120.349 Y86.842 E22.33588
G1 X120.853 Y86.625 E22.34563
G1 X122.008 Y86.209 E22.36745
G1 X122.308 Y86.113 E22.37305
G1 X123.513 Y85.774 E22.39531
G1 X123.804 Y85.702 E22.40063
G1 X125.033 Y85.445 E22.42295
G1 X125.338 Y85.393 E22.42845
G1 X126.58 Y85.223 E22.45074
G1 X126.886 Y85.192 E22.4562
G1 X128.136 Y85.109 E22.47847
G1 X128.442 Y85.099 E22.48392
G1 X129.696 Y85.103 E22.50621
G1 X130.006 Y85.115 E22.51172
G1 X131.256 Y85.207 E22.534
G1 X131.558 Y85.24 E22.5394
G1 X132.8 Y85.418 E22.56171
G1 X133.106 Y85.473 E22.56723
G1 X134.332 Y85.738 E22.58953
G1 X134.625 Y85.812 E22.5949
G1 X135.828 Y86.16 E22.61716
G1 X136.12 Y86.255 E22.62262
G1 X137.299 Y86.687 E22.64494
G1 X137.588 Y86.805 E22.65049
G1 X138.731 Y87.318 E22.67276
G1 X139.005 Y87.452 E22.67818
G1 X140.11 Y88.043 E22.70046
G1 X140.376 Y88.197 E22.70592
G1 X141.438 Y88.864 E22.72821
G1 X141.69 Y89.036 E22.73364
G1 X142.702 Y89.774 E22.7559
G1 X142.946 Y89.964 E22.7614
G1 X143.905 Y90.772 E22.78369
G1 X144.132 Y90.978 E22.78914
G1 X145.033 Y91.851 E22.81144
G1 X145.247 Y92.073 E22.81692
G1 X146.084 Y93.006 E22.8392
G1 X146.281 Y93.242 E22.84467
G1 X147.051 Y94.231 E22.86695
G1 X147.229 Y94.477 E22.87234
G1 X147.93 Y95.518 E22.89465
G1 X148.094 Y95.78 E22.90015
G1 X148.72 Y96.867 E22.92245
G1 X148.865 Y97.142 E22.92797
G1 X149.412 Y98.269 E22.95024
G1 X149.534 Y98.543 E22.95557
G1 X150.004 Y99.706 E22.97787
G1 X150.111 Y99.999 E22.98342
G1 X150.497 Y101.191 E23.00569
G1 X150.58 Y101.485 E23.01112
G1 X150.883 Y102.702 E23.03341
G1 X150.947 Y103.004 E23.0389
G1 X151.164 Y104.239 E23.06119
G1 X151.207 Y104.545 E23.06668
G1 X151.337 Y105.793 E23.08899
G1 X151.358 Y106.095 E23.09437
G1 X151.402 Y107.347 E23.11664
G1 X151.402 Y107.657 E23.12215
G1 X151.358 Y108.91 E23.14443
G1 X151.337 Y109.215 E23.14987
G1 X151.206 Y110.463 E23.17218
G1 X151.163 Y110.769 E23.17767
G1 X150.945 Y112.005 E23.19998
G1 X150.882 Y112.302 E23.20538
G1 X150.58 Y113.518 E23.22765
G1 X150.494 Y113.817 E23.23318
G1 X150.107 Y115.009 E23.25546
G1 X150.002 Y115.298 E23.26092
G1 X149.533 Y116.46 E23.2832
G1 X149.409 Y116.739 E23.28862
G1 X148.86 Y117.867 E23.31092
G1 X148.717 Y118.138 E23.31637
G1 X148.091 Y119.225 E23.33867
G1 X147.927 Y119.486 E23.34415
G1 X147.227 Y120.526 E23.36643
G1 X147.047 Y120.775 E23.37189
G1 X146.276 Y121.764 E23.39419
G1 X146.079 Y122 E23.39965
G1 X145.241 Y122.933 E23.42194
G1 X145.029 Y123.153 E23.42737
G1 X144.129 Y124.025 E23.44965
G1 X143.902 Y124.231 E23.4551
G1 X142.943 Y125.039 E23.47739
G1 X142.696 Y125.232 E23.48296
G1 X141.682 Y125.97 E23.50526
G1 X141.432 Y126.139 E23.51062
G1 X140.371 Y126.805 E23.53289
G1 X140.107 Y126.958 E23.53831
G1 X139.001 Y127.55 E23.56061
G1 X138.722 Y127.687 E23.56614
G1 X137.578 Y128.199 E23.58842
G1 X137.293 Y128.315 E23.59389
G1 X136.114 Y128.747 E23.61621
G1 X135.82 Y128.843 E23.6217
G1 X134.618 Y129.19 E23.64394
G1 X134.326 Y129.264 E23.6493
G1 X133.099 Y129.529 E23.67161
G1 X132.794 Y129.583 E23.67712
G1 X131.552 Y129.761 E23.69942
G1 X131.246 Y129.794 E23.70489
G1 X129.996 Y129.885 E23.72717
G1 X129.69 Y129.897 E23.73261
G1 X128.436 Y129.901 E23.75491
G1 X128.126 Y129.891 E23.76042
G1 X126.876 Y129.807 E23.78269
G1 X126.574 Y129.776 E23.78809
G1 X125.332 Y129.606 E23.81037
G1 X125.031 Y129.554 E23.8158
G1 X123.802 Y129.298 E23.83811
G1 X123.497 Y129.223 E23.8437
G1 X122.292 Y128.881 E23.86596
G1 X122.004 Y128.789 E23.87134
G1 X120.822 Y128.364 E23.89367
G1 X120.259 Y128.116 E23.9046
G1 X119.904 Y127.929 E23.91173
G1 X119.183 Y127.453 E23.92709
G1 X118.872 Y127.201 E23.93421
G1 X118.246 Y126.582 E23.94986
G1 X117.996 Y126.279 E23.95684
G1 X117.515 Y125.563 E23.97217
G1 X117.326 Y125.212 E23.97926
G1 X117.08 Y124.671 E23.98982
G1 X116.872 Y124.01 E24.00214
G1 X116.74 Y123.431 E24.0127
G1 X116.699 Y123.081 E24.01896
G1 X116.655 Y122.494 E24.02943
G1 X116.601 Y121.929 E24.03951
G1 X116.489 Y121.633 E24.04514
G1 X116.198 Y121.26 E24.05355
G1 X115.929 Y121.072 E24.05938
G1 X115.626 Y120.957 E24.06514
G1 X115.176 Y120.91 E24.07319
G1 X88.983 Y120.909 E24.53879
G1 X88.106 Y120.85 E24.55442
G1 X87.388 Y120.727 E24.56737
G1 X86.91 Y120.604 E24.57614
G1 X86.225 Y120.366 E24.58903
G1 X85.773 Y120.166 E24.59782
G1 X85.125 Y119.812 E24.61094
G1 X84.712 Y119.539 E24.61974
G1 X84.138 Y119.087 E24.63273
G1 X83.773 Y118.747 E24.6416
G1 X83.29 Y118.217 E24.65434
G1 X82.987 Y117.825 E24.66315
G1 X82.581 Y117.196 E24.67646
G1 X82.349 Y116.759 E24.68525
G1 X82.068 Y116.11 E24.69783
G1 X81.91 Y115.645 E24.70656
G1 X81.735 Y114.947 E24.71935
G1 X81.654 Y114.458 E24.72816
G1 X81.595 Y113.719 E24.74134
G1 X81.597 Y113.222 E24.75017
G1 X81.661 Y112.49 E24.76323
G1 X81.745 Y112.003 E24.77202
G1 X81.926 Y111.302 E24.78489
G1 X82.089 Y110.834 E24.7937
G1 X82.379 Y110.179 E24.80643
G1 X82.617 Y109.741 E24.81529
G1 X83.027 Y109.119 E24.82853
G1 X83.334 Y108.729 E24.83736
G1 X83.833 Y108.194 E24.85036
G1 X84.196 Y107.864 E24.85908
G1 X84.767 Y107.424 E24.8719
M204 S625
M205 X6 Y6
G0 F4285.7 X84.995 Y107.777
M204 S500
M205 X5 Y5
G1 F1200 X85.414 Y107.506 E24.88077
G1 X86 Y107.193 E24.89258
G1 X86.454 Y106.997 E24.90137
G1 X87.063 Y106.79 E24.9128
G1 X87.541 Y106.67 E24.92156
G1 X88.184 Y106.564 E24.93314
G1 X88.996 Y106.51 E24.94761
G1 X113.044 Y106.51 E25.37509
G1 X113.082 Y105.954 E25.38499
G1 X113.213 Y104.946 E25.40306
G1 X113.271 Y104.614 E25.40905
G1 X113.487 Y103.619 E25.42715
G1 X113.571 Y103.297 E25.43307
G1 X113.868 Y102.327 E25.4511
G1 X113.983 Y102.002 E25.45723
G1 X114.363 Y101.06 E25.47529
G1 X114.501 Y100.756 E25.48122
G1 X114.959 Y99.848 E25.4993
G1 X115.122 Y99.555 E25.50526
G1 X115.654 Y98.69 E25.52331
G1 X115.843 Y98.41 E25.52931
G1 X116.447 Y97.592 E25.54739
G1 X116.663 Y97.325 E25.55349
G1 X117.073 Y96.859 E25.56453
G1 X117.074 Y92.631 E25.63968
G1 X117.136 Y91.825 E25.65405
G1 X117.294 Y91.053 E25.66806
G1 X117.41 Y90.679 E25.67502
G1 X117.727 Y89.934 E25.68941
G1 X117.92 Y89.584 E25.69652
G1 X118.355 Y88.95 E25.71019
G1 X118.607 Y88.649 E25.71717
G1 X119.175 Y88.093 E25.73129
G1 X119.484 Y87.846 E25.73833
G1 X120.168 Y87.406 E25.75278
G1 X120.995 Y87.02 E25.76901
G1 X122.15 Y86.604 E25.79083
G1 X122.421 Y86.517 E25.79589
G1 X123.626 Y86.178 E25.81814
G1 X123.89 Y86.113 E25.82297
G1 X125.119 Y85.856 E25.84529
G1 X125.395 Y85.809 E25.85027
G1 X126.637 Y85.639 E25.87255
G1 X126.914 Y85.611 E25.8775
G1 X128.164 Y85.528 E25.89977
G1 X128.441 Y85.519 E25.9047
G1 X129.695 Y85.523 E25.92699
G1 X129.975 Y85.534 E25.93197
G1 X131.225 Y85.626 E25.95425
G1 X131.498 Y85.655 E25.95913
G1 X132.74 Y85.833 E25.98143
G1 X133.017 Y85.883 E25.98644
G1 X134.243 Y86.148 E26.00873
G1 X134.509 Y86.215 E26.01361
G1 X135.712 Y86.563 E26.03587
G1 X135.976 Y86.65 E26.04081
G1 X137.155 Y87.082 E26.06313
G1 X137.416 Y87.188 E26.06814
G1 X138.559 Y87.701 E26.09041
G1 X138.807 Y87.823 E26.09532
G1 X139.912 Y88.414 E26.1176
G1 X140.152 Y88.553 E26.12253
G1 X141.214 Y89.22 E26.14482
G1 X141.443 Y89.375 E26.14974
G1 X142.455 Y90.113 E26.172
G1 X142.675 Y90.286 E26.17698
G1 X143.634 Y91.094 E26.19927
G1 X143.839 Y91.279 E26.20418
G1 X144.74 Y92.152 E26.22648
G1 X144.934 Y92.354 E26.23146
G1 X145.771 Y93.287 E26.25374
G1 X145.949 Y93.5 E26.25867
G1 X146.719 Y94.489 E26.28095
G1 X146.881 Y94.711 E26.28584
G1 X147.582 Y95.752 E26.30815
G1 X147.73 Y95.99 E26.31313
G1 X148.356 Y97.077 E26.33543
G1 X148.488 Y97.326 E26.34044
G1 X149.035 Y98.453 E26.3627
G1 X149.144 Y98.7 E26.3675
G1 X149.614 Y99.863 E26.3898
G1 X149.711 Y100.129 E26.39483
G1 X150.097 Y101.321 E26.41711
G1 X150.173 Y101.586 E26.42201
G1 X150.476 Y102.803 E26.4443
G1 X150.534 Y103.077 E26.44928
G1 X150.751 Y104.312 E26.47157
G1 X150.79 Y104.589 E26.47654
G1 X150.92 Y105.837 E26.49885
G1 X150.939 Y106.11 E26.50371
G1 X150.983 Y107.362 E26.52598
G1 X150.983 Y107.642 E26.53096
G1 X150.939 Y108.895 E26.55324
G1 X150.919 Y109.172 E26.55818
G1 X150.788 Y110.42 E26.58049
G1 X150.749 Y110.696 E26.58544
G1 X150.531 Y111.932 E26.60775
G1 X150.474 Y112.201 E26.61264
G1 X150.172 Y113.417 E26.63491
G1 X150.095 Y113.687 E26.6399
G1 X149.708 Y114.879 E26.66218
G1 X149.613 Y115.14 E26.66712
G1 X149.144 Y116.302 E26.68939
G1 X149.032 Y116.555 E26.69431
G1 X148.483 Y117.683 E26.71661
G1 X148.353 Y117.928 E26.72154
G1 X147.727 Y119.015 E26.74384
G1 X147.579 Y119.252 E26.74881
G1 X146.879 Y120.292 E26.77109
G1 X146.716 Y120.517 E26.77603
G1 X145.945 Y121.506 E26.79832
G1 X145.766 Y121.719 E26.80327
G1 X144.928 Y122.652 E26.82556
G1 X144.736 Y122.852 E26.83049
G1 X143.836 Y123.724 E26.85276
G1 X143.631 Y123.909 E26.85767
G1 X142.672 Y124.717 E26.87996
G1 X142.449 Y124.892 E26.885
G1 X141.435 Y125.63 E26.9073
G1 X141.208 Y125.783 E26.91216
G1 X140.147 Y126.449 E26.93443
G1 X139.909 Y126.588 E26.93933
G1 X138.803 Y127.18 E26.96163
G1 X138.55 Y127.304 E26.96664
G1 X137.406 Y127.816 E26.98892
G1 X137.149 Y127.92 E26.99384
G1 X135.97 Y128.352 E27.01616
G1 X135.704 Y128.439 E27.02114
G1 X134.502 Y128.786 E27.04338
G1 X134.237 Y128.853 E27.04824
G1 X133.01 Y129.118 E27.07055
G1 X132.734 Y129.168 E27.07554
G1 X131.492 Y129.346 E27.09784
G1 X131.216 Y129.375 E27.10277
G1 X129.966 Y129.466 E27.12505
G1 X129.689 Y129.477 E27.12998
G1 X128.435 Y129.481 E27.15227
G1 X128.154 Y129.472 E27.15727
G1 X126.904 Y129.388 E27.17954
G1 X126.631 Y129.36 E27.18442
G1 X125.389 Y129.19 E27.2067
G1 X125.116 Y129.143 E27.21163
G1 X123.887 Y128.887 E27.23394
G1 X123.612 Y128.819 E27.23898
G1 X122.407 Y128.477 E27.26124
G1 X122.146 Y128.394 E27.26611
G1 X120.964 Y127.969 E27.28844
G1 X120.454 Y127.744 E27.29835
G1 X120.099 Y127.557 E27.30548
G1 X119.447 Y127.127 E27.31936
G1 X119.136 Y126.875 E27.32648
G1 X118.57 Y126.314 E27.34065
G1 X118.32 Y126.011 E27.34763
G1 X117.885 Y125.364 E27.36149
G1 X117.696 Y125.013 E27.36857
G1 X117.387 Y124.267 E27.38293
G1 X117.274 Y123.89 E27.38992
G1 X117.151 Y123.339 E27.39996
G1 X117.118 Y123.049 E27.40515
G1 X117.074 Y122.47 E27.41547
G1 X117.009 Y121.826 E27.42698
G1 X116.865 Y121.443 E27.43425
G1 X116.614 Y121.082 E27.44206
G1 X116.291 Y120.8 E27.44969
G1 X115.927 Y120.611 E27.45698
G1 X115.512 Y120.51 E27.46457
G1 X115.184 Y120.49 E27.47041
G1 X88.983 Y120.489 E27.93616
G1 X88.142 Y120.431 E27.95114
G1 X87.493 Y120.32 E27.96285
G1 X87.015 Y120.197 E27.97162
G1 X86.395 Y119.982 E27.98329
G1 X85.943 Y119.782 E27.99207
G1 X85.357 Y119.462 E28.00394
G1 X84.944 Y119.189 E28.01274
G1 X84.424 Y118.78 E28.0245
G1 X84.059 Y118.44 E28.03337
G1 X83.622 Y117.96 E28.04491
G1 X83.319 Y117.568 E28.05372
G1 X82.952 Y116.999 E28.06575
G1 X82.72 Y116.562 E28.07455
G1 X82.466 Y115.975 E28.08592
G1 X82.308 Y115.51 E28.09465
G1 X82.15 Y114.878 E28.10623
G1 X82.069 Y114.389 E28.11504
G1 X82.015 Y113.721 E28.12695
G1 X82.017 Y113.224 E28.13579
G1 X82.075 Y112.562 E28.1476
G1 X82.159 Y112.075 E28.15638
G1 X82.323 Y111.441 E28.16802
G1 X82.486 Y110.973 E28.17683
G1 X82.748 Y110.38 E28.18836
G1 X82.986 Y109.942 E28.19722
G1 X83.357 Y109.379 E28.2092
G1 X83.664 Y108.989 E28.21803
G1 X84.115 Y108.505 E28.22979
G1 X84.478 Y108.175 E28.23851
G1 X84.995 Y107.777 E28.2501
M204 S625
M205 X6 Y6
G0 F4285.7 X85.223 Y108.129
M204 S500
M205 X5 Y5
G1 F1200 X85.642 Y107.858 E28.25897
G1 X86.166 Y107.578 E28.26954
G1 X86.62 Y107.382 E28.27833
G1 X87.166 Y107.197 E28.28857
G1 X87.644 Y107.077 E28.29733
G1 X88.218 Y106.982 E28.30768
G1 X88.996 Y106.93 E28.32154
G1 X113.445 Y106.93 E28.75614
G1 X113.472 Y106.314 E28.7671
G1 X113.499 Y106.008 E28.77256
G1 X113.63 Y105 E28.79063
G1 X113.681 Y104.703 E28.79599
G1 X113.897 Y103.708 E28.81409
G1 X113.972 Y103.42 E28.81938
G1 X114.269 Y102.45 E28.83741
G1 X114.372 Y102.159 E28.8429
G1 X114.752 Y101.217 E28.86095
G1 X114.876 Y100.945 E28.86627
G1 X115.334 Y100.037 E28.88435
G1 X115.48 Y99.775 E28.88968
G1 X116.012 Y98.91 E28.90773
G1 X116.181 Y98.659 E28.91311
G1 X116.785 Y97.841 E28.93118
G1 X116.978 Y97.602 E28.93664
G1 X117.493 Y97.017 E28.9505
G1 X117.494 Y92.631 E29.02846
G1 X117.554 Y91.868 E29.04207
G1 X117.695 Y91.177 E29.0546
G1 X117.811 Y90.803 E29.06157
G1 X118.095 Y90.137 E29.07444
G1 X118.288 Y89.787 E29.08154
G1 X118.677 Y89.219 E29.09378
G1 X118.929 Y88.918 E29.10076
G1 X119.437 Y88.421 E29.11339
G1 X119.746 Y88.174 E29.12042
G1 X120.358 Y87.78 E29.13336
G1 X121.137 Y87.415 E29.14865
G1 X122.292 Y86.999 E29.17047
G1 X122.535 Y86.921 E29.17501
G1 X123.74 Y86.582 E29.19726
G1 X123.976 Y86.525 E29.20158
G1 X125.205 Y86.268 E29.2239
G1 X125.452 Y86.225 E29.22835
G1 X126.694 Y86.055 E29.25064
G1 X126.941 Y86.03 E29.25505
G1 X128.191 Y85.947 E29.27732
G1 X128.439 Y85.939 E29.28173
G1 X129.693 Y85.943 E29.30402
G1 X129.944 Y85.953 E29.30849
G1 X131.194 Y86.045 E29.33077
G1 X131.438 Y86.071 E29.33513
G1 X132.68 Y86.249 E29.35743
G1 X132.928 Y86.294 E29.36191
G1 X134.154 Y86.559 E29.38421
G1 X134.392 Y86.619 E29.38857
G1 X135.595 Y86.967 E29.41083
G1 X135.831 Y87.044 E29.41525
G1 X137.01 Y87.476 E29.43757
G1 X137.244 Y87.571 E29.44206
G1 X138.387 Y88.084 E29.46433
G1 X138.609 Y88.193 E29.46872
G1 X139.714 Y88.784 E29.491
G1 X139.929 Y88.909 E29.49542
G1 X140.991 Y89.576 E29.51771
G1 X141.195 Y89.715 E29.5221
G1 X142.207 Y90.453 E29.54436
G1 X142.404 Y90.607 E29.54881
G1 X143.363 Y91.415 E29.5711
G1 X143.547 Y91.581 E29.57551
G1 X144.448 Y92.454 E29.59781
G1 X144.621 Y92.634 E29.60224
G1 X145.458 Y93.567 E29.62453
G1 X145.618 Y93.758 E29.62895
G1 X146.388 Y94.747 E29.65124
G1 X146.532 Y94.946 E29.6556
G1 X147.233 Y95.987 E29.67791
G1 X147.366 Y96.199 E29.68236
G1 X147.992 Y97.286 E29.70466
G1 X148.11 Y97.509 E29.70914
G1 X148.657 Y98.636 E29.73141
G1 X148.755 Y98.857 E29.73571
G1 X149.225 Y100.02 E29.75801
G1 X149.311 Y100.258 E29.7625
G1 X149.697 Y101.45 E29.78478
G1 X149.765 Y101.687 E29.78916
G1 X150.068 Y102.904 E29.81145
G1 X150.12 Y103.149 E29.81591
G1 X150.337 Y104.384 E29.83819
G1 X150.372 Y104.632 E29.84265
G1 X150.502 Y105.88 E29.86495
G1 X150.519 Y106.125 E29.86932
G1 X150.563 Y107.377 E29.89159
G1 X150.563 Y107.627 E29.89603
G1 X150.519 Y108.88 E29.91832
G1 X150.501 Y109.128 E29.92274
G1 X150.37 Y110.376 E29.94504
G1 X150.336 Y110.623 E29.94948
G1 X150.118 Y111.859 E29.97179
G1 X150.067 Y112.099 E29.97615
G1 X149.765 Y113.315 E29.99842
G1 X149.696 Y113.557 E30.00289
G1 X149.309 Y114.749 E30.02517
G1 X149.224 Y114.983 E30.0296
G1 X148.755 Y116.145 E30.05187
G1 X148.654 Y116.371 E30.05627
G1 X148.105 Y117.499 E30.07857
G1 X147.989 Y117.719 E30.08299
G1 X147.363 Y118.806 E30.10529
G1 X147.231 Y119.017 E30.10971
G1 X146.531 Y120.057 E30.132
G1 X146.385 Y120.259 E30.13643
G1 X145.614 Y121.248 E30.15872
G1 X145.454 Y121.439 E30.16315
G1 X144.616 Y122.372 E30.18544
G1 X144.444 Y122.55 E30.18984
G1 X143.544 Y123.422 E30.21212
G1 X143.36 Y123.588 E30.21652
G1 X142.401 Y124.396 E30.23881
G1 X142.202 Y124.552 E30.24331
G1 X141.188 Y125.29 E30.2656
G1 X140.985 Y125.428 E30.26997
G1 X139.924 Y126.094 E30.29223
G1 X139.711 Y126.217 E30.29661
G1 X138.605 Y126.809 E30.31891
G1 X138.378 Y126.921 E30.32341
G1 X137.234 Y127.433 E30.34568
G1 X137.004 Y127.526 E30.3501
G1 X135.825 Y127.958 E30.37242
G1 X135.587 Y128.036 E30.37687
G1 X134.385 Y128.383 E30.39911
G1 X134.149 Y128.443 E30.40344
G1 X132.922 Y128.708 E30.42575
G1 X132.674 Y128.752 E30.43023
G1 X131.432 Y128.93 E30.45253
G1 X131.185 Y128.957 E30.45695
G1 X129.935 Y129.048 E30.47923
G1 X129.687 Y129.057 E30.48364
G1 X128.433 Y129.061 E30.50593
G1 X128.183 Y129.053 E30.51037
G1 X126.933 Y128.969 E30.53264
G1 X126.688 Y128.944 E30.53702
G1 X125.446 Y128.774 E30.55931
G1 X125.202 Y128.732 E30.56371
G1 X123.973 Y128.476 E30.58602
G1 X123.726 Y128.415 E30.59055
G1 X122.521 Y128.073 E30.61281
G1 X122.288 Y127.998 E30.61716
G1 X121.106 Y127.573 E30.63949
G1 X120.295 Y127.186 E30.65546
G1 X119.711 Y126.801 E30.6679
G1 X119.4 Y126.549 E30.67501
G1 X118.894 Y126.047 E30.68768
G1 X118.644 Y125.744 E30.69467
G1 X118.255 Y125.165 E30.70707
G1 X118.066 Y124.814 E30.71415
G1 X117.789 Y124.146 E30.72701
G1 X117.676 Y123.769 E30.734
G1 X117.536 Y123.017 E30.7476
G1 X117.493 Y122.445 E30.7578
G1 X117.417 Y121.725 E30.77067
G1 X117.236 Y121.246 E30.77977
G1 X116.934 Y120.809 E30.78921
G1 X116.537 Y120.458 E30.79863
G1 X116.078 Y120.218 E30.80784
G1 X115.562 Y120.092 E30.81728
G1 X115.192 Y120.07 E30.82387
G1 X88.983 Y120.069 E31.28976
G1 X88.179 Y120.013 E31.30409
G1 X87.597 Y119.913 E31.31458
G1 X87.119 Y119.79 E31.32336
G1 X86.564 Y119.598 E31.3338
G1 X86.112 Y119.398 E31.34258
G1 X85.588 Y119.111 E31.3532
G1 X85.175 Y118.838 E31.362
G1 X84.711 Y118.472 E31.37251
G1 X84.346 Y118.132 E31.38138
G1 X83.954 Y117.703 E31.39171
G1 X83.651 Y117.311 E31.40051
G1 X83.323 Y116.802 E31.41128
G1 X83.091 Y116.365 E31.42007
G1 X82.864 Y115.84 E31.43024
G1 X82.706 Y115.375 E31.43897
G1 X82.564 Y114.809 E31.44934
G1 X82.483 Y114.32 E31.45815
G1 X82.435 Y113.723 E31.4688
G1 X82.437 Y113.226 E31.47763
G1 X82.489 Y112.633 E31.48822
G1 X82.573 Y112.146 E31.497
G1 X82.72 Y111.579 E31.50741
G1 X82.883 Y111.111 E31.51622
G1 X83.117 Y110.581 E31.52652
G1 X83.355 Y110.143 E31.53538
G1 X83.687 Y109.639 E31.54611
G1 X83.994 Y109.249 E31.55493
G1 X84.398 Y108.815 E31.56547
G1 X84.761 Y108.485 E31.57419
G1 X85.223 Y108.129 E31.58456
M204 S625
M205 X6 Y6
G0 F4285.7 X85.451 Y108.482
M204 S500
M205 X5 Y5
G1 F1200 X85.87 Y108.211 E31.59343
G1 X86.332 Y107.964 E31.60274
G1 X86.786 Y107.768 E31.61153
G1 X87.268 Y107.605 E31.62058
G1 X87.746 Y107.485 E31.62934
G1 X88.253 Y107.401 E31.63847
G1 X88.996 Y107.35 E31.65171
G1 X113.848 Y107.35 E32.09348
G1 X113.892 Y106.332 E32.11159
G1 X113.915 Y106.062 E32.11641
G1 X114.046 Y105.054 E32.13448
G1 X114.092 Y104.792 E32.13921
G1 X114.308 Y103.797 E32.15731
G1 X114.374 Y103.543 E32.16197
G1 X114.671 Y102.573 E32.18001
G1 X114.762 Y102.317 E32.18484
G1 X115.142 Y101.375 E32.20289
G1 X115.251 Y101.134 E32.20759
G1 X115.709 Y100.226 E32.22567
G1 X115.838 Y99.995 E32.23037
G1 X116.37 Y99.13 E32.24843
G1 X116.519 Y98.909 E32.25316
G1 X117.123 Y98.091 E32.27124
G1 X117.293 Y97.88 E32.27606
G1 X117.913 Y97.176 E32.29273
G1 X117.914 Y92.631 E32.37352
G1 X117.972 Y91.911 E32.38636
G1 X118.096 Y91.302 E32.39741
G1 X118.212 Y90.928 E32.40437
G1 X118.463 Y90.34 E32.41574
G1 X118.656 Y89.99 E32.42284
G1 X118.999 Y89.489 E32.43363
G1 X119.251 Y89.188 E32.44061
G1 X119.699 Y88.749 E32.45176
G1 X120.008 Y88.502 E32.45879
G1 X120.548 Y88.155 E32.4702
G1 X121.28 Y87.81 E32.48459
G1 X122.435 Y87.394 E32.50641
G1 X122.649 Y87.326 E32.5104
G1 X123.854 Y86.987 E32.53265
G1 X124.062 Y86.936 E32.53646
G1 X125.291 Y86.679 E32.55878
G1 X125.509 Y86.641 E32.56271
G1 X126.751 Y86.471 E32.585
G1 X126.969 Y86.449 E32.58889
G1 X128.219 Y86.366 E32.61116
G1 X128.438 Y86.359 E32.61506
G1 X129.692 Y86.363 E32.63735
G1 X129.913 Y86.371 E32.64128
G1 X131.163 Y86.463 E32.66356
G1 X131.379 Y86.487 E32.66742
G1 X132.621 Y86.665 E32.68972
G1 X132.84 Y86.704 E32.69368
G1 X134.066 Y86.969 E32.71598
G1 X134.275 Y87.022 E32.71981
G1 X135.478 Y87.37 E32.74207
G1 X135.687 Y87.438 E32.74598
G1 X136.866 Y87.87 E32.7683
G1 X137.072 Y87.954 E32.77225
G1 X138.215 Y88.467 E32.79452
G1 X138.411 Y88.563 E32.7984
G1 X139.516 Y89.154 E32.82068
G1 X139.705 Y89.264 E32.82456
G1 X140.767 Y89.931 E32.84686
G1 X140.948 Y90.054 E32.85075
G1 X141.96 Y90.792 E32.87301
G1 X142.134 Y90.928 E32.87694
G1 X143.093 Y91.736 E32.89923
G1 X143.255 Y91.883 E32.90312
G1 X144.156 Y92.756 E32.92542
G1 X144.309 Y92.915 E32.92934
G1 X145.146 Y93.848 E32.95162
G1 X145.287 Y94.016 E32.95552
G1 X146.057 Y95.005 E32.9778
G1 X146.184 Y95.181 E32.98166
G1 X146.885 Y96.222 E33.00397
G1 X147.002 Y96.409 E33.00789
G1 X147.628 Y97.496 E33.03019
G1 X147.732 Y97.693 E33.03415
G1 X148.279 Y98.82 E33.05642
G1 X148.366 Y99.015 E33.06021
G1 X148.836 Y100.178 E33.08251
G1 X148.912 Y100.388 E33.08648
G1 X149.298 Y101.58 E33.10875
G1 X149.358 Y101.789 E33.11262
G1 X149.661 Y103.006 E33.13491
G1 X149.706 Y103.222 E33.13883
G1 X149.923 Y104.457 E33.16112
G1 X149.954 Y104.676 E33.16505
G1 X150.084 Y105.924 E33.18736
G1 X150.099 Y106.139 E33.19119
G1 X150.143 Y107.391 E33.21346
G1 X150.143 Y107.613 E33.2174
G1 X150.099 Y108.866 E33.23969
G1 X150.084 Y109.084 E33.24358
G1 X149.953 Y110.332 E33.26588
G1 X149.922 Y110.55 E33.2698
G1 X149.704 Y111.786 E33.29211
G1 X149.659 Y111.998 E33.29596
G1 X149.357 Y113.214 E33.31823
G1 X149.296 Y113.428 E33.32219
G1 X148.909 Y114.62 E33.34446
G1 X148.834 Y114.826 E33.34836
G1 X148.365 Y115.988 E33.37064
G1 X148.276 Y116.188 E33.37453
G1 X147.727 Y117.316 E33.39683
G1 X147.625 Y117.509 E33.40071
G1 X146.999 Y118.596 E33.42301
G1 X146.882 Y118.783 E33.42693
G1 X146.182 Y119.823 E33.44921
G1 X146.053 Y120.001 E33.45312
G1 X145.282 Y120.99 E33.47541
G1 X145.141 Y121.158 E33.47931
G1 X144.303 Y122.091 E33.5016
G1 X144.152 Y122.248 E33.50547
G1 X143.252 Y123.12 E33.52775
G1 X143.09 Y123.267 E33.53164
G1 X142.131 Y124.075 E33.55393
G1 X141.955 Y124.213 E33.55791
G1 X140.941 Y124.951 E33.5802
G1 X140.762 Y125.072 E33.58404
G1 X139.701 Y125.738 E33.60631
G1 X139.513 Y125.847 E33.61017
G1 X138.407 Y126.439 E33.63247
G1 X138.207 Y126.537 E33.63643
G1 X137.063 Y127.049 E33.65871
G1 X136.86 Y127.132 E33.66261
G1 X135.681 Y127.564 E33.68493
G1 X135.471 Y127.632 E33.68885
G1 X134.269 Y127.979 E33.71109
G1 X134.06 Y128.032 E33.71492
G1 X132.833 Y128.297 E33.73724
G1 X132.615 Y128.336 E33.74117
G1 X131.373 Y128.514 E33.76348
G1 X131.155 Y128.538 E33.76738
G1 X129.905 Y128.629 E33.78965
G1 X129.686 Y128.637 E33.79355
G1 X128.432 Y128.641 E33.81584
G1 X128.211 Y128.634 E33.81977
G1 X126.961 Y128.55 E33.84204
G1 X126.745 Y128.528 E33.8459
G1 X125.503 Y128.358 E33.86819
G1 X125.288 Y128.321 E33.87206
G1 X124.059 Y128.065 E33.89438
G1 X123.841 Y128.011 E33.89837
G1 X122.636 Y127.669 E33.92064
G1 X122.43 Y127.603 E33.92448
G1 X121.248 Y127.178 E33.94681
G1 X120.491 Y126.814 E33.96174
G1 X119.976 Y126.474 E33.97271
G1 X119.665 Y126.222 E33.97983
G1 X119.218 Y125.78 E33.991
G1 X118.968 Y125.477 E33.99798
G1 X118.625 Y124.965 E34.00894
G1 X118.436 Y124.614 E34.01603
G1 X118.192 Y124.025 E34.02736
G1 X118.079 Y123.648 E34.03435
G1 X117.955 Y122.985 E34.04634
G1 X117.912 Y122.42 E34.05642
G1 X117.825 Y121.625 E34.07063
G1 X117.606 Y121.043 E34.08169
G1 X117.251 Y120.532 E34.09275
G1 X116.773 Y120.111 E34.10407
G1 X116.221 Y119.822 E34.11515
G1 X115.613 Y119.674 E34.12627
G1 X115.217 Y119.65 E34.13332
G1 X88.983 Y119.649 E34.59966
G1 X88.215 Y119.594 E34.61334
G1 X87.702 Y119.507 E34.62259
G1 X87.224 Y119.384 E34.63137
G1 X86.734 Y119.214 E34.64059
G1 X86.282 Y119.014 E34.64937
G1 X85.82 Y118.761 E34.65873
G1 X85.407 Y118.488 E34.66754
G1 X84.997 Y118.165 E34.67681
G1 X84.632 Y117.825 E34.68568
G1 X84.287 Y117.446 E34.69479
G1 X83.984 Y117.054 E34.7036
G1 X83.694 Y116.605 E34.7131
G1 X83.462 Y116.168 E34.72189
G1 X83.261 Y115.704 E34.73088
G1 X83.103 Y115.239 E34.73961
G1 X82.978 Y114.741 E34.74874
G1 X82.897 Y114.252 E34.75755
G1 X82.855 Y113.724 E34.76697
G1 X82.857 Y113.227 E34.7758
G1 X82.903 Y112.705 E34.78512
G1 X82.987 Y112.218 E34.7939
G1 X83.116 Y111.717 E34.8031
G1 X83.279 Y111.249 E34.81191
G1 X83.486 Y110.781 E34.821
G1 X83.724 Y110.343 E34.82986
G1 X84.017 Y109.899 E34.83932
G1 X84.324 Y109.509 E34.84814
G1 X84.68 Y109.126 E34.85744
G1 X85.043 Y108.796 E34.86616
G1 X85.451 Y108.482 E34.87531
M204 S625
M205 X6 Y6
G0 F4285.7 X85.326 Y109.107
M204 S500
M205 X5 Y5
G1 F1200 X86.098 Y108.564 E34.89209
G1 X86.953 Y108.154 E34.90894
G1 X87.848 Y107.892 E34.92552
G1 X88.771 Y107.779 E34.94205
G1 X88.996 Y107.77 E34.94605
G1 X114.274 Y107.77 E35.39539
G1 X114.268 Y107.366 E35.40258
G1 X114.312 Y106.35 E35.42065
G1 X114.332 Y106.116 E35.42483
G1 X114.463 Y105.108 E35.4429
G1 X114.502 Y104.881 E35.44699
G1 X114.718 Y103.886 E35.46509
G1 X114.776 Y103.666 E35.46914
G1 X115.073 Y102.696 E35.48717
G1 X115.151 Y102.474 E35.49135
G1 X115.531 Y101.532 E35.50941
G1 X115.626 Y101.324 E35.51347
G1 X116.084 Y100.416 E35.53155
G1 X116.196 Y100.215 E35.53564
G1 X116.728 Y99.35 E35.55369
G1 X116.857 Y99.158 E35.5578
G1 X117.461 Y98.34 E35.57588
G1 X117.608 Y98.158 E35.58004
G1 X118.28 Y97.395 E35.59811
G1 X118.333 Y97.34 E35.59947
G1 X118.334 Y92.632 E35.68316
G1 X118.389 Y91.955 E35.69523
G1 X118.498 Y91.426 E35.70483
G1 X118.614 Y91.052 E35.71179
G1 X118.83 Y90.543 E35.72162
G1 X119.023 Y90.193 E35.72873
G1 X119.321 Y89.759 E35.73809
G1 X119.573 Y89.458 E35.74506
G1 X119.961 Y89.078 E35.75472
G1 X120.27 Y88.831 E35.76175
G1 X120.738 Y88.529 E35.77165
G1 X121.422 Y88.206 E35.7851
G1 X122.577 Y87.79 E35.80692
G1 X122.763 Y87.73 E35.81039
G1 X123.968 Y87.391 E35.83264
G1 X124.148 Y87.347 E35.83594
G1 X125.377 Y87.09 E35.85826
G1 X125.566 Y87.057 E35.86167
G1 X126.808 Y86.887 E35.88395
G1 X126.997 Y86.868 E35.88733
G1 X128.247 Y86.785 E35.9096
G1 X128.437 Y86.779 E35.91298
G1 X129.691 Y86.783 E35.93527
G1 X129.882 Y86.79 E35.93866
G1 X131.132 Y86.882 E35.96094
G1 X131.319 Y86.903 E35.96429
G1 X132.561 Y87.081 E35.98659
G1 X132.751 Y87.115 E35.99002
G1 X133.977 Y87.38 E36.01232
G1 X134.159 Y87.426 E36.01566
G1 X135.362 Y87.774 E36.03792
G1 X135.542 Y87.833 E36.04129
G1 X136.721 Y88.265 E36.06361
G1 X136.9 Y88.337 E36.06704
G1 X138.043 Y88.85 E36.08931
G1 X138.213 Y88.934 E36.09268
G1 X139.318 Y89.525 E36.11495
G1 X139.482 Y89.62 E36.11832
G1 X140.544 Y90.287 E36.14061
G1 X140.701 Y90.393 E36.14398
G1 X141.713 Y91.131 E36.16625
G1 X141.863 Y91.249 E36.16964
G1 X142.822 Y92.057 E36.19193
G1 X142.963 Y92.184 E36.1953
G1 X143.864 Y93.057 E36.21761
G1 X143.996 Y93.195 E36.221
G1 X144.833 Y94.128 E36.24328
G1 X144.955 Y94.274 E36.24666
G1 X145.725 Y95.263 E36.26894
G1 X145.835 Y95.415 E36.27228
G1 X146.536 Y96.456 E36.29459
G1 X146.638 Y96.619 E36.29801
G1 X147.264 Y97.706 E36.3203
G1 X147.354 Y97.876 E36.32372
G1 X147.901 Y99.003 E36.34599
G1 X147.976 Y99.172 E36.34928
G1 X148.446 Y100.335 E36.37158
G1 X148.512 Y100.517 E36.37502
G1 X148.898 Y101.709 E36.39729
G1 X148.95 Y101.89 E36.40064
G1 X149.253 Y103.107 E36.42293
G1 X149.293 Y103.295 E36.42635
G1 X149.51 Y104.53 E36.44864
G1 X149.536 Y104.719 E36.45203
G1 X149.666 Y105.967 E36.47433
G1 X149.679 Y106.154 E36.47766
G1 X149.723 Y107.406 E36.49993
G1 X149.723 Y107.598 E36.50335
G1 X149.679 Y108.851 E36.52563
G1 X149.666 Y109.04 E36.529
G1 X149.535 Y110.288 E36.55131
G1 X149.509 Y110.477 E36.5547
G1 X149.291 Y111.713 E36.57701
G1 X149.252 Y111.897 E36.58035
G1 X148.95 Y113.113 E36.60263
G1 X148.897 Y113.298 E36.60605
G1 X148.51 Y114.49 E36.62832
G1 X148.445 Y114.669 E36.63171
G1 X147.976 Y115.831 E36.65398
G1 X147.899 Y116.004 E36.65735
G1 X147.35 Y117.132 E36.67965
G1 X147.261 Y117.299 E36.68301
G1 X146.635 Y118.386 E36.70531
G1 X146.534 Y118.548 E36.7087
G1 X145.834 Y119.588 E36.73099
G1 X145.722 Y119.742 E36.73437
G1 X144.951 Y120.731 E36.75667
G1 X144.829 Y120.877 E36.76005
G1 X143.991 Y121.81 E36.78234
G1 X143.86 Y121.947 E36.78571
G1 X142.96 Y122.819 E36.80799
G1 X142.819 Y122.946 E36.81136
G1 X141.86 Y123.754 E36.83365
G1 X141.707 Y123.873 E36.8371
G1 X140.693 Y124.611 E36.85939
G1 X140.538 Y124.716 E36.86272
G1 X139.477 Y125.382 E36.88499
G1 X139.314 Y125.477 E36.88834
G1 X138.208 Y126.069 E36.91064
G1 X138.035 Y126.154 E36.91406
G1 X136.891 Y126.666 E36.93634
G1 X136.715 Y126.737 E36.93972
G1 X135.536 Y127.169 E36.96204
G1 X135.354 Y127.229 E36.96544
G1 X134.152 Y127.576 E36.98768
G1 X133.971 Y127.621 E36.991
G1 X132.744 Y127.886 E37.01331
G1 X132.555 Y127.92 E37.01673
G1 X131.313 Y128.098 E37.03903
G1 X131.124 Y128.119 E37.04241
G1 X129.874 Y128.21 E37.06469
G1 X129.685 Y128.217 E37.06805
G1 X128.431 Y128.221 E37.09034
G1 X128.239 Y128.215 E37.09376
G1 X126.989 Y128.131 E37.11603
G1 X126.802 Y128.112 E37.11937
G1 X125.56 Y127.942 E37.14165
G1 X125.373 Y127.91 E37.14502
G1 X124.144 Y127.654 E37.16734
G1 X123.956 Y127.607 E37.17078
G1 X122.751 Y127.265 E37.19305
G1 X122.572 Y127.208 E37.19639
G1 X121.39 Y126.783 E37.21872
G1 X120.687 Y126.442 E37.23261
G1 X120.24 Y126.148 E37.24212
G1 X119.929 Y125.896 E37.24923
G1 X119.542 Y125.512 E37.25892
G1 X119.292 Y125.209 E37.26591
G1 X118.994 Y124.766 E37.2754
G1 X118.805 Y124.415 E37.28248
G1 X118.594 Y123.905 E37.2923
G1 X118.481 Y123.528 E37.29929
G1 X118.374 Y122.953 E37.30969
G1 X118.332 Y122.396 E37.31962
G1 X118.302 Y121.893 E37.32857
G1 X118.128 Y121.183 E37.34157
G1 X117.794 Y120.545 E37.35437
G1 X117.318 Y120.003 E37.36719
G1 X116.712 Y119.582 E37.38031
G1 X116.022 Y119.321 E37.39342
G1 X115.227 Y119.23 E37.40765
G1 X88.983 Y119.229 E37.87416
G1 X88.251 Y119.176 E37.88721
G1 X87.329 Y118.977 E37.90397
G1 X86.452 Y118.63 E37.92074
G1 X85.639 Y118.137 E37.93764
G1 X84.918 Y117.518 E37.95453
G1 X84.316 Y116.798 E37.97121
G1 X83.833 Y115.971 E37.98824
G1 X83.501 Y115.104 E38.00474
G1 X83.312 Y114.183 E38.02145
G1 X83.277 Y113.229 E38.03842
G1 X83.401 Y112.289 E38.05528
G1 X83.676 Y111.387 E38.07204
G1 X84.093 Y110.544 E38.08876
G1 X84.654 Y109.768 E38.10578
G1 X85.326 Y109.107 E38.12254
M204 S625
M205 X6 Y6
G0 F4285.7 X85.608 Y109.418
M204 S500
M205 X5 Y5
G1 F1200 X86.326 Y108.916 E38.13811
G1 X87.119 Y108.539 E38.15372
G1 X87.951 Y108.3 E38.16911
G1 X88.805 Y108.198 E38.18439
G1 X88.996 Y108.19 E38.18779
G1 X114.712 Y108.19 E38.64492
G1 X114.687 Y107.577 E38.65583
G1 X114.687 Y107.384 E38.65926
G1 X114.731 Y106.368 E38.67733
G1 X114.748 Y106.17 E38.68087
G1 X114.879 Y105.162 E38.69893
G1 X114.913 Y104.97 E38.7024
G1 X115.129 Y103.975 E38.7205
G1 X115.177 Y103.789 E38.72391
G1 X115.474 Y102.819 E38.74195
G1 X115.541 Y102.631 E38.7455
G1 X115.921 Y101.689 E38.76355
G1 X116.001 Y101.513 E38.76699
G1 X116.459 Y100.605 E38.78507
G1 X116.553 Y100.435 E38.78852
G1 X117.085 Y99.57 E38.80657
G1 X117.195 Y99.408 E38.81005
G1 X117.799 Y98.59 E38.82813
G1 X117.923 Y98.435 E38.83165
G1 X118.595 Y97.672 E38.84973
G1 X118.753 Y97.51 E38.85375
G1 X118.754 Y92.632 E38.94046
G1 X118.807 Y91.998 E38.95177
G1 X119.015 Y91.177 E38.96683
G1 X119.391 Y90.396 E38.98223
G1 X119.895 Y89.727 E38.99712
G1 X120.533 Y89.159 E39.01231
G1 X121.301 Y88.715 E39.02808
G1 X121.564 Y88.601 E39.03317
G1 X122.719 Y88.185 E39.055
G1 X122.876 Y88.134 E39.05793
G1 X124.081 Y87.795 E39.08018
G1 X124.234 Y87.758 E39.08298
G1 X125.463 Y87.501 E39.1053
G1 X125.623 Y87.473 E39.10819
G1 X126.865 Y87.303 E39.13047
G1 X127.025 Y87.287 E39.13333
G1 X128.275 Y87.204 E39.1556
G1 X128.435 Y87.199 E39.15844
G1 X129.689 Y87.203 E39.18073
G1 X129.852 Y87.209 E39.18363
G1 X131.102 Y87.301 E39.20591
G1 X131.26 Y87.318 E39.20874
G1 X132.502 Y87.496 E39.23104
G1 X132.662 Y87.525 E39.23393
G1 X133.888 Y87.79 E39.25623
G1 X134.042 Y87.829 E39.25905
G1 X135.245 Y88.177 E39.28131
G1 X135.398 Y88.227 E39.28417
G1 X136.577 Y88.659 E39.3065
G1 X136.728 Y88.721 E39.3094
G1 X137.871 Y89.234 E39.33167
G1 X138.014 Y89.304 E39.3345
G1 X139.119 Y89.895 E39.35677
G1 X139.259 Y89.976 E39.35965
G1 X140.321 Y90.643 E39.38194
G1 X140.453 Y90.733 E39.38478
G1 X141.465 Y91.471 E39.40705
G1 X141.592 Y91.57 E39.40991
G1 X142.551 Y92.378 E39.4322
G1 X142.67 Y92.486 E39.43506
G1 X143.571 Y93.359 E39.45736
G1 X143.683 Y93.475 E39.46022
G1 X144.52 Y94.408 E39.4825
G1 X144.624 Y94.532 E39.48538
G1 X145.394 Y95.521 E39.50766
G1 X145.487 Y95.65 E39.51049
G1 X146.188 Y96.691 E39.5328
G1 X146.274 Y96.828 E39.53567
G1 X146.9 Y97.915 E39.55797
G1 X146.976 Y98.059 E39.56086
G1 X147.523 Y99.186 E39.58313
G1 X147.587 Y99.329 E39.58592
G1 X148.057 Y100.492 E39.60822
G1 X148.113 Y100.646 E39.61113
G1 X148.499 Y101.838 E39.6334
G1 X148.543 Y101.992 E39.63625
G1 X148.846 Y103.209 E39.65854
G1 X148.879 Y103.367 E39.66141
G1 X149.096 Y104.602 E39.6837
G1 X149.119 Y104.763 E39.68659
G1 X149.249 Y106.011 E39.7089
G1 X149.26 Y106.169 E39.71171
G1 X149.304 Y107.421 E39.73398
G1 X149.304 Y107.583 E39.73686
G1 X149.26 Y108.836 E39.75915
G1 X149.248 Y108.996 E39.762
G1 X149.117 Y110.244 E39.78431
G1 X149.095 Y110.404 E39.78718
G1 X148.877 Y111.64 E39.80949
G1 X148.844 Y111.796 E39.81232
G1 X148.542 Y113.012 E39.83459
G1 X148.497 Y113.168 E39.83748
G1 X148.11 Y114.36 E39.85976
G1 X148.055 Y114.512 E39.86263
G1 X147.586 Y115.674 E39.88491
G1 X147.521 Y115.82 E39.88775
G1 X146.972 Y116.948 E39.91005
G1 X146.897 Y117.09 E39.9129
G1 X146.271 Y118.177 E39.9352
G1 X146.185 Y118.314 E39.93807
G1 X145.485 Y119.354 E39.96036
G1 X145.391 Y119.484 E39.96321
G1 X144.62 Y120.473 E39.9855
G1 X144.517 Y120.597 E39.98837
G1 X143.679 Y121.53 E40.01066
G1 X143.567 Y121.645 E40.01351
G1 X142.667 Y122.517 E40.03579
G1 X142.548 Y122.625 E40.03865
G1 X141.589 Y123.433 E40.06094
G1 X141.46 Y123.534 E40.06385
G1 X140.446 Y124.272 E40.08614
G1 X140.315 Y124.36 E40.08895
G1 X139.254 Y125.026 E40.11122
G1 X139.116 Y125.107 E40.11406
G1 X138.01 Y125.699 E40.13636
G1 X137.864 Y125.77 E40.13925
G1 X136.72 Y126.282 E40.16153
G1 X136.571 Y126.343 E40.16439
G1 X135.392 Y126.775 E40.18671
G1 X135.238 Y126.825 E40.18959
G1 X134.036 Y127.172 E40.21183
G1 X133.883 Y127.211 E40.21463
G1 X132.656 Y127.476 E40.23695
G1 X132.496 Y127.505 E40.23984
G1 X131.254 Y127.683 E40.26214
G1 X131.094 Y127.7 E40.265
G1 X129.844 Y127.791 E40.28728
G1 X129.683 Y127.797 E40.29014
G1 X128.429 Y127.801 E40.31243
G1 X128.267 Y127.796 E40.31532
G1 X127.017 Y127.712 E40.33759
G1 X126.859 Y127.696 E40.34041
G1 X125.617 Y127.526 E40.36269
G1 X125.459 Y127.498 E40.36554
G1 X124.23 Y127.242 E40.38786
G1 X124.07 Y127.203 E40.39079
G1 X122.865 Y126.861 E40.41305
G1 X122.714 Y126.813 E40.41587
G1 X121.532 Y126.388 E40.4382
G1 X120.882 Y126.071 E40.45105
G1 X120.194 Y125.57 E40.46618
G1 X119.616 Y124.942 E40.48135
G1 X119.175 Y124.216 E40.49645
G1 X118.883 Y123.407 E40.51174
G1 X118.793 Y122.92 E40.52055
G1 X118.751 Y122.371 E40.53033
G1 X118.72 Y121.842 E40.53975
G1 X118.522 Y121.035 E40.55452
G1 X118.139 Y120.304 E40.56919
G1 X117.591 Y119.683 E40.58392
G1 X116.905 Y119.208 E40.59875
G1 X116.521 Y119.035 E40.60623
G1 X115.713 Y118.839 E40.62101
G1 X115.235 Y118.81 E40.62953
G1 X88.983 Y118.809 E41.09618
G1 X88.287 Y118.757 E41.10859
G1 X87.433 Y118.57 E41.12413
G1 X86.622 Y118.245 E41.13966
G1 X85.87 Y117.787 E41.15531
G1 X85.204 Y117.21 E41.17098
G1 X84.648 Y116.541 E41.18644
G1 X84.204 Y115.774 E41.20219
G1 X83.899 Y114.969 E41.21749
G1 X83.726 Y114.114 E41.233
G1 X83.697 Y113.231 E41.24871
G1 X83.815 Y112.36 E41.26433
G1 X84.073 Y111.525 E41.27987
G1 X84.462 Y110.744 E41.29537
G1 X84.984 Y110.028 E41.31113
G1 X85.608 Y109.418 E41.32664
M204 S625
M205 X6 Y6
G0 F4285.7 X85.891 Y109.729
M204 S500
M205 X5 Y5
G1 F1200 X86.555 Y109.269 E41.341
G1 X87.286 Y108.925 E41.35536
G1 X88.053 Y108.707 E41.36953
G1 X88.84 Y108.616 E41.38361
G1 X88.996 Y108.61 E41.38639
G1 X115.151 Y108.61 E41.85132
G1 X115.148 Y108.573 E41.85198
G1 X115.107 Y107.56 E41.87
G1 X115.107 Y107.402 E41.87281
G1 X115.151 Y106.386 E41.89089
G1 X115.165 Y106.224 E41.89378
G1 X115.296 Y105.216 E41.91185
G1 X115.323 Y105.059 E41.91468
G1 X115.539 Y104.064 E41.93278
G1 X115.579 Y103.912 E41.93557
G1 X115.876 Y102.942 E41.95361
G1 X115.93 Y102.788 E41.95651
G1 X116.31 Y101.846 E41.97456
G1 X116.376 Y101.702 E41.97738
G1 X116.834 Y100.794 E41.99546
G1 X116.911 Y100.655 E41.99828
G1 X117.443 Y99.79 E42.01633
G1 X117.533 Y99.657 E42.01919
G1 X118.137 Y98.839 E42.03726
G1 X118.239 Y98.713 E42.04014
G1 X118.911 Y97.95 E42.05822
G1 X119.173 Y97.689 E42.06479
G1 X119.174 Y92.632 E42.15468
G1 X119.225 Y92.041 E42.16523
G1 X119.416 Y91.301 E42.17881
G1 X119.759 Y90.598 E42.19272
G1 X120.217 Y89.997 E42.20615
G1 X120.795 Y89.487 E42.21985
G1 X121.491 Y89.089 E42.2341
G1 X121.707 Y88.996 E42.23828
G1 X122.862 Y88.58 E42.26011
G1 X122.99 Y88.539 E42.2625
G1 X124.195 Y88.2 E42.28475
G1 X124.32 Y88.169 E42.28704
G1 X125.549 Y87.912 E42.30936
G1 X125.68 Y87.889 E42.31172
G1 X126.922 Y87.719 E42.334
G1 X127.053 Y87.706 E42.33634
G1 X128.303 Y87.623 E42.35861
G1 X128.434 Y87.619 E42.36094
G1 X129.688 Y87.623 E42.38323
G1 X129.821 Y87.628 E42.3856
G1 X131.071 Y87.72 E42.40788
G1 X131.2 Y87.734 E42.41019
G1 X132.442 Y87.912 E42.43249
G1 X132.573 Y87.936 E42.43486
G1 X133.799 Y88.201 E42.45715
G1 X133.925 Y88.232 E42.45946
G1 X135.128 Y88.58 E42.48172
G1 X135.253 Y88.621 E42.48406
G1 X136.432 Y89.053 E42.50638
G1 X136.556 Y89.104 E42.50876
G1 X137.699 Y89.617 E42.53104
G1 X137.816 Y89.674 E42.53335
G1 X138.921 Y90.265 E42.55562
G1 X139.035 Y90.331 E42.55797
G1 X140.097 Y90.998 E42.58026
G1 X140.206 Y91.072 E42.5826
G1 X141.218 Y91.81 E42.60486
G1 X141.322 Y91.892 E42.60722
G1 X142.281 Y92.7 E42.62951
G1 X142.378 Y92.788 E42.63184
G1 X143.279 Y93.661 E42.65414
G1 X143.371 Y93.756 E42.65649
G1 X144.208 Y94.689 E42.67877
G1 X144.292 Y94.79 E42.68111
G1 X145.062 Y95.779 E42.70339
G1 X145.139 Y95.884 E42.7057
G1 X145.84 Y96.925 E42.72801
G1 X145.91 Y97.038 E42.73037
G1 X146.536 Y98.125 E42.75267
G1 X146.598 Y98.243 E42.75504
G1 X147.145 Y99.37 E42.77731
G1 X147.197 Y99.487 E42.77958
G1 X147.667 Y100.65 E42.80188
G1 X147.713 Y100.776 E42.80427
G1 X148.099 Y101.968 E42.82654
G1 X148.135 Y102.093 E42.82885
G1 X148.438 Y103.31 E42.85115
G1 X148.465 Y103.44 E42.85351
G1 X148.682 Y104.675 E42.8758
G1 X148.701 Y104.806 E42.87815
G1 X148.831 Y106.054 E42.90045
G1 X148.84 Y106.184 E42.90277
G1 X148.884 Y107.436 E42.92504
G1 X148.884 Y107.568 E42.92738
G1 X148.84 Y108.821 E42.94967
G1 X148.831 Y108.952 E42.95201
G1 X148.7 Y110.2 E42.97431
G1 X148.681 Y110.331 E42.97667
G1 X148.463 Y111.567 E42.99898
G1 X148.436 Y111.695 E43.0013
G1 X148.134 Y112.911 E43.02357
G1 X148.098 Y113.039 E43.02594
G1 X147.711 Y114.231 E43.04821
G1 X147.666 Y114.354 E43.05054
G1 X147.197 Y115.516 E43.07282
G1 X147.143 Y115.636 E43.07516
G1 X146.594 Y116.764 E43.09746
G1 X146.533 Y116.88 E43.09979
G1 X145.907 Y117.967 E43.12208
G1 X145.837 Y118.079 E43.12443
G1 X145.137 Y119.119 E43.14672
G1 X145.06 Y119.226 E43.14906
G1 X144.289 Y120.215 E43.17135
G1 X144.204 Y120.316 E43.1737
G1 X143.366 Y121.249 E43.19599
G1 X143.275 Y121.343 E43.19832
G1 X142.375 Y122.215 E43.22059
G1 X142.278 Y122.303 E43.22292
G1 X141.319 Y123.111 E43.24521
G1 X141.213 Y123.194 E43.2476
G1 X140.199 Y123.932 E43.2699
G1 X140.092 Y124.005 E43.2722
G1 X139.031 Y124.671 E43.29447
G1 X138.918 Y124.736 E43.29679
G1 X137.812 Y125.328 E43.31909
G1 X137.692 Y125.387 E43.32146
G1 X136.548 Y125.899 E43.34374
G1 X136.426 Y125.949 E43.34609
G1 X135.247 Y126.381 E43.36841
G1 X135.121 Y126.422 E43.37076
G1 X133.919 Y126.769 E43.393
G1 X133.794 Y126.8 E43.39529
G1 X132.567 Y127.065 E43.4176
G1 X132.436 Y127.089 E43.41997
G1 X131.194 Y127.267 E43.44227
G1 X131.063 Y127.281 E43.44462
G1 X129.813 Y127.372 E43.4669
G1 X129.682 Y127.377 E43.46923
G1 X128.428 Y127.381 E43.49152
G1 X128.295 Y127.377 E43.49388
G1 X127.045 Y127.293 E43.51615
G1 X126.916 Y127.28 E43.51846
G1 X125.674 Y127.11 E43.54074
G1 X125.545 Y127.087 E43.54307
G1 X124.316 Y126.831 E43.56539
G1 X124.185 Y126.799 E43.56778
G1 X122.98 Y126.457 E43.59005
G1 X122.857 Y126.418 E43.59234
G1 X121.675 Y125.993 E43.61467
G1 X121.078 Y125.699 E43.6265
G1 X120.458 Y125.243 E43.64018
G1 X119.94 Y124.675 E43.65385
G1 X119.545 Y124.017 E43.66749
G1 X119.286 Y123.287 E43.68126
G1 X119.212 Y122.888 E43.68847
G1 X119.17 Y122.346 E43.69813
G1 X119.137 Y121.791 E43.70802
G1 X119.053 Y121.33 E43.71635
G1 X118.913 Y120.879 E43.72474
G1 X118.725 Y120.46 E43.7329
G1 X118.484 Y120.062 E43.74118
G1 X118.197 Y119.695 E43.74946
G1 X117.867 Y119.365 E43.75775
G1 X117.49 Y119.071 E43.76625
G1 X117.102 Y118.836 E43.77431
G1 X116.67 Y118.642 E43.78273
G1 X116.226 Y118.505 E43.79099
G1 X115.763 Y118.421 E43.79936
G1 X115.244 Y118.39 E43.8086
G1 X88.983 Y118.389 E44.27541
G1 X88.324 Y118.339 E44.28716
G1 X87.538 Y118.163 E44.30148
G1 X86.792 Y117.861 E44.31579
G1 X86.102 Y117.437 E44.33018
G1 X85.491 Y116.903 E44.34461
G1 X84.981 Y116.284 E44.35886
G1 X84.575 Y115.577 E44.37336
G1 X84.296 Y114.834 E44.38746
G1 X84.14 Y114.046 E44.40174
G1 X84.117 Y113.232 E44.41622
G1 X84.229 Y112.432 E44.43058
G1 X84.469 Y111.663 E44.4449
G1 X84.831 Y110.945 E44.45919
G1 X85.314 Y110.288 E44.47369
G1 X85.891 Y109.729 E44.48797
M204 S625
M205 X6 Y6
G0 F4285.7 X86.173 Y110.039
M204 S500
M205 X5 Y5
G1 F1200 X86.783 Y109.622 E44.5011
G1 X87.452 Y109.31 E44.51422
G1 X88.155 Y109.114 E44.5272
G1 X88.875 Y109.035 E44.54007
G1 X88.996 Y109.03 E44.54223
G1 X115.622 Y109.03 E45.01553
G1 X115.567 Y108.556 E45.02401
G1 X115.526 Y107.543 E45.04203
G1 X115.526 Y107.42 E45.04422
G1 X115.57 Y106.404 E45.0623
G1 X115.581 Y106.279 E45.06453
G1 X115.712 Y105.271 E45.0826
G1 X115.733 Y105.148 E45.08481
G1 X115.949 Y104.153 E45.10291
G1 X115.98 Y104.035 E45.10508
G1 X116.277 Y103.065 E45.12312
G1 X116.32 Y102.945 E45.12538
G1 X116.7 Y102.003 E45.14344
G1 X116.751 Y101.891 E45.14563
G1 X117.209 Y100.983 E45.1637
G1 X117.269 Y100.875 E45.1659
G1 X117.801 Y100.01 E45.18395
G1 X117.87 Y99.907 E45.18615
G1 X118.474 Y99.089 E45.20423
G1 X118.554 Y98.99 E45.20649
G1 X119.226 Y98.227 E45.22457
G1 X119.593 Y97.869 E45.23368
G1 X119.594 Y92.632 E45.32677
G1 X119.643 Y92.084 E45.33655
G1 X119.817 Y91.426 E45.34865
G1 X120.127 Y90.801 E45.36105
G1 X120.539 Y90.266 E45.37306
G1 X121.057 Y89.815 E45.38526
G1 X121.681 Y89.463 E45.398
G1 X121.849 Y89.391 E45.40125
G1 X123.004 Y88.975 E45.42307
G1 X123.104 Y88.943 E45.42494
G1 X124.309 Y88.604 E45.44719
G1 X124.406 Y88.58 E45.44897
G1 X125.635 Y88.323 E45.47128
G1 X125.737 Y88.306 E45.47312
G1 X126.979 Y88.136 E45.49541
G1 X127.081 Y88.125 E45.49723
G1 X128.331 Y88.042 E45.5195
G1 X128.433 Y88.039 E45.52131
G1 X129.687 Y88.043 E45.5436
G1 X129.79 Y88.047 E45.54544
G1 X131.04 Y88.139 E45.56772
G1 X131.141 Y88.15 E45.56952
G1 X132.383 Y88.328 E45.59183
G1 X132.485 Y88.346 E45.59367
G1 X133.711 Y88.611 E45.61596
G1 X133.808 Y88.636 E45.61774
G1 X135.011 Y88.984 E45.64001
G1 X135.109 Y89.016 E45.64184
G1 X136.288 Y89.448 E45.66416
G1 X136.384 Y89.487 E45.666
G1 X137.527 Y90 E45.68827
G1 X137.618 Y90.045 E45.69008
G1 X138.723 Y90.636 E45.71235
G1 X138.812 Y90.687 E45.71417
G1 X139.874 Y91.354 E45.73647
G1 X139.958 Y91.411 E45.73827
G1 X140.97 Y92.149 E45.76054
G1 X141.051 Y92.213 E45.76237
G1 X142.01 Y93.021 E45.78466
G1 X142.086 Y93.089 E45.78648
G1 X142.987 Y93.962 E45.80878
G1 X143.058 Y94.036 E45.8106
G1 X143.895 Y94.969 E45.83288
G1 X143.961 Y95.048 E45.83471
G1 X144.731 Y96.037 E45.85699
G1 X144.79 Y96.119 E45.85879
G1 X145.491 Y97.16 E45.8811
G1 X145.546 Y97.247 E45.88292
G1 X146.172 Y98.334 E45.90522
G1 X146.22 Y98.426 E45.90707
G1 X146.767 Y99.553 E45.92934
G1 X146.808 Y99.644 E45.93111
G1 X147.278 Y100.807 E45.95341
G1 X147.314 Y100.905 E45.95526
G1 X147.7 Y102.097 E45.97754
G1 X147.727 Y102.195 E45.97934
G1 X148.03 Y103.412 E46.00164
G1 X148.052 Y103.513 E46.00347
G1 X148.269 Y104.748 E46.02576
G1 X148.283 Y104.85 E46.02759
G1 X148.413 Y106.098 E46.0499
G1 X148.42 Y106.198 E46.05168
G1 X148.464 Y107.45 E46.07395
G1 X148.464 Y107.554 E46.0758
G1 X148.42 Y108.807 E46.09809
G1 X148.413 Y108.908 E46.09988
G1 X148.282 Y110.156 E46.12219
G1 X148.268 Y110.258 E46.12402
G1 X148.05 Y111.494 E46.14633
G1 X148.029 Y111.593 E46.14813
G1 X147.727 Y112.809 E46.1704
G1 X147.698 Y112.909 E46.17225
G1 X147.311 Y114.101 E46.19453
G1 X147.276 Y114.197 E46.19635
G1 X146.807 Y115.359 E46.21862
G1 X146.766 Y115.452 E46.22043
G1 X146.217 Y116.58 E46.24273
G1 X146.169 Y116.671 E46.24456
G1 X145.543 Y117.758 E46.26686
G1 X145.488 Y117.845 E46.26869
G1 X144.788 Y118.885 E46.29097
G1 X144.728 Y118.968 E46.29279
G1 X143.957 Y119.957 E46.31508
G1 X143.892 Y120.035 E46.31689
G1 X143.054 Y120.968 E46.33918
G1 X142.983 Y121.042 E46.341
G1 X142.083 Y121.914 E46.36328
G1 X142.007 Y121.982 E46.36509
G1 X141.048 Y122.79 E46.38738
G1 X140.966 Y122.855 E46.38924
G1 X139.952 Y123.593 E46.41154
G1 X139.869 Y123.649 E46.41332
G1 X138.808 Y124.315 E46.43558
G1 X138.72 Y124.366 E46.43739
G1 X137.614 Y124.958 E46.45969
G1 X137.521 Y125.004 E46.46154
G1 X136.377 Y125.516 E46.48381
G1 X136.282 Y125.554 E46.48563
G1 X135.103 Y125.986 E46.50795
G1 X135.005 Y126.018 E46.50979
G1 X133.803 Y126.365 E46.53203
G1 X133.705 Y126.39 E46.53382
G1 X132.478 Y126.655 E46.55614
G1 X132.377 Y126.673 E46.55796
G1 X131.135 Y126.851 E46.58026
G1 X131.033 Y126.862 E46.58209
G1 X129.783 Y126.953 E46.60437
G1 X129.681 Y126.957 E46.60618
G1 X128.427 Y126.961 E46.62847
G1 X128.323 Y126.958 E46.63032
G1 X127.073 Y126.874 E46.65259
G1 X126.973 Y126.863 E46.65438
G1 X125.731 Y126.693 E46.67666
G1 X125.63 Y126.676 E46.67849
G1 X124.401 Y126.42 E46.7008
G1 X124.3 Y126.395 E46.70265
G1 X123.095 Y126.053 E46.72492
G1 X122.999 Y126.022 E46.72671
G1 X121.817 Y125.597 E46.74904
G1 X121.274 Y125.328 E46.75981
G1 X120.723 Y124.917 E46.77203
G1 X120.264 Y124.408 E46.78421
G1 X119.915 Y123.818 E46.7964
G1 X119.688 Y123.166 E46.80867
G1 X119.63 Y122.856 E46.81428
G1 X119.59 Y122.321 E46.82381
G1 X119.556 Y121.747 E46.83403
G1 X119.461 Y121.229 E46.8434
G1 X119.307 Y120.731 E46.85266
G1 X119.097 Y120.264 E46.86176
G1 X118.829 Y119.821 E46.87097
G1 X118.513 Y119.418 E46.88007
G1 X118.148 Y119.052 E46.88926
G1 X117.727 Y118.724 E46.89875
G1 X117.298 Y118.464 E46.90766
G1 X116.82 Y118.249 E46.91698
G1 X116.318 Y118.094 E46.92632
G1 X115.813 Y118.003 E46.93544
G1 X115.27 Y117.97 E46.94511
G1 X88.983 Y117.969 E47.41239
G1 X88.36 Y117.921 E47.4235
G1 X87.643 Y117.757 E47.43657
G1 X86.962 Y117.477 E47.44966
G1 X86.333 Y117.086 E47.46282
G1 X85.777 Y116.596 E47.476
G1 X85.313 Y116.027 E47.48905
G1 X84.946 Y115.38 E47.50227
G1 X84.694 Y114.699 E47.51518
G1 X84.555 Y113.977 E47.52825
G1 X84.537 Y113.234 E47.54146
G1 X84.642 Y112.503 E47.55459
G1 X84.866 Y111.801 E47.56769
G1 X85.2 Y111.145 E47.58077
G1 X85.644 Y110.548 E47.594
G1 X86.173 Y110.039 E47.60705
M204 S625
M205 X6 Y6
G0 F4285.7 X86.456 Y110.35
M204 S500
M205 X5 Y5
G1 F1200 X87.011 Y109.974 E47.61896
G1 X87.619 Y109.696 E47.63085
G1 X88.257 Y109.522 E47.6426
G1 X88.909 Y109.454 E47.65426
G1 X88.996 Y109.45 E47.6558
G1 X116.098 Y109.45 E48.13757
G1 X115.994 Y108.629 E48.15228
G1 X115.987 Y108.539 E48.15388
G1 X115.946 Y107.526 E48.17191
G1 X115.946 Y107.439 E48.17345
G1 X115.99 Y106.423 E48.19153
G1 X115.998 Y106.333 E48.19314
G1 X116.129 Y105.325 E48.2112
G1 X116.144 Y105.237 E48.21279
G1 X116.36 Y104.242 E48.23089
G1 X116.382 Y104.158 E48.23243
G1 X116.679 Y103.188 E48.25047
G1 X116.709 Y103.102 E48.25209
G1 X117.089 Y102.16 E48.27014
G1 X117.126 Y102.08 E48.27171
G1 X117.584 Y101.172 E48.28979
G1 X117.627 Y101.095 E48.29135
G1 X118.159 Y100.23 E48.30941
G1 X118.208 Y100.156 E48.31098
G1 X118.812 Y99.338 E48.32906
G1 X118.869 Y99.268 E48.33066
G1 X119.541 Y98.505 E48.34874
G1 X119.603 Y98.44 E48.35033
G1 X120.013 Y98.048 E48.36042
G1 X120.014 Y92.632 E48.45669
G1 X120.061 Y92.127 E48.46571
G1 X120.218 Y91.55 E48.47634
G1 X120.495 Y91.004 E48.48722
G1 X120.861 Y90.536 E48.49778
G1 X121.319 Y90.143 E48.50851
G1 X121.871 Y89.838 E48.51972
G1 X121.991 Y89.786 E48.52204
G1 X123.146 Y89.37 E48.54387
G1 X123.218 Y89.347 E48.54521
G1 X124.423 Y89.008 E48.56746
G1 X124.492 Y88.991 E48.56872
G1 X125.721 Y88.734 E48.59104
G1 X125.794 Y88.722 E48.59236
G1 X127.036 Y88.552 E48.61464
G1 X127.108 Y88.544 E48.61593
G1 X128.358 Y88.461 E48.6382
G1 X128.431 Y88.459 E48.6395
G1 X129.685 Y88.463 E48.66179
G1 X129.759 Y88.466 E48.66311
G1 X131.009 Y88.558 E48.68539
G1 X131.081 Y88.566 E48.68667
G1 X132.323 Y88.744 E48.70898
G1 X132.396 Y88.757 E48.71029
G1 X133.622 Y89.022 E48.73259
G1 X133.692 Y89.039 E48.73387
G1 X134.895 Y89.387 E48.75613
G1 X134.964 Y89.41 E48.75743
G1 X136.143 Y89.842 E48.77975
G1 X136.212 Y89.87 E48.78107
G1 X137.355 Y90.383 E48.80334
G1 X137.42 Y90.415 E48.80463
G1 X138.525 Y91.006 E48.8269
G1 X138.588 Y91.043 E48.8282
G1 X139.65 Y91.71 E48.85049
G1 X139.711 Y91.751 E48.8518
G1 X140.723 Y92.489 E48.87407
G1 X140.781 Y92.534 E48.87537
G1 X141.74 Y93.342 E48.89766
G1 X141.794 Y93.391 E48.89896
G1 X142.695 Y94.264 E48.92126
G1 X142.746 Y94.317 E48.92257
G1 X143.583 Y95.25 E48.94485
G1 X143.63 Y95.306 E48.94615
G1 X144.4 Y96.295 E48.96843
G1 X144.442 Y96.354 E48.96972
G1 X145.143 Y97.395 E48.99202
G1 X145.182 Y97.457 E48.99333
G1 X145.808 Y98.544 E49.01562
G1 X145.843 Y98.61 E49.01695
G1 X146.39 Y99.737 E49.03922
G1 X146.419 Y99.802 E49.04049
G1 X146.889 Y100.965 E49.06278
G1 X146.914 Y101.035 E49.06411
G1 X147.3 Y102.227 E49.08638
G1 X147.32 Y102.296 E49.08765
G1 X147.623 Y103.513 E49.10995
G1 X147.638 Y103.585 E49.11126
G1 X147.855 Y104.82 E49.13355
G1 X147.865 Y104.893 E49.13485
G1 X147.995 Y106.141 E49.15716
G1 X148 Y106.213 E49.15844
G1 X148.044 Y107.465 E49.18071
G1 X148.044 Y107.539 E49.18203
G1 X148 Y108.792 E49.20431
G1 X147.995 Y108.865 E49.20561
G1 X147.864 Y110.113 E49.22792
G1 X147.854 Y110.185 E49.22921
G1 X147.636 Y111.421 E49.25152
G1 X147.621 Y111.492 E49.25281
G1 X147.319 Y112.708 E49.27509
G1 X147.299 Y112.779 E49.2764
G1 X146.912 Y113.971 E49.29867
G1 X146.887 Y114.04 E49.29998
G1 X146.418 Y115.202 E49.32225
G1 X146.388 Y115.269 E49.32356
G1 X145.839 Y116.397 E49.34586
G1 X145.805 Y116.461 E49.34715
G1 X145.179 Y117.548 E49.36944
G1 X145.14 Y117.61 E49.37075
G1 X144.44 Y118.65 E49.39303
G1 X144.397 Y118.71 E49.39434
G1 X143.626 Y119.699 E49.41663
G1 X143.579 Y119.755 E49.41793
G1 X142.741 Y120.688 E49.44023
G1 X142.691 Y120.74 E49.44151
G1 X141.791 Y121.612 E49.46379
G1 X141.737 Y121.661 E49.46508
G1 X140.778 Y122.469 E49.48737
G1 X140.719 Y122.515 E49.4887
G1 X139.705 Y123.253 E49.511
G1 X139.645 Y123.293 E49.51228
G1 X138.584 Y123.959 E49.53455
G1 X138.522 Y123.996 E49.53583
G1 X137.416 Y124.588 E49.55813
G1 X137.349 Y124.62 E49.55945
G1 X136.205 Y125.132 E49.58173
G1 X136.137 Y125.16 E49.58304
G1 X134.958 Y125.592 E49.60536
G1 X134.888 Y125.615 E49.60667
G1 X133.686 Y125.962 E49.6289
G1 X133.617 Y125.979 E49.63017
G1 X132.39 Y126.244 E49.65248
G1 X132.317 Y126.257 E49.6538
G1 X131.075 Y126.435 E49.6761
G1 X131.002 Y126.443 E49.67741
G1 X129.752 Y126.534 E49.69969
G1 X129.679 Y126.537 E49.70099
G1 X128.425 Y126.541 E49.72328
G1 X128.352 Y126.539 E49.72458
G1 X127.102 Y126.455 E49.74685
G1 X127.03 Y126.447 E49.74813
G1 X125.788 Y126.277 E49.77042
G1 X125.716 Y126.265 E49.77171
G1 X124.487 Y126.009 E49.79403
G1 X124.414 Y125.991 E49.79537
G1 X123.209 Y125.649 E49.81763
G1 X123.141 Y125.627 E49.8189
G1 X121.959 Y125.202 E49.84123
G1 X121.47 Y124.956 E49.85096
G1 X120.987 Y124.591 E49.86172
G1 X120.588 Y124.14 E49.87243
G1 X120.285 Y123.619 E49.88314
G1 X120.09 Y123.045 E49.89392
G1 X120.049 Y122.824 E49.89791
G1 X120.009 Y122.297 E49.90731
G1 X119.974 Y121.696 E49.91801
G1 X119.87 Y121.128 E49.92827
G1 X119.7 Y120.582 E49.93844
G1 X119.469 Y120.067 E49.94847
G1 X119.177 Y119.586 E49.95847
G1 X118.825 Y119.136 E49.96863
G1 X118.429 Y118.739 E49.9786
G1 X117.963 Y118.376 E49.9891
G1 X117.495 Y118.092 E49.99883
G1 X116.962 Y117.853 E50.00921
G1 X116.425 Y117.687 E50.0192
G1 X115.863 Y117.585 E50.02936
G1 X115.278 Y117.55 E50.03978
G1 X88.983 Y117.549 E50.50719
G1 X88.396 Y117.502 E50.51766
G1 X87.747 Y117.35 E50.52951
G1 X87.132 Y117.093 E50.54136
G1 X86.565 Y116.736 E50.55327
G1 X86.063 Y116.288 E50.56523
G1 X85.645 Y115.77 E50.57706
G1 X85.317 Y115.183 E50.58902
G1 X85.092 Y114.564 E50.60072
G1 X84.969 Y113.909 E50.61257
G1 X84.957 Y113.236 E50.62453
G1 X85.056 Y112.575 E50.63642
G1 X85.262 Y111.94 E50.64828
G1 X85.569 Y111.346 E50.66017
G1 X85.974 Y110.808 E50.67214
G1 X86.456 Y110.35 E50.68396
M204 S625
M205 X6 Y6
G0 F4285.7 X86.738 Y110.661
M204 S500
M205 X5 Y5
G1 F1200 X87.239 Y110.327 E50.69466
G1 X87.785 Y110.082 E50.7053
G1 X88.36 Y109.929 E50.71588
G1 X88.944 Y109.872 E50.72631
G1 X88.996 Y109.87 E50.72723
G1 X116.598 Y109.87 E51.21788
G1 X116.539 Y109.584 E51.22308
G1 X116.411 Y108.576 E51.24114
G1 X116.407 Y108.522 E51.2421
G1 X116.366 Y107.509 E51.26012
G1 X116.366 Y107.457 E51.26105
G1 X116.41 Y106.441 E51.27912
G1 X116.414 Y106.387 E51.28009
G1 X116.545 Y105.379 E51.29815
G1 X116.554 Y105.326 E51.29911
G1 X116.77 Y104.331 E51.31721
G1 X116.784 Y104.281 E51.31813
G1 X117.081 Y103.311 E51.33617
G1 X117.099 Y103.259 E51.33714
G1 X117.479 Y102.317 E51.3552
G1 X117.501 Y102.269 E51.35614
G1 X117.959 Y101.361 E51.37422
G1 X117.984 Y101.315 E51.37515
G1 X118.516 Y100.45 E51.3932
G1 X118.546 Y100.406 E51.39414
G1 X119.15 Y99.588 E51.41222
G1 X119.184 Y99.546 E51.41318
G1 X119.856 Y98.783 E51.43125
G1 X119.894 Y98.744 E51.43222
G1 X120.433 Y98.228 E51.44549
G1 X120.434 Y92.632 E51.54496
G1 X120.503 Y92.048 E51.55541
G1 X120.669 Y91.557 E51.56463
G1 X120.931 Y91.107 E51.57388
G1 X121.273 Y90.718 E51.58309
G1 X121.69 Y90.401 E51.5924
G1 X122.134 Y90.181 E51.60121
G1 X123.289 Y89.765 E51.62303
G1 X123.331 Y89.752 E51.62381
G1 X124.578 Y89.402 E51.64684
G1 X125.807 Y89.145 E51.66916
G1 X127.093 Y88.968 E51.69223
G1 X127.136 Y88.963 E51.693
G1 X128.386 Y88.88 E51.71527
G1 X128.43 Y88.879 E51.71605
G1 X129.684 Y88.883 E51.73834
G1 X129.728 Y88.885 E51.73913
G1 X131.021 Y88.981 E51.76217
G1 X132.263 Y89.159 E51.78448
G1 X132.307 Y89.167 E51.78527
G1 X133.533 Y89.432 E51.80757
G1 X133.575 Y89.443 E51.80834
G1 X134.82 Y89.804 E51.83138
G1 X135.999 Y90.236 E51.8537
G1 X136.04 Y90.253 E51.85449
G1 X137.183 Y90.766 E51.87676
G1 X137.222 Y90.785 E51.87753
G1 X138.327 Y91.376 E51.89981
G1 X138.365 Y91.398 E51.90059
G1 X139.427 Y92.065 E51.92288
G1 X140.475 Y92.828 E51.94593
G1 X140.51 Y92.855 E51.94671
G1 X141.469 Y93.663 E51.969
G1 X142.433 Y94.597 E51.99286
G1 X143.27 Y95.53 E52.01514
G1 X143.298 Y95.564 E52.01593
G1 X144.094 Y96.588 E52.03898
G1 X144.795 Y97.629 E52.06129
G1 X145.444 Y98.754 E52.08438
G1 X145.465 Y98.793 E52.08517
G1 X146.012 Y99.92 E52.10744
G1 X146.029 Y99.959 E52.10819
G1 X146.499 Y101.122 E52.13049
G1 X146.514 Y101.164 E52.13128
G1 X146.9 Y102.356 E52.15355
G1 X146.912 Y102.398 E52.15433
G1 X147.215 Y103.615 E52.17662
G1 X147.224 Y103.658 E52.17741
G1 X147.448 Y104.937 E52.20049
G1 X147.578 Y106.185 E52.22279
G1 X147.581 Y106.228 E52.22356
G1 X147.625 Y107.48 E52.24583
G1 X147.625 Y107.524 E52.24661
G1 X147.581 Y108.777 E52.2689
G1 X147.578 Y108.821 E52.26968
G1 X147.447 Y110.069 E52.29199
G1 X147.222 Y111.348 E52.31507
G1 X147.213 Y111.391 E52.31585
G1 X146.911 Y112.607 E52.33812
G1 X146.899 Y112.65 E52.33892
G1 X146.512 Y113.842 E52.3612
G1 X146.497 Y113.883 E52.36197
G1 X146.028 Y115.045 E52.38425
G1 X146.01 Y115.085 E52.38503
G1 X145.461 Y116.213 E52.40733
G1 X145.441 Y116.251 E52.40809
G1 X144.792 Y117.376 E52.43118
G1 X144.092 Y118.416 E52.45346
G1 X143.295 Y119.44 E52.47653
G1 X143.267 Y119.474 E52.47731
G1 X142.429 Y120.407 E52.4996
G1 X141.466 Y121.34 E52.52344
G1 X140.507 Y122.148 E52.54573
G1 X140.472 Y122.175 E52.54651
G1 X139.422 Y122.938 E52.56959
G1 X138.361 Y123.604 E52.59185
G1 X137.217 Y124.217 E52.61493
G1 X137.177 Y124.237 E52.61572
G1 X135.993 Y124.766 E52.63877
G1 X134.814 Y125.198 E52.66109
G1 X133.57 Y125.558 E52.68411
G1 X133.528 Y125.569 E52.68489
G1 X132.301 Y125.834 E52.7072
G1 X132.257 Y125.842 E52.70799
G1 X131.015 Y126.02 E52.7303
G1 X129.722 Y126.115 E52.75334
G1 X129.678 Y126.117 E52.75413
G1 X128.424 Y126.121 E52.77642
G1 X128.38 Y126.12 E52.7772
G1 X127.13 Y126.036 E52.79947
G1 X125.845 Y125.861 E52.82252
G1 X125.802 Y125.854 E52.8233
G1 X124.573 Y125.598 E52.84561
G1 X124.529 Y125.587 E52.84642
G1 X123.324 Y125.245 E52.86869
G1 X123.283 Y125.232 E52.86945
G1 X122.101 Y124.807 E52.89178
G1 X121.562 Y124.516 E52.90267
G1 X121.162 Y124.176 E52.912
G1 X120.843 Y123.771 E52.92116
G1 X120.606 Y123.302 E52.9305
G1 X120.468 Y122.792 E52.9399
G1 X120.428 Y122.272 E52.94917
G1 X120.391 Y121.644 E52.96035
G1 X120.278 Y121.027 E52.9715
G1 X120.094 Y120.434 E52.98254
G1 X119.843 Y119.874 E52.99345
G1 X119.519 Y119.341 E53.00453
G1 X119.142 Y118.859 E53.01541
G1 X118.706 Y118.422 E53.02638
G1 X118.207 Y118.033 E53.03763
G1 X117.688 Y117.718 E53.04842
G1 X117.113 Y117.46 E53.05963
G1 X116.522 Y117.278 E53.07062
G1 X115.914 Y117.168 E53.0816
G1 X115.287 Y117.13 E53.09277
G1 X88.983 Y117.129 E53.56035
G1 X88.433 Y117.084 E53.57016
G1 X87.852 Y116.943 E53.58078
G1 X87.302 Y116.709 E53.59141
G1 X86.797 Y116.386 E53.60207
G1 X86.35 Y115.981 E53.61279
G1 X85.978 Y115.513 E53.62341
G1 X85.688 Y114.986 E53.63411
G1 X85.489 Y114.429 E53.64462
G1 X85.383 Y113.84 E53.65526
G1 X85.377 Y113.237 E53.66598
G1 X85.47 Y112.646 E53.67661
G1 X85.659 Y112.078 E53.68725
G1 X85.938 Y111.546 E53.69793
G1 X86.304 Y111.067 E53.70865
G1 X86.738 Y110.661 E53.71921
M204 S625
M205 X6 Y6
G0 F4285.7 X87.048 Y110.951
M204 S500
M205 X5 Y5
G1 F1200 X87.498 Y110.663 E53.72871
G1 X87.984 Y110.456 E53.7381
G1 X88.496 Y110.331 E53.74747
G1 X88.996 Y110.29 E53.75639
G1 X117.117 Y110.29 E54.25627
G1 X116.956 Y109.531 E54.27006
G1 X116.826 Y108.505 E54.28844
G1 X116.785 Y107.475 E54.30677
G1 X116.829 Y106.459 E54.32484
G1 X116.965 Y105.415 E54.34356
G1 X117.185 Y104.404 E54.36195
G1 X117.488 Y103.416 E54.38032
G1 X117.868 Y102.474 E54.39838
G1 X118.342 Y101.535 E54.41707
G1 X118.884 Y100.655 E54.43545
G1 X119.499 Y99.823 E54.45384
G1 X120.171 Y99.06 E54.47191
G1 X120.853 Y98.407 E54.48869
G1 X120.855 Y92.61 E54.59174
G1 X120.904 Y92.173 E54.59956
G1 X121.037 Y91.76 E54.60727
G1 X121.253 Y91.376 E54.6151
G1 X121.535 Y91.046 E54.62282
G1 X121.88 Y90.776 E54.63061
G1 X122.276 Y90.576 E54.63849
G1 X123.445 Y90.156 E54.66057
G1 X124.664 Y89.813 E54.68308
G1 X125.893 Y89.556 E54.7054
G1 X127.164 Y89.382 E54.72821
G1 X128.429 Y89.299 E54.75074
G1 X129.697 Y89.304 E54.77328
G1 X130.962 Y89.397 E54.79583
G1 X132.218 Y89.578 E54.81839
G1 X133.458 Y89.846 E54.84094
G1 X134.675 Y90.199 E54.86346
G1 X135.868 Y90.636 E54.88605
G1 X137.011 Y91.149 E54.90832
G1 X138.142 Y91.754 E54.93112
G1 X139.216 Y92.429 E54.95367
G1 X140.239 Y93.176 E54.97618
G1 X141.209 Y93.994 E54.99874
G1 X142.12 Y94.878 E55.0213
G1 X142.967 Y95.822 E55.04385
G1 X143.737 Y96.811 E55.06613
G1 X144.454 Y97.876 E55.08895
G1 X145.087 Y98.976 E55.11151
G1 X145.64 Y100.116 E55.13403
G1 X146.115 Y101.293 E55.1566
G1 X146.505 Y102.499 E55.17913
G1 X146.811 Y103.731 E55.20169
G1 X147.03 Y104.98 E55.22423
G1 X147.161 Y106.243 E55.24681
G1 X147.205 Y107.509 E55.26932
G1 X147.16 Y108.777 E55.29188
G1 X147.027 Y110.039 E55.31444
G1 X146.806 Y111.29 E55.33702
G1 X146.5 Y112.52 E55.35955
G1 X146.108 Y113.726 E55.38209
G1 X145.633 Y114.901 E55.40462
G1 X145.077 Y116.042 E55.42718
G1 X144.443 Y117.141 E55.44973
G1 X143.735 Y118.193 E55.47228
G1 X142.964 Y119.182 E55.49457
G1 X142.106 Y120.137 E55.51739
G1 X141.195 Y121.019 E55.53993
G1 X140.225 Y121.836 E55.56247
G1 X139.199 Y122.582 E55.58502
G1 X138.125 Y123.255 E55.60755
G1 X137.006 Y123.854 E55.63011
G1 X135.862 Y124.366 E55.65239
G1 X134.655 Y124.808 E55.67524
G1 X133.439 Y125.158 E55.69774
G1 X132.198 Y125.426 E55.7203
G1 X130.956 Y125.604 E55.74261
G1 X129.677 Y125.697 E55.7654
G1 X128.408 Y125.701 E55.78796
G1 X127.158 Y125.617 E55.81023
G1 X125.887 Y125.443 E55.83303
G1 X124.658 Y125.187 E55.85535
G1 X123.425 Y124.837 E55.87813
G1 X122.243 Y124.412 E55.90046
G1 X121.827 Y124.19 E55.90884
G1 X121.486 Y123.909 E55.9167
G1 X121.213 Y123.572 E55.92441
G1 X121.008 Y123.181 E55.93226
G1 X120.887 Y122.76 E55.94004
G1 X120.847 Y122.247 E55.94919
G1 X120.808 Y121.589 E55.96091
G1 X120.686 Y120.924 E55.97292
G1 X120.488 Y120.287 E55.98478
G1 X120.215 Y119.677 E55.99666
G1 X119.864 Y119.1 E56.00867
G1 X119.459 Y118.582 E56.02036
G1 X118.987 Y118.109 E56.03223
G1 X118.444 Y117.685 E56.04448
G1 X117.885 Y117.346 E56.0561
G1 X117.262 Y117.067 E56.06824
G1 X116.622 Y116.87 E56.08014
G1 X115.964 Y116.75 E56.09203
G1 X115.295 Y116.71 E56.10394
G1 X88.965 Y116.708 E56.57198
G1 X88.435 Y116.659 E56.58144
G1 X87.924 Y116.525 E56.59084
G1 X87.441 Y116.308 E56.60025
G1 X87.001 Y116.014 E56.60965
G1 X86.613 Y115.648 E56.61914
G1 X86.291 Y115.226 E56.62857
G1 X86.045 Y114.759 E56.63795
G1 X85.879 Y114.26 E56.6473
G1 X85.795 Y113.736 E56.65674
G1 X85.8 Y113.204 E56.66619
G1 X85.893 Y112.684 E56.67558
G1 X86.069 Y112.185 E56.68499
G1 X86.327 Y111.717 E56.69449
G1 X86.658 Y111.302 E56.70393
G1 X87.048 Y110.951 E56.71325
M204 S625
M205 X6 Y6
G1 F1500 E50.21325
;MESH:Rotating eyepiece.stl
G0 F4285.7 X89.02 Y111.119
G0 X117.636 Y111.2
