;START_OF_HEADER
;HEADER_VERSION:0.1
;FLAVOR:Griffin
;GENERATOR.NAME:Cura_SteamEngine
;GENERATOR.VERSION:4.7.1
;GENERATOR.BUILD_DATE:2020-09-02
;TARGET_MACHINE.NAME:Ultimaker 3
;EXTRUDER_TRAIN.0.INITIAL_TEMPERATURE:210
;EXTRUDER_TRAIN.0.MATERIAL.VOLUME_USED:16937
;EXTRUDER_TRAIN.0.MATERIAL.GUID:506c9f0d-e3aa-4bd4-b2d2-23e2425b1aa9
;EXTRUDER_TRAIN.0.NOZZLE.DIAMETER:0.4
;EXTRUDER_TRAIN.0.NOZZLE.NAME:AA 0.4
;BUILD_PLATE.TYPE:glass
;BUILD_PLATE.INITIAL_TEMPERATURE:60
;PRINT.TIME:6165
;PRINT.GROUPS:1
;PRINT.SIZE.MIN.X:9
;PRINT.SIZE.MIN.Y:6
;PRINT.SIZE.MIN.Z:0.27
;PRINT.SIZE.MAX.X:146.429
;PRINT.SIZE.MAX.Y:201.93
;PRINT.SIZE.MAX.Z:43.87
;END_OF_HEADER
;Generated with Cura_SteamEngine 4.7.1
T0
M82 ;absolute extrusion mode

G92 E0
M109 S210
G0 F15000 X9 Y6 Z2
G280
G1 F1500 E-6.5
;LAYER_COUNT:219
;LAYER:0
M107
M204 S625
M205 X6 Y6
G1 F600 Z2.27
G0 F4285.7 X109.928 Y67.564 Z2.27
M204 S500
M205 X5 Y5
;TYPE:SKIRT
G1 F600 Z0.27
G1 F1500 E0
G1 F1200 X110.544 Y66.775 E0.01779
G1 X110.707 Y66.595 E0.02211
G1 X111.236 Y66.071 E0.03535
G1 X111.98 Y65.494 E0.05208
G1 X112.184 Y65.357 E0.05645
G1 X112.824 Y64.976 E0.06969
G1 X113.677 Y64.598 E0.08628
G1 X113.905 Y64.515 E0.09059
G1 X114.618 Y64.298 E0.10384
G1 X115.461 Y64.145 E0.11907
G1 X115.689 Y64.118 E0.12315
G1 X116.504 Y64.07 E0.13766
G1 X128.569 Y64.069 E0.35213
G1 X128.569 Y33.172 E0.90135
G1 X128.609 Y32.429 E0.91458
G1 X128.728 Y31.694 E0.92781
G1 X128.926 Y30.976 E0.94105
G1 X129.199 Y30.284 E0.95428
G1 X129.545 Y29.625 E0.96751
G1 X129.96 Y29.007 E0.98074
G1 X130.579 Y28.292 E0.99755
G1 X130.701 Y28.169 E1.00063
G1 X131.253 Y27.669 E1.01387
G1 X131.855 Y27.232 E1.02709
G1 X132.5 Y26.861 E1.04032
G1 X133.182 Y26.562 E1.05356
G1 X133.892 Y26.338 E1.06679
G1 X134.621 Y26.191 E1.08001
G1 X135.591 Y26.119 E1.0973
G1 X139.345 Y26.103 E1.16403
G1 X140.089 Y26.14 E1.17728
G1 X140.824 Y26.256 E1.1905
G1 X141.542 Y26.451 E1.20373
G1 X142.236 Y26.721 E1.21697
G1 X142.896 Y27.064 E1.23019
G1 X143.516 Y27.476 E1.24342
G1 X144.255 Y28.113 E1.26076
G1 X144.379 Y28.236 E1.26387
G1 X144.879 Y28.788 E1.27711
G1 X145.316 Y29.39 E1.29033
G1 X145.687 Y30.036 E1.30357
G1 X145.986 Y30.717 E1.31679
G1 X146.21 Y31.427 E1.33003
G1 X146.357 Y32.157 E1.34326
G1 X146.429 Y33.156 E1.36107
G1 X146.427 Y74.014 E2.08736
G1 X146.348 Y75.054 E2.1059
G1 X146.307 Y75.324 E2.11075
G1 X146.156 Y76.053 E2.12399
G1 X145.928 Y76.762 E2.13723
G1 X145.682 Y77.337 E2.14834
G1 X145.343 Y78 E2.16158
G1 X144.752 Y78.86 E2.18013
G1 X144.587 Y79.065 E2.18481
G1 X144.089 Y79.619 E2.19805
G1 X143.303 Y80.296 E2.21649
G1 X143.093 Y80.451 E2.22113
G1 X142.472 Y80.86 E2.23435
G1 X141.81 Y81.2 E2.24758
G1 X141.215 Y81.439 E2.25897
G1 X140.507 Y81.668 E2.2722
G1 X139.617 Y81.842 E2.28832
G1 X139.376 Y81.873 E2.29264
G1 X138.492 Y81.93 E2.30839
G1 X126.429 Y81.931 E2.52282
G1 X126.429 Y185.011 E4.35517
G1 X126.411 Y185.514 E4.36411
G1 X126.308 Y186.93 E4.38935
G1 X126.168 Y187.899 E4.40676
G1 X125.868 Y189.279 E4.43186
G1 X125.589 Y190.23 E4.44948
G1 X125.084 Y191.583 E4.47515
G1 X124.672 Y192.484 E4.49276
G1 X123.987 Y193.737 E4.51814
G1 X123.455 Y194.564 E4.53562
G1 X122.609 Y195.695 E4.56073
G1 X121.958 Y196.447 E4.57841
G1 X120.94 Y197.464 E4.60399
G1 X120.198 Y198.106 E4.62143
G1 X119.068 Y198.953 E4.64653
G1 X118.23 Y199.492 E4.66425
G1 X116.976 Y200.176 E4.68964
G1 X116.083 Y200.584 E4.70709
G1 X114.734 Y201.088 E4.73269
G1 X113.783 Y201.367 E4.75031
G1 X112.4 Y201.668 E4.77547
G1 X111.428 Y201.809 E4.79293
G1 X110.011 Y201.912 E4.81818
G1 X109.509 Y201.93 E4.82711
G1 X93.624 Y201.93 E5.10948
G1 X92.881 Y201.89 E5.12271
G1 X92.146 Y201.771 E5.13594
G1 X91.428 Y201.573 E5.14918
G1 X90.736 Y201.3 E5.16241
G1 X90.077 Y200.954 E5.17564
G1 X89.459 Y200.539 E5.18887
G1 X88.724 Y199.9 E5.20618
G1 X88.601 Y199.777 E5.20927
G1 X88.103 Y199.223 E5.22252
G1 X87.668 Y198.619 E5.23575
G1 X87.301 Y197.972 E5.24897
G1 X87.004 Y197.29 E5.26219
G1 X86.783 Y196.579 E5.27543
G1 X86.639 Y195.849 E5.28865
G1 X86.571 Y194.877 E5.30598
G1 X86.572 Y153.062 E6.04928
G1 X86.616 Y152.286 E6.06309
G1 X86.715 Y151.408 E6.0788
G1 X86.838 Y150.673 E6.09205
G1 X87.079 Y149.836 E6.10753
G1 X87.371 Y149.017 E6.12299
G1 X87.76 Y148.128 E6.14024
G1 X88.076 Y147.582 E6.15145
G1 X88.546 Y146.849 E6.16693
G1 X88.924 Y146.317 E6.17853
G1 X89.546 Y145.62 E6.19513
G1 X90.167 Y145.012 E6.21058
G1 X90.815 Y144.452 E6.22581
G1 X90.836 Y144.436 E6.22628
G1 X91.438 Y144.025 E6.23923
G1 X92.182 Y143.573 E6.25471
G1 X92.912 Y143.187 E6.26939
G1 X92.934 Y143.177 E6.26982
G1 X93.641 Y142.901 E6.28331
G1 X93.78 Y142.855 E6.28591
G1 X94.134 Y142.594 E6.29373
G1 X94.574 Y142.198 E6.30425
G1 X95.121 Y141.618 E6.31842
G1 X95.72 Y140.883 E6.33528
G1 X96.364 Y139.983 E6.35495
G1 X97.022 Y138.944 E6.37681
G1 X97.734 Y137.687 E6.40249
G1 X98.419 Y136.35 E6.4292
G1 X99.119 Y134.834 E6.45888
G1 X99.814 Y133.187 E6.49066
G1 X100.487 Y131.439 E6.52395
G1 X101.173 Y129.489 E6.5607
G1 X101.839 Y127.421 E6.59932
G1 X102.459 Y125.321 E6.63824
G1 X103.084 Y123.014 E6.68073
G1 X103.66 Y120.697 E6.72317
G1 X104.245 Y118.132 E6.76993
G1 X104.768 Y115.625 E6.81546
G1 X105.259 Y113.039 E6.86225
G1 X105.73 Y110.298 E6.91169
G1 X105.75 Y110.189 E6.91366
G1 X106.175 Y107.468 E6.96261
G1 X106.589 Y104.521 E7.01551
G1 X106.951 Y101.634 E7.06723
G1 X107.276 Y98.691 E7.11986
G1 X107.288 Y98.594 E7.1216
G1 X107.579 Y95.597 E7.17513
G1 X108.06 Y89.34 E7.28668
G1 X108.384 Y83.002 E7.39949
G1 X108.553 Y76.458 E7.51586
G1 X108.567 Y75.47 E7.53342
G1 X108.575 Y71.905 E7.59679
G1 X108.617 Y71.162 E7.61002
G1 X108.746 Y70.388 E7.62397
G1 X108.809 Y70.11 E7.62904
G1 X109.013 Y69.394 E7.64227
G1 X109.434 Y68.418 E7.66116
G1 X109.547 Y68.203 E7.66548
G1 X109.928 Y67.564 E7.67871
M204 S625
M205 X6 Y6
G0 F4285.7 X110.289 Y67.779
M204 S500
M205 X5 Y5
G1 F1200 X110.856 Y67.057 E7.69503
G1 X111.019 Y66.877 E7.69934
G1 X111.532 Y66.37 E7.71216
G1 X112.215 Y65.843 E7.7275
G1 X112.419 Y65.706 E7.73187
G1 X113.039 Y65.337 E7.74469
G1 X113.821 Y64.993 E7.75988
G1 X114.049 Y64.91 E7.76419
G1 X114.74 Y64.701 E7.77702
G1 X115.51 Y64.562 E7.79093
G1 X115.738 Y64.535 E7.79501
G1 X116.504 Y64.49 E7.80865
G1 X128.989 Y64.489 E8.03059
G1 X128.989 Y33.172 E8.58728
G1 X129.029 Y32.452 E8.6001
G1 X129.148 Y31.74 E8.61293
G1 X129.346 Y31.046 E8.62576
G1 X129.619 Y30.379 E8.63857
G1 X129.964 Y29.745 E8.6514
G1 X130.377 Y29.154 E8.66421
G1 X130.877 Y28.588 E8.67764
G1 X130.999 Y28.465 E8.68072
G1 X131.535 Y27.981 E8.69356
G1 X132.12 Y27.56 E8.70637
G1 X132.749 Y27.207 E8.71919
G1 X133.413 Y26.925 E8.73201
G1 X134.104 Y26.718 E8.74484
G1 X134.814 Y26.589 E8.75766
G1 X135.593 Y26.539 E8.77154
G1 X139.347 Y26.523 E8.83827
G1 X140.068 Y26.56 E8.8511
G1 X140.78 Y26.676 E8.86393
G1 X141.474 Y26.871 E8.87674
G1 X142.143 Y27.141 E8.88957
G1 X142.778 Y27.483 E8.90239
G1 X143.371 Y27.894 E8.91521
G1 X143.96 Y28.411 E8.92914
G1 X144.084 Y28.534 E8.93225
G1 X144.567 Y29.07 E8.94507
G1 X144.988 Y29.656 E8.9579
G1 X145.341 Y30.284 E8.97071
G1 X145.623 Y30.948 E8.98353
G1 X145.83 Y31.64 E8.99637
G1 X145.959 Y32.349 E9.00918
G1 X146.009 Y33.156 E9.02355
G1 X146.007 Y74.014 E9.74984
G1 X145.933 Y74.991 E9.76726
G1 X145.892 Y75.261 E9.77211
G1 X145.745 Y75.967 E9.78493
G1 X145.402 Y76.935 E9.80319
G1 X145.299 Y77.166 E9.80769
G1 X144.969 Y77.808 E9.82052
G1 X144.424 Y78.597 E9.83756
G1 X144.259 Y78.802 E9.84224
G1 X143.777 Y79.338 E9.85505
G1 X143.054 Y79.958 E9.87198
G1 X142.844 Y80.113 E9.87662
G1 X142.241 Y80.508 E9.88944
G1 X141.31 Y80.953 E9.90778
G1 X141.065 Y81.047 E9.91245
G1 X140.378 Y81.268 E9.92527
G1 X139.564 Y81.426 E9.94001
G1 X139.323 Y81.457 E9.94433
G1 X138.492 Y81.51 E9.95913
G1 X126.009 Y81.511 E10.18103
G1 X126.009 Y185.011 E12.02085
G1 X125.992 Y185.483 E12.02924
G1 X125.889 Y186.899 E12.05448
G1 X125.757 Y187.81 E12.07084
G1 X125.457 Y189.19 E12.09595
G1 X125.195 Y190.083 E12.11249
G1 X124.69 Y191.436 E12.13816
G1 X124.303 Y192.283 E12.15471
G1 X123.618 Y193.536 E12.1801
G1 X123.119 Y194.312 E12.1965
G1 X122.273 Y195.443 E12.2216
G1 X121.661 Y196.15 E12.23823
G1 X120.643 Y197.167 E12.26381
G1 X119.947 Y197.77 E12.28018
G1 X118.817 Y198.617 E12.30528
G1 X118.029 Y199.123 E12.32193
G1 X116.775 Y199.807 E12.34732
G1 X115.936 Y200.19 E12.36371
G1 X114.587 Y200.694 E12.38931
G1 X113.693 Y200.957 E12.40588
G1 X112.31 Y201.258 E12.43104
G1 X111.398 Y201.39 E12.44742
G1 X109.981 Y201.493 E12.47267
G1 X109.509 Y201.51 E12.48107
G1 X93.624 Y201.51 E12.76344
G1 X92.904 Y201.47 E12.77626
G1 X92.192 Y201.351 E12.78909
G1 X91.498 Y201.153 E12.80192
G1 X90.831 Y200.88 E12.81473
G1 X90.197 Y200.535 E12.82756
G1 X89.606 Y200.122 E12.84038
G1 X89.021 Y199.603 E12.85428
G1 X88.898 Y199.48 E12.85737
G1 X88.417 Y198.943 E12.87018
G1 X87.998 Y198.355 E12.88302
G1 X87.647 Y197.725 E12.89584
G1 X87.368 Y197.06 E12.90866
G1 X87.164 Y196.368 E12.92148
G1 X87.038 Y195.658 E12.9343
G1 X86.991 Y194.877 E12.94821
G1 X86.992 Y153.062 E13.69151
G1 X87.033 Y152.333 E13.70449
G1 X87.132 Y151.455 E13.7202
G1 X87.341 Y150.396 E13.73938
G1 X87.475 Y149.977 E13.7472
G1 X87.767 Y149.158 E13.76266
G1 X88.132 Y148.323 E13.77886
G1 X88.143 Y148.302 E13.77928
G1 X88.43 Y147.809 E13.78942
G1 X88.9 Y147.076 E13.8049
G1 X89.241 Y146.593 E13.81541
G1 X89.255 Y146.575 E13.81581
G1 X89.84 Y145.92 E13.83143
G1 X90.461 Y145.312 E13.84687
G1 X91.07 Y144.786 E13.86118
G1 X91.091 Y144.77 E13.86165
G1 X91.656 Y144.384 E13.87381
G1 X92.4 Y143.932 E13.88929
G1 X93.086 Y143.57 E13.90307
G1 X93.108 Y143.56 E13.9035
G1 X93.772 Y143.301 E13.91617
G1 X93.997 Y143.218 E13.92044
G1 X94.39 Y142.927 E13.92913
G1 X94.876 Y142.491 E13.94073
G1 X95.429 Y141.904 E13.95507
G1 X96.053 Y141.138 E13.97263
G1 X96.717 Y140.211 E13.9929
G1 X97.39 Y139.148 E14.01527
G1 X98.087 Y137.916 E14.04043
G1 X98.803 Y136.519 E14.06833
G1 X99.51 Y134.987 E14.09833
G1 X100.201 Y133.351 E14.1299
G1 X100.876 Y131.596 E14.16332
G1 X101.577 Y129.604 E14.20086
G1 X102.224 Y127.597 E14.23834
G1 X102.884 Y125.364 E14.27973
G1 X103.475 Y123.179 E14.31997
G1 X104.084 Y120.73 E14.36483
G1 X104.637 Y118.305 E14.40904
G1 X105.19 Y115.656 E14.45715
G1 X105.671 Y113.123 E14.50298
G1 X106.144 Y110.369 E14.55265
G1 X106.162 Y110.271 E14.55442
G1 X106.59 Y107.532 E14.6037
G1 X107.005 Y104.579 E14.65671
G1 X107.362 Y101.733 E14.7077
G1 X107.693 Y98.737 E14.76128
G1 X107.707 Y98.624 E14.7633
G1 X107.998 Y95.623 E14.8169
G1 X108.479 Y89.369 E14.9284
G1 X108.804 Y82.994 E15.04186
G1 X108.973 Y76.469 E15.15789
G1 X108.987 Y75.475 E15.17556
G1 X108.995 Y71.906 E15.23901
G1 X109.037 Y71.185 E15.25184
G1 X109.156 Y70.481 E15.26454
G1 X109.219 Y70.203 E15.2696
G1 X109.417 Y69.51 E15.28241
G1 X109.805 Y68.613 E15.29979
G1 X109.918 Y68.398 E15.3041
G1 X110.289 Y67.779 E15.31693
M204 S625
M205 X6 Y6
G0 F4285.7 X110.65 Y67.996
M204 S500
M205 X5 Y5
G1 F1200 X111.167 Y67.339 E15.33179
G1 X111.33 Y67.159 E15.33611
G1 X111.827 Y66.67 E15.3485
G1 X112.449 Y66.191 E15.36246
G1 X112.653 Y66.054 E15.36683
G1 X113.253 Y65.699 E15.37922
G1 X113.965 Y65.387 E15.39304
G1 X114.193 Y65.304 E15.39735
G1 X114.861 Y65.104 E15.40975
G1 X115.56 Y64.979 E15.42237
G1 X115.788 Y64.952 E15.42645
G1 X116.504 Y64.91 E15.4392
G1 X129.409 Y64.909 E15.6686
G1 X129.409 Y33.172 E16.23276
G1 X129.449 Y32.475 E16.24517
G1 X129.568 Y31.788 E16.25756
G1 X129.766 Y31.119 E16.26996
G1 X130.038 Y30.476 E16.28237
G1 X130.382 Y29.87 E16.29476
G1 X130.794 Y29.306 E16.30717
G1 X131.175 Y28.883 E16.31729
G1 X131.297 Y28.76 E16.32037
G1 X131.816 Y28.294 E16.33277
G1 X132.385 Y27.89 E16.34518
G1 X132.996 Y27.554 E16.35757
G1 X133.642 Y27.29 E16.36998
G1 X134.314 Y27.101 E16.38239
G1 X135.003 Y26.99 E16.39479
G1 X135.595 Y26.959 E16.40533
G1 X139.349 Y26.943 E16.47206
G1 X140.046 Y26.98 E16.48447
G1 X140.734 Y27.096 E16.49687
G1 X141.404 Y27.291 E16.50928
G1 X142.047 Y27.561 E16.52167
G1 X142.656 Y27.902 E16.53408
G1 X143.221 Y28.311 E16.54648
G1 X143.664 Y28.709 E16.55706
G1 X143.788 Y28.832 E16.56017
G1 X144.254 Y29.351 E16.57257
G1 X144.658 Y29.92 E16.58497
G1 X144.994 Y30.531 E16.59737
G1 X145.259 Y31.177 E16.60978
G1 X145.447 Y31.849 E16.62218
G1 X145.558 Y32.538 E16.63459
G1 X145.589 Y33.156 E16.64559
G1 X145.587 Y74.014 E17.37188
G1 X145.518 Y74.928 E17.38817
G1 X145.477 Y75.198 E17.39303
G1 X145.333 Y75.881 E17.40544
G1 X145.018 Y76.764 E17.4221
G1 X144.915 Y76.995 E17.4266
G1 X144.595 Y77.615 E17.439
G1 X144.097 Y78.333 E17.45453
G1 X143.932 Y78.538 E17.45921
G1 X143.464 Y79.056 E17.47162
G1 X142.805 Y79.62 E17.48704
G1 X142.595 Y79.775 E17.49168
G1 X142.01 Y80.156 E17.50409
G1 X141.16 Y80.561 E17.52082
G1 X140.915 Y80.655 E17.52549
G1 X140.25 Y80.867 E17.5379
G1 X139.51 Y81.009 E17.55129
G1 X139.269 Y81.04 E17.55561
G1 X138.492 Y81.09 E17.56945
G1 X125.589 Y81.091 E17.79881
G1 X125.589 Y185.011 E19.64609
G1 X125.573 Y185.453 E19.65396
G1 X125.47 Y186.869 E19.67919
G1 X125.347 Y187.721 E19.69449
G1 X125.047 Y189.101 E19.7196
G1 X124.802 Y189.937 E19.73508
G1 X124.297 Y191.29 E19.76076
G1 X123.935 Y192.081 E19.77622
G1 X123.25 Y193.334 E19.8016
G1 X122.783 Y194.061 E19.81696
G1 X121.937 Y195.192 E19.84207
G1 X121.364 Y195.852 E19.85761
G1 X120.346 Y196.869 E19.88319
G1 X119.695 Y197.434 E19.89851
G1 X118.565 Y198.281 E19.92361
G1 X117.828 Y198.754 E19.93918
G1 X116.574 Y199.438 E19.96457
G1 X115.789 Y199.797 E19.97991
G1 X114.44 Y200.301 E20.00551
G1 X113.604 Y200.547 E20.021
G1 X112.221 Y200.848 E20.04616
G1 X111.368 Y200.971 E20.06148
G1 X109.951 Y201.074 E20.08674
G1 X109.509 Y201.09 E20.0946
G1 X93.624 Y201.09 E20.37697
G1 X92.927 Y201.05 E20.38938
G1 X92.24 Y200.931 E20.40178
G1 X91.571 Y200.733 E20.41418
G1 X90.928 Y200.461 E20.42659
G1 X90.322 Y200.117 E20.43898
G1 X89.758 Y199.705 E20.45139
G1 X89.318 Y199.306 E20.46195
G1 X89.195 Y199.183 E20.46504
G1 X88.73 Y198.662 E20.47745
G1 X88.329 Y198.092 E20.48984
G1 X87.995 Y197.479 E20.50225
G1 X87.733 Y196.832 E20.51466
G1 X87.548 Y196.16 E20.52705
G1 X87.44 Y195.471 E20.53945
G1 X87.411 Y194.877 E20.55002
G1 X87.412 Y153.062 E21.29332
G1 X87.45 Y152.38 E21.30546
G1 X87.549 Y151.502 E21.32117
G1 X87.745 Y150.511 E21.33913
G1 X87.871 Y150.118 E21.34646
G1 X88.163 Y149.299 E21.36192
G1 X88.504 Y148.518 E21.37707
G1 X88.515 Y148.497 E21.37749
G1 X88.783 Y148.036 E21.38697
G1 X89.253 Y147.303 E21.40245
G1 X89.587 Y146.833 E21.4127
G1 X90.134 Y146.22 E21.4273
G1 X90.755 Y145.612 E21.44275
G1 X91.324 Y145.12 E21.45612
G1 X91.345 Y145.104 E21.45659
G1 X91.874 Y144.743 E21.46797
G1 X92.618 Y144.291 E21.48345
G1 X93.26 Y143.952 E21.49635
G1 X93.282 Y143.942 E21.49678
G1 X93.903 Y143.7 E21.50863
G1 X94.232 Y143.567 E21.51494
G1 X94.658 Y143.252 E21.52436
G1 X95.16 Y142.801 E21.53635
G1 X95.751 Y142.174 E21.55167
G1 X96.393 Y141.386 E21.56974
G1 X97.062 Y140.451 E21.59017
G1 X97.743 Y139.376 E21.6128
G1 X98.461 Y138.108 E21.6387
G1 X99.177 Y136.709 E21.66663
G1 X99.897 Y135.15 E21.69716
G1 X100.592 Y133.504 E21.72892
G1 X101.271 Y131.74 E21.76252
G1 X101.979 Y129.728 E21.80043
G1 X102.625 Y127.724 E21.83786
G1 X103.281 Y125.501 E21.87906
G1 X103.893 Y123.244 E21.92063
G1 X104.48 Y120.883 E21.96388
G1 X105.053 Y118.37 E22.0097
G1 X105.594 Y115.778 E22.05677
G1 X106.088 Y113.179 E22.10379
G1 X106.089 Y113.165 E22.10404
G1 X106.558 Y110.44 E22.15319
G1 X106.579 Y110.324 E22.15529
G1 X107.007 Y107.587 E22.20453
G1 X107.413 Y104.694 E22.25646
G1 X107.79 Y101.69 E22.31028
G1 X108.129 Y98.629 E22.36503
G1 X108.415 Y95.693 E22.41746
G1 X108.89 Y89.498 E22.52791
G1 X108.899 Y89.395 E22.52975
G1 X109.224 Y83.025 E22.64313
G1 X109.393 Y76.48 E22.75951
G1 X109.401 Y76.022 E22.76765
G1 X109.407 Y75.48 E22.77729
G1 X109.415 Y71.907 E22.8408
G1 X109.457 Y71.21 E22.85321
G1 X109.566 Y70.574 E22.86468
G1 X109.629 Y70.296 E22.86975
G1 X109.822 Y69.626 E22.88214
G1 X110.177 Y68.809 E22.89798
G1 X110.29 Y68.594 E22.9023
G1 X110.65 Y67.996 E22.9147
M204 S625
M205 X6 Y6
G0 F4285.7 X111.01 Y68.213
M204 S500
M205 X5 Y5
G1 F1200 X111.478 Y67.621 E22.92812
G1 X111.641 Y67.441 E22.93244
G1 X112.122 Y66.97 E22.9444
G1 X112.683 Y66.54 E22.95697
G1 X112.887 Y66.403 E22.96134
G1 X113.467 Y66.061 E22.9733
G1 X114.108 Y65.782 E22.98573
G1 X114.336 Y65.699 E22.99004
G1 X114.982 Y65.507 E23.00202
G1 X115.609 Y65.396 E23.01334
G1 X115.837 Y65.369 E23.01742
G1 X116.504 Y65.33 E23.0293
G1 X129.829 Y65.329 E23.26617
G1 X129.829 Y33.172 E23.83779
G1 X129.869 Y32.5 E23.84975
G1 X129.988 Y31.837 E23.86173
G1 X130.185 Y31.194 E23.87368
G1 X130.457 Y30.578 E23.88565
G1 X130.8 Y29.999 E23.89762
G1 X131.209 Y29.464 E23.90959
G1 X131.595 Y29.056 E23.91957
G1 X132.097 Y28.607 E23.93154
G1 X132.648 Y28.221 E23.9435
G1 X133.241 Y27.902 E23.95547
G1 X133.868 Y27.657 E23.96744
G1 X134.52 Y27.487 E23.97941
G1 X135.187 Y27.396 E23.99138
G1 X135.597 Y27.379 E23.99868
G1 X139.351 Y27.363 E24.06541
G1 X140.023 Y27.4 E24.07737
G1 X140.686 Y27.517 E24.08934
G1 X141.331 Y27.711 E24.10131
G1 X141.948 Y27.98 E24.11328
G1 X142.528 Y28.321 E24.12524
G1 X143.065 Y28.728 E24.13721
G1 X143.492 Y29.131 E24.14765
G1 X143.941 Y29.632 E24.15961
G1 X144.327 Y30.183 E24.17157
G1 X144.646 Y30.777 E24.18355
G1 X144.891 Y31.403 E24.1955
G1 X145.061 Y32.055 E24.20748
G1 X145.152 Y32.722 E24.21945
G1 X145.169 Y33.156 E24.22717
G1 X145.167 Y74.014 E24.95346
G1 X145.103 Y74.865 E24.96863
G1 X145.062 Y75.135 E24.97348
G1 X144.921 Y75.794 E24.98546
G1 X144.635 Y76.593 E25.00055
G1 X144.532 Y76.824 E25.00504
G1 X144.221 Y77.422 E25.01703
G1 X143.77 Y78.07 E25.03106
G1 X143.605 Y78.275 E25.03574
G1 X143.153 Y78.774 E25.04771
G1 X142.555 Y79.282 E25.06165
G1 X142.345 Y79.437 E25.06629
G1 X141.781 Y79.804 E25.07825
G1 X141.009 Y80.169 E25.09343
G1 X140.764 Y80.263 E25.0981
G1 X140.122 Y80.466 E25.11007
G1 X139.456 Y80.593 E25.12212
G1 X139.215 Y80.624 E25.12644
G1 X138.492 Y80.67 E25.13932
G1 X125.169 Y80.671 E25.37615
G1 X125.169 Y185.011 E27.23089
G1 X125.154 Y185.422 E27.2382
G1 X125.051 Y186.838 E27.26344
G1 X124.937 Y187.631 E27.27768
G1 X124.637 Y189.011 E27.30279
G1 X124.408 Y189.79 E27.31722
G1 X123.903 Y191.143 E27.34289
G1 X123.566 Y191.88 E27.3573
G1 X122.881 Y193.133 E27.38268
G1 X122.446 Y193.809 E27.39697
G1 X121.6 Y194.94 E27.42208
G1 X121.067 Y195.555 E27.43654
G1 X120.049 Y196.572 E27.46212
G1 X119.443 Y197.098 E27.47639
G1 X118.313 Y197.945 E27.50149
G1 X117.627 Y198.386 E27.51599
G1 X116.373 Y199.07 E27.54138
G1 X115.642 Y199.403 E27.55566
G1 X114.293 Y199.907 E27.58126
G1 X113.515 Y200.136 E27.59567
G1 X112.132 Y200.437 E27.62083
G1 X111.337 Y200.552 E27.63511
G1 X109.92 Y200.655 E27.66037
G1 X109.509 Y200.67 E27.66768
G1 X93.624 Y200.67 E27.95005
G1 X92.952 Y200.63 E27.96201
G1 X92.289 Y200.511 E27.97399
G1 X91.646 Y200.314 E27.98594
G1 X91.03 Y200.042 E27.99791
G1 X90.451 Y199.699 E28.00988
G1 X89.916 Y199.29 E28.02185
G1 X89.492 Y198.886 E28.03226
G1 X89.045 Y198.383 E28.04422
G1 X88.661 Y197.83 E28.05619
G1 X88.345 Y197.235 E28.06816
G1 X88.102 Y196.608 E28.08012
G1 X87.935 Y195.956 E28.09208
G1 X87.846 Y195.288 E28.10406
G1 X87.831 Y194.877 E28.11137
G1 X87.832 Y153.062 E28.85467
G1 X87.868 Y152.427 E28.86598
G1 X87.967 Y151.549 E28.88168
G1 X88.149 Y150.626 E28.89841
G1 X88.266 Y150.259 E28.90525
G1 X88.558 Y149.44 E28.92071
G1 X88.876 Y148.713 E28.93482
G1 X89.137 Y148.263 E28.94406
G1 X89.607 Y147.53 E28.95954
G1 X89.904 Y147.109 E28.9687
G1 X89.918 Y147.091 E28.96911
G1 X90.427 Y146.521 E28.98269
G1 X91.048 Y145.913 E28.99814
G1 X91.579 Y145.454 E29.01061
G1 X91.6 Y145.438 E29.01108
G1 X92.092 Y145.102 E29.02167
G1 X92.836 Y144.65 E29.03715
G1 X93.434 Y144.334 E29.04917
G1 X93.456 Y144.324 E29.0496
G1 X94.034 Y144.099 E29.06063
G1 X94.463 Y143.918 E29.0689
G1 X94.924 Y143.577 E29.0791
G1 X95.456 Y143.099 E29.09181
G1 X96.059 Y142.46 E29.10743
G1 X96.726 Y141.641 E29.1262
G1 X97.42 Y140.671 E29.14741
G1 X98.105 Y139.589 E29.17017
G1 X98.83 Y138.309 E29.19632
G1 X99.557 Y136.889 E29.22468
G1 X100.267 Y135.353 E29.25476
G1 X100.99 Y133.641 E29.28779
G1 X101.667 Y131.879 E29.32135
G1 X102.372 Y129.875 E29.35911
G1 X103.036 Y127.814 E29.3976
G1 X103.676 Y125.649 E29.43773
G1 X104.298 Y123.352 E29.48003
G1 X104.901 Y120.927 E29.52445
G1 X105.469 Y118.435 E29.56989
G1 X106 Y115.892 E29.61606
G1 X106.499 Y113.263 E29.66363
G1 X106.972 Y110.511 E29.71327
G1 X106.992 Y110.404 E29.7152
G1 X107.422 Y107.651 E29.76473
G1 X107.832 Y104.735 E29.81708
G1 X108.2 Y101.797 E29.86971
G1 X108.528 Y98.829 E29.92279
G1 X108.545 Y98.694 E29.92521
G1 X108.834 Y95.719 E29.97834
G1 X109.317 Y89.423 E30.09059
G1 X109.644 Y83.019 E30.20458
G1 X109.813 Y76.491 E30.32066
G1 X109.821 Y76.026 E30.32892
G1 X109.827 Y75.484 E30.33856
G1 X109.835 Y71.907 E30.40214
G1 X109.876 Y71.236 E30.41409
G1 X109.975 Y70.667 E30.42436
G1 X110.038 Y70.389 E30.42943
G1 X110.226 Y69.742 E30.4414
G1 X110.549 Y69.004 E30.45572
G1 X110.662 Y68.789 E30.46004
G1 X111.01 Y68.213 E30.472
M204 S625
M205 X6 Y6
G0 F4285.7 X111.37 Y68.431
M204 S500
M205 X5 Y5
G1 F1200 X111.789 Y67.903 E30.48399
G1 X111.952 Y67.723 E30.4883
G1 X112.416 Y67.271 E30.49982
G1 X112.917 Y66.889 E30.51102
G1 X113.121 Y66.752 E30.51539
G1 X113.68 Y66.424 E30.52691
G1 X114.252 Y66.177 E30.53798
G1 X114.48 Y66.094 E30.54229
G1 X115.101 Y65.91 E30.55381
G1 X115.659 Y65.813 E30.56388
G1 X115.887 Y65.786 E30.56796
G1 X116.504 Y65.75 E30.57894
G1 X130.249 Y65.749 E30.82327
G1 X130.249 Y33.172 E31.40236
G1 X130.289 Y32.525 E31.41389
G1 X130.408 Y31.889 E31.42539
G1 X130.605 Y31.272 E31.4369
G1 X130.876 Y30.683 E31.44843
G1 X131.218 Y30.133 E31.45994
G1 X131.772 Y29.475 E31.47523
G1 X131.894 Y29.352 E31.47831
G1 X132.377 Y28.921 E31.48981
G1 X132.91 Y28.553 E31.50133
G1 X133.485 Y28.253 E31.51286
G1 X134.091 Y28.027 E31.52435
G1 X134.722 Y27.877 E31.53588
G1 X135.599 Y27.799 E31.55153
G1 X139.353 Y27.783 E31.61827
G1 X139.999 Y27.82 E31.62977
G1 X140.637 Y27.937 E31.6413
G1 X141.254 Y28.131 E31.6528
G1 X141.844 Y28.4 E31.66432
G1 X142.396 Y28.739 E31.67584
G1 X143.072 Y29.306 E31.69152
G1 X143.196 Y29.429 E31.69463
G1 X143.627 Y29.912 E31.70613
G1 X143.995 Y30.445 E31.71765
G1 X144.295 Y31.02 E31.72917
G1 X144.521 Y31.627 E31.74069
G1 X144.671 Y32.257 E31.7522
G1 X144.749 Y33.156 E31.76824
G1 X144.747 Y74.014 E32.49453
G1 X144.687 Y74.802 E32.50858
G1 X144.646 Y75.072 E32.51343
G1 X144.51 Y75.705 E32.52494
G1 X144.251 Y76.422 E32.53849
G1 X144.148 Y76.653 E32.54299
G1 X143.848 Y77.227 E32.5545
G1 X143.443 Y77.807 E32.56708
G1 X143.278 Y78.012 E32.57176
G1 X142.841 Y78.49 E32.58327
G1 X142.306 Y78.944 E32.59574
G1 X142.096 Y79.099 E32.60038
G1 X141.552 Y79.451 E32.6119
G1 X140.859 Y79.777 E32.62551
G1 X140.614 Y79.871 E32.63018
G1 X139.996 Y80.065 E32.64169
G1 X139.403 Y80.176 E32.65242
G1 X139.162 Y80.207 E32.65674
G1 X138.492 Y80.25 E32.66867
G1 X124.749 Y80.251 E32.91297
G1 X124.749 Y185.011 E34.77518
G1 X124.735 Y185.392 E34.78195
G1 X124.632 Y186.808 E34.80719
G1 X124.526 Y187.542 E34.82037
G1 X124.226 Y188.922 E34.84548
G1 X124.015 Y189.643 E34.85883
G1 X123.51 Y190.996 E34.8845
G1 X123.198 Y191.678 E34.89783
G1 X122.513 Y192.931 E34.92322
G1 X122.11 Y193.558 E34.93647
G1 X121.264 Y194.689 E34.96158
G1 X120.77 Y195.258 E34.97497
G1 X119.752 Y196.275 E35.00055
G1 X119.191 Y196.762 E35.01375
G1 X118.061 Y197.609 E35.03886
G1 X117.426 Y198.017 E35.05227
G1 X116.172 Y198.701 E35.07767
G1 X115.495 Y199.01 E35.09089
G1 X114.146 Y199.514 E35.11649
G1 X113.425 Y199.726 E35.12985
G1 X112.042 Y200.027 E35.15501
G1 X111.307 Y200.133 E35.16821
G1 X109.89 Y200.236 E35.19347
G1 X109.509 Y200.25 E35.20024
G1 X93.624 Y200.25 E35.48262
G1 X92.977 Y200.21 E35.49414
G1 X92.341 Y200.091 E35.50564
G1 X91.724 Y199.894 E35.51715
G1 X91.135 Y199.623 E35.52868
G1 X90.585 Y199.281 E35.54019
G1 X89.912 Y198.712 E35.55586
G1 X89.789 Y198.589 E35.55895
G1 X89.36 Y198.104 E35.57046
G1 X88.994 Y197.569 E35.58198
G1 X88.697 Y196.994 E35.59349
G1 X88.473 Y196.386 E35.60501
G1 X88.325 Y195.755 E35.61653
G1 X88.251 Y194.877 E35.63219
G1 X88.252 Y153.062 E36.37549
G1 X88.285 Y152.474 E36.38596
G1 X88.384 Y151.596 E36.40167
G1 X88.553 Y150.742 E36.41714
G1 X88.662 Y150.4 E36.42352
G1 X88.954 Y149.581 E36.43898
G1 X89.248 Y148.908 E36.45203
G1 X89.49 Y148.489 E36.46063
G1 X89.96 Y147.756 E36.47611
G1 X90.25 Y147.349 E36.485
G1 X90.721 Y146.821 E36.49757
G1 X91.342 Y146.213 E36.51302
G1 X91.833 Y145.788 E36.52457
G1 X91.854 Y145.772 E36.52503
G1 X92.31 Y145.461 E36.53485
G1 X93.054 Y145.009 E36.55032
G1 X93.608 Y144.717 E36.56145
G1 X93.63 Y144.707 E36.56188
G1 X94.165 Y144.498 E36.57209
G1 X94.477 Y144.396 E36.57793
G1 X94.692 Y144.271 E36.58235
G1 X95.192 Y143.901 E36.59341
G1 X95.746 Y143.403 E36.60665
G1 X96.386 Y142.724 E36.62323
G1 X97.06 Y141.897 E36.6422
G1 X97.75 Y140.932 E36.66329
G1 X98.472 Y139.792 E36.68727
G1 X99.203 Y138.502 E36.71363
G1 X99.937 Y137.069 E36.74225
G1 X100.649 Y135.527 E36.77244
G1 X101.377 Y133.804 E36.80569
G1 X102.064 Y132.017 E36.83972
G1 X102.767 Y130.021 E36.87734
G1 X103.437 Y127.941 E36.91619
G1 X104.085 Y125.745 E36.95689
G1 X104.701 Y123.473 E36.99873
G1 X105.302 Y121.057 E37.04299
G1 X105.884 Y118.503 E37.08955
G1 X106.407 Y115.995 E37.13509
G1 X106.917 Y113.308 E37.18371
G1 X107.404 Y110.483 E37.23467
G1 X107.408 Y110.465 E37.23499
G1 X107.838 Y107.706 E37.28463
G1 X108.253 Y104.755 E37.3376
G1 X108.624 Y101.794 E37.39065
G1 X108.963 Y98.731 E37.44543
G1 X109.249 Y95.79 E37.49795
G1 X109.727 Y89.569 E37.60887
G1 X109.737 Y89.449 E37.61101
G1 X110.064 Y83.051 E37.72488
G1 X110.233 Y76.501 E37.84136
G1 X110.241 Y76.031 E37.84971
G1 X110.247 Y75.489 E37.85935
G1 X110.255 Y71.908 E37.923
G1 X110.296 Y71.262 E37.93451
G1 X110.385 Y70.76 E37.94357
G1 X110.448 Y70.482 E37.94864
G1 X110.63 Y69.86 E37.96016
G1 X110.921 Y69.2 E37.97298
G1 X111.034 Y68.985 E37.9773
G1 X111.37 Y68.431 E37.98882
M204 S625
M205 X6 Y6
G0 F4285.7 X111.729 Y68.65
M204 S500
M205 X5 Y5
G1 F1200 X112.101 Y68.185 E37.9994
G1 X112.264 Y68.005 E38.00372
G1 X112.71 Y67.572 E38.01477
G1 X113.151 Y67.237 E38.02461
G1 X113.355 Y67.1 E38.02898
G1 X113.892 Y66.788 E38.04002
G1 X114.396 Y66.571 E38.04978
G1 X114.624 Y66.488 E38.05409
G1 X115.22 Y66.314 E38.06513
G1 X115.936 Y66.204 E38.078
G1 X116.504 Y66.17 E38.08812
G1 X130.669 Y66.169 E38.33991
G1 X130.669 Y33.172 E38.92647
G1 X130.709 Y32.552 E38.93751
G1 X130.828 Y31.942 E38.94856
G1 X131.025 Y31.353 E38.9596
G1 X131.295 Y30.794 E38.97063
G1 X131.635 Y30.274 E38.98168
G1 X132.07 Y29.771 E38.9935
G1 X132.192 Y29.648 E38.99658
G1 X132.657 Y29.236 E39.00762
G1 X133.171 Y28.887 E39.01867
G1 X133.725 Y28.607 E39.0297
G1 X134.311 Y28.4 E39.04075
G1 X134.919 Y28.27 E39.0518
G1 X135.6 Y28.219 E39.06394
G1 X139.354 Y28.203 E39.13067
G1 X139.975 Y28.24 E39.14173
G1 X140.585 Y28.357 E39.15277
G1 X141.175 Y28.551 E39.16381
G1 X141.736 Y28.819 E39.17486
G1 X142.257 Y29.157 E39.1859
G1 X142.776 Y29.604 E39.19808
G1 X142.9 Y29.727 E39.20118
G1 X143.313 Y30.192 E39.21224
G1 X143.661 Y30.706 E39.22327
G1 X143.942 Y31.26 E39.23431
G1 X144.148 Y31.846 E39.24536
G1 X144.278 Y32.454 E39.25641
G1 X144.329 Y33.156 E39.26892
G1 X144.327 Y74.014 E39.99521
G1 X144.272 Y74.739 E40.00814
G1 X144.231 Y75.009 E40.01299
G1 X144.099 Y75.616 E40.02403
G1 X143.867 Y76.251 E40.03605
G1 X143.764 Y76.482 E40.04055
G1 X143.475 Y77.032 E40.05159
G1 X143.116 Y77.543 E40.06269
G1 X142.951 Y77.748 E40.06737
G1 X142.531 Y78.206 E40.07842
G1 X142.056 Y78.606 E40.08945
G1 X141.846 Y78.761 E40.09409
G1 X141.324 Y79.097 E40.10513
G1 X140.708 Y79.384 E40.11721
G1 X140.463 Y79.478 E40.12187
G1 X139.87 Y79.663 E40.13292
G1 X139.349 Y79.76 E40.14234
G1 X139.108 Y79.791 E40.14666
G1 X138.492 Y79.83 E40.15763
G1 X124.329 Y79.831 E40.40939
G1 X124.329 Y185.011 E42.27907
G1 X124.316 Y185.361 E42.28529
G1 X124.213 Y186.777 E42.31053
G1 X124.116 Y187.453 E42.32267
G1 X123.816 Y188.833 E42.34777
G1 X123.621 Y189.496 E42.36006
G1 X123.116 Y190.849 E42.38573
G1 X122.829 Y191.477 E42.398
G1 X122.144 Y192.73 E42.42339
G1 X121.774 Y193.306 E42.43556
G1 X120.928 Y194.437 E42.46066
G1 X120.474 Y194.961 E42.47299
G1 X119.456 Y195.978 E42.49857
G1 X118.939 Y196.426 E42.51073
G1 X117.809 Y197.273 E42.53583
G1 X117.225 Y197.648 E42.54817
G1 X115.971 Y198.332 E42.57356
G1 X115.348 Y198.617 E42.58574
G1 X113.999 Y199.121 E42.61134
G1 X113.336 Y199.316 E42.62362
G1 X111.953 Y199.617 E42.64878
G1 X111.276 Y199.714 E42.66094
G1 X109.859 Y199.817 E42.68619
G1 X109.509 Y199.83 E42.69242
G1 X93.624 Y199.83 E42.97479
G1 X93.004 Y199.79 E42.98583
G1 X92.394 Y199.671 E42.99688
G1 X91.805 Y199.474 E43.00792
G1 X91.246 Y199.204 E43.01896
G1 X90.726 Y198.864 E43.03
G1 X90.209 Y198.415 E43.04217
G1 X90.086 Y198.292 E43.04527
G1 X89.676 Y197.826 E43.0563
G1 X89.329 Y197.31 E43.06735
G1 X89.051 Y196.754 E43.0784
G1 X88.847 Y196.168 E43.08943
G1 X88.719 Y195.56 E43.10048
G1 X88.671 Y194.877 E43.11265
G1 X88.672 Y153.062 E43.85595
G1 X88.702 Y152.521 E43.86558
G1 X88.801 Y151.643 E43.88129
G1 X88.957 Y150.857 E43.89553
G1 X89.058 Y150.541 E43.90143
G1 X89.35 Y149.722 E43.91689
G1 X89.62 Y149.103 E43.92889
G1 X89.844 Y148.716 E43.93684
G1 X90.314 Y147.983 E43.95232
G1 X90.581 Y147.607 E43.96051
G1 X91.015 Y147.121 E43.9721
G1 X91.636 Y146.513 E43.98755
G1 X92.088 Y146.122 E43.99817
G1 X92.109 Y146.106 E43.99864
G1 X92.528 Y145.82 E44.00766
G1 X93.272 Y145.368 E44.02313
G1 X93.781 Y145.099 E44.03337
G1 X93.803 Y145.089 E44.03379
G1 X94.296 Y144.897 E44.0432
G1 X94.65 Y144.781 E44.04982
G1 X94.927 Y144.62 E44.05552
G1 X95.454 Y144.23 E44.06717
G1 X96.042 Y143.702 E44.08122
G1 X96.701 Y143.003 E44.0983
G1 X97.394 Y142.153 E44.11779
G1 X98.101 Y141.164 E44.1394
G1 X98.826 Y140.02 E44.16348
G1 X99.582 Y138.684 E44.19076
G1 X100.307 Y137.269 E44.21903
G1 X101.036 Y135.691 E44.24993
G1 X101.768 Y133.957 E44.28338
G1 X102.46 Y132.158 E44.31765
G1 X103.164 Y130.157 E44.35535
G1 X103.841 Y128.057 E44.39457
G1 X104.483 Y125.882 E44.43489
G1 X105.118 Y123.538 E44.47805
G1 X105.709 Y121.162 E44.52158
G1 X106.284 Y118.64 E44.56756
G1 X106.826 Y116.044 E44.6147
G1 X107.328 Y113.403 E44.66249
G1 X107.331 Y113.379 E44.66292
G1 X107.8 Y110.654 E44.71207
G1 X107.818 Y110.559 E44.71379
G1 X108.255 Y107.76 E44.76415
G1 X108.669 Y104.813 E44.81705
G1 X109.032 Y101.918 E44.86891
G1 X109.363 Y98.922 E44.92249
G1 X109.379 Y98.799 E44.9247
G1 X109.669 Y95.811 E44.97806
G1 X110.145 Y89.604 E45.08872
G1 X110.156 Y89.474 E45.09104
G1 X110.484 Y83.045 E45.20547
G1 X110.653 Y76.512 E45.32164
G1 X110.661 Y76.036 E45.3301
G1 X110.667 Y75.494 E45.33974
G1 X110.675 Y71.909 E45.40346
G1 X110.716 Y71.289 E45.41451
G1 X110.857 Y70.574 E45.42746
G1 X111.033 Y69.979 E45.43849
G1 X111.293 Y69.395 E45.44986
G1 X111.406 Y69.18 E45.45417
G1 X111.729 Y68.65 E45.46521
M204 S625
M205 X6 Y6
G0 F4285.7 X112.088 Y68.87
M204 S500
M205 X5 Y5
G1 F1200 X112.412 Y68.467 E45.4744
G1 X112.575 Y68.287 E45.47872
G1 X113.002 Y67.875 E45.48926
G1 X113.589 Y67.449 E45.50216
G1 X114.103 Y67.152 E45.51271
G1 X114.767 Y66.883 E45.52544
G1 X115.338 Y66.718 E45.53601
G1 X115.985 Y66.621 E45.54764
G1 X116.504 Y66.59 E45.55688
G1 X131.089 Y66.589 E45.81614
G1 X131.089 Y33.172 E46.41016
G1 X131.129 Y32.58 E46.42071
G1 X131.248 Y31.998 E46.43127
G1 X131.444 Y31.438 E46.44182
G1 X131.714 Y30.909 E46.45237
G1 X132.052 Y30.421 E46.46293
G1 X132.49 Y29.943 E46.47445
G1 X132.935 Y29.551 E46.48499
G1 X133.43 Y29.222 E46.49556
G1 X133.963 Y28.962 E46.5061
G1 X134.527 Y28.777 E46.51665
G1 X135.111 Y28.669 E46.52721
G1 X135.602 Y28.639 E46.53595
G1 X139.356 Y28.623 E46.60268
G1 X139.949 Y28.66 E46.61325
G1 X140.531 Y28.777 E46.6238
G1 X141.092 Y28.971 E46.63435
G1 X141.622 Y29.238 E46.6449
G1 X142.111 Y29.574 E46.65545
G1 X142.605 Y30.025 E46.66734
G1 X142.997 Y30.471 E46.67789
G1 X143.326 Y30.965 E46.68844
G1 X143.586 Y31.499 E46.699
G1 X143.771 Y32.062 E46.70953
G1 X143.879 Y32.646 E46.72009
G1 X143.909 Y33.156 E46.72917
G1 X143.907 Y74.014 E47.45546
G1 X143.857 Y74.676 E47.46726
G1 X143.816 Y74.946 E47.47212
G1 X143.688 Y75.526 E47.48268
G1 X143.484 Y76.08 E47.49317
G1 X143.381 Y76.311 E47.49767
G1 X143.103 Y76.836 E47.50823
G1 X142.788 Y77.28 E47.5179
G1 X142.623 Y77.485 E47.52258
G1 X142.221 Y77.921 E47.53312
G1 X141.807 Y78.268 E47.54273
G1 X141.597 Y78.423 E47.54737
G1 X141.097 Y78.743 E47.55792
G1 X140.558 Y78.992 E47.56847
G1 X140.313 Y79.086 E47.57314
G1 X139.745 Y79.261 E47.5837
G1 X139.055 Y79.374 E47.59613
G1 X138.492 Y79.41 E47.60616
G1 X123.909 Y79.411 E47.86539
G1 X123.909 Y185.011 E49.74253
G1 X123.897 Y185.331 E49.74822
G1 X123.794 Y186.747 E49.77346
G1 X123.705 Y187.364 E49.78454
G1 X123.405 Y188.744 E49.80964
G1 X123.228 Y189.349 E49.82085
G1 X122.723 Y190.702 E49.84652
G1 X122.461 Y191.275 E49.85772
G1 X121.776 Y192.528 E49.88311
G1 X121.437 Y193.055 E49.89424
G1 X120.591 Y194.186 E49.91935
G1 X120.177 Y194.664 E49.93059
G1 X119.159 Y195.681 E49.95617
G1 X118.687 Y196.09 E49.96727
G1 X117.557 Y196.937 E49.99238
G1 X117.024 Y197.28 E50.00364
G1 X115.77 Y197.964 E50.02903
G1 X115.201 Y198.223 E50.04015
G1 X113.852 Y198.727 E50.06575
G1 X113.247 Y198.905 E50.07696
G1 X111.864 Y199.206 E50.10212
G1 X111.246 Y199.295 E50.11322
G1 X109.829 Y199.398 E50.13847
G1 X109.509 Y199.41 E50.14416
G1 X93.624 Y199.41 E50.42653
G1 X93.032 Y199.37 E50.43708
G1 X92.45 Y199.251 E50.44764
G1 X91.89 Y199.055 E50.45819
G1 X91.361 Y198.785 E50.46875
G1 X90.873 Y198.447 E50.4793
G1 X90.383 Y197.995 E50.49115
G1 X89.992 Y197.548 E50.5017
G1 X89.665 Y197.053 E50.51225
G1 X89.408 Y196.518 E50.5228
G1 X89.224 Y195.953 E50.53336
G1 X89.119 Y195.369 E50.54391
G1 X89.091 Y194.877 E50.55267
G1 X89.092 Y153.062 E51.29597
G1 X89.12 Y152.568 E51.30477
G1 X89.219 Y151.69 E51.32047
G1 X89.361 Y150.972 E51.33349
G1 X89.453 Y150.682 E51.33889
G1 X89.745 Y149.863 E51.35435
G1 X89.992 Y149.298 E51.36531
G1 X90.198 Y148.943 E51.37261
G1 X90.668 Y148.21 E51.38809
G1 X90.913 Y147.865 E51.39561
G1 X91.309 Y147.421 E51.40618
G1 X91.93 Y146.813 E51.42163
G1 X92.342 Y146.456 E51.43132
G1 X92.746 Y146.179 E51.44003
G1 X93.49 Y145.727 E51.4555
G1 X93.955 Y145.481 E51.46486
G1 X94.427 Y145.296 E51.47387
G1 X94.826 Y145.165 E51.48133
G1 X95.151 Y144.976 E51.48802
G1 X95.721 Y144.555 E51.50061
G1 X96.339 Y144 E51.51538
G1 X97.009 Y143.288 E51.53276
G1 X97.727 Y142.408 E51.55295
G1 X98.459 Y141.385 E51.57531
G1 X99.188 Y140.233 E51.59954
G1 X99.946 Y138.895 E51.62688
G1 X100.682 Y137.458 E51.65557
G1 X101.428 Y135.843 E51.6872
G1 X102.155 Y134.121 E51.72042
G1 X102.856 Y132.297 E51.75516
G1 X103.569 Y130.269 E51.79337
G1 X104.242 Y128.184 E51.83232
G1 X104.881 Y126.019 E51.87244
G1 X105.52 Y123.658 E51.91592
G1 X106.121 Y121.243 E51.96016
G1 X106.697 Y118.717 E52.00622
G1 X107.246 Y116.085 E52.05401
G1 X107.743 Y113.469 E52.10134
G1 X107.745 Y113.45 E52.10168
G1 X108.234 Y110.615 E52.15282
G1 X108.676 Y107.787 E52.2037
G1 X109.076 Y104.936 E52.25488
G1 X109.457 Y101.899 E52.30929
G1 X109.797 Y98.836 E52.36407
G1 X110.088 Y95.837 E52.41763
G1 X110.564 Y89.64 E52.52811
G1 X110.576 Y89.503 E52.53056
G1 X110.902 Y83.116 E52.64424
G1 X111.073 Y76.523 E52.76148
G1 X111.081 Y76.04 E52.77006
G1 X111.087 Y75.498 E52.7797
G1 X111.095 Y71.91 E52.84348
G1 X111.136 Y71.318 E52.85403
G1 X111.267 Y70.667 E52.86583
G1 X111.437 Y70.099 E52.87637
G1 X111.664 Y69.59 E52.88628
G1 X111.777 Y69.375 E52.8906
G1 X112.088 Y68.87 E52.90114
M204 S625
M205 X6 Y6
G0 F4285.7 X112.446 Y69.091
M204 S500
M205 X5 Y5
G1 F1200 X112.886 Y68.569 E52.91327
G1 X113.294 Y68.178 E52.92332
G1 X113.824 Y67.798 E52.93491
G1 X114.313 Y67.517 E52.94494
G1 X114.911 Y67.278 E52.95638
G1 X115.454 Y67.123 E52.96642
G1 X116.035 Y67.038 E52.97686
G1 X116.504 Y67.01 E52.98521
G1 X131.509 Y67.009 E53.25194
G1 X131.509 Y33.172 E53.85343
G1 X131.549 Y32.609 E53.86346
G1 X131.668 Y32.057 E53.8735
G1 X131.864 Y31.527 E53.88354
G1 X132.132 Y31.031 E53.89356
G1 X132.468 Y30.577 E53.9036
G1 X132.788 Y30.239 E53.91188
G1 X133.213 Y29.867 E53.92192
G1 X133.686 Y29.559 E53.93195
G1 X134.198 Y29.321 E53.94199
G1 X134.739 Y29.158 E53.95203
G1 X135.297 Y29.072 E53.96207
G1 X135.604 Y29.059 E53.96753
G1 X139.358 Y29.043 E54.03426
G1 X139.921 Y29.081 E54.04429
G1 X140.474 Y29.197 E54.05434
G1 X141.004 Y29.391 E54.06437
G1 X141.502 Y29.657 E54.0744
G1 X141.957 Y29.991 E54.08444
G1 X142.309 Y30.323 E54.09304
G1 X142.681 Y30.748 E54.10308
G1 X142.989 Y31.221 E54.11311
G1 X143.227 Y31.733 E54.12315
G1 X143.39 Y32.274 E54.13319
G1 X143.476 Y32.832 E54.14323
G1 X143.489 Y33.156 E54.14899
G1 X143.487 Y74.014 E54.87528
G1 X143.442 Y74.613 E54.88596
G1 X143.401 Y74.883 E54.89082
G1 X143.277 Y75.434 E54.90086
G1 X143.1 Y75.909 E54.90987
G1 X142.997 Y76.14 E54.91436
G1 X142.731 Y76.638 E54.9244
G1 X142.296 Y77.222 E54.93734
G1 X141.912 Y77.635 E54.94737
G1 X141.347 Y78.085 E54.96021
G1 X140.871 Y78.388 E54.97024
G1 X140.407 Y78.6 E54.97931
G1 X140.162 Y78.694 E54.98397
G1 X139.622 Y78.859 E54.99401
G1 X139.001 Y78.957 E55.00518
G1 X138.492 Y78.99 E55.01425
G1 X123.489 Y78.991 E55.28094
G1 X123.489 Y185.011 E57.16555
G1 X123.478 Y185.3 E57.17069
G1 X123.375 Y186.716 E57.19593
G1 X123.295 Y187.275 E57.20597
G1 X122.995 Y188.655 E57.23107
G1 X122.834 Y189.202 E57.24121
G1 X122.329 Y190.555 E57.26688
G1 X122.092 Y191.074 E57.27702
G1 X121.407 Y192.327 E57.30241
G1 X121.101 Y192.803 E57.31247
G1 X120.255 Y193.934 E57.33757
G1 X119.88 Y194.367 E57.34775
G1 X118.862 Y195.384 E57.37333
G1 X118.435 Y195.754 E57.38338
G1 X117.305 Y196.601 E57.40848
G1 X116.823 Y196.911 E57.41867
G1 X115.569 Y197.595 E57.44406
G1 X115.054 Y197.83 E57.45412
G1 X113.705 Y198.334 E57.47972
G1 X113.158 Y198.495 E57.48986
G1 X111.775 Y198.796 E57.51502
G1 X111.215 Y198.877 E57.52507
G1 X109.798 Y198.98 E57.55033
G1 X109.509 Y198.99 E57.55547
G1 X93.624 Y198.99 E57.83784
G1 X93.061 Y198.95 E57.84787
G1 X92.509 Y198.831 E57.85791
G1 X91.979 Y198.635 E57.86796
G1 X91.483 Y198.367 E57.87798
G1 X91.029 Y198.031 E57.88802
G1 X90.68 Y197.698 E57.89659
G1 X90.31 Y197.272 E57.90662
G1 X90.004 Y196.797 E57.91667
G1 X89.767 Y196.284 E57.92671
G1 X89.606 Y195.743 E57.93675
G1 X89.523 Y195.185 E57.94677
G1 X89.511 Y194.877 E57.95225
G1 X89.512 Y153.062 E58.69556
G1 X89.537 Y152.615 E58.70351
G1 X89.636 Y151.737 E58.71922
G1 X89.765 Y151.088 E58.73098
G1 X89.849 Y150.823 E58.73592
G1 X90.141 Y150.004 E58.75138
G1 X90.365 Y149.493 E58.7613
G1 X90.551 Y149.169 E58.76794
G1 X91.021 Y148.436 E58.78342
G1 X91.244 Y148.122 E58.79026
G1 X91.603 Y147.721 E58.79983
G1 X92.224 Y147.113 E58.81528
G1 X92.618 Y146.774 E58.82452
G1 X92.964 Y146.538 E58.83196
G1 X93.708 Y146.086 E58.84744
G1 X94.151 Y145.854 E58.85633
G1 X94.998 Y145.55 E58.87232
G1 X95.386 Y145.325 E58.8803
G1 X95.982 Y144.885 E58.89347
G1 X96.635 Y144.298 E58.90907
G1 X97.331 Y143.56 E58.92711
G1 X98.061 Y142.664 E58.94765
G1 X98.798 Y141.633 E58.97018
G1 X99.547 Y140.451 E58.99505
G1 X100.32 Y139.087 E59.02292
G1 X101.067 Y137.628 E59.05206
G1 X101.804 Y136.031 E59.08333
G1 X102.546 Y134.274 E59.11723
G1 X103.252 Y132.437 E59.15221
G1 X103.959 Y130.428 E59.19007
G1 X104.641 Y128.311 E59.22961
G1 X105.307 Y126.056 E59.2714
G1 X105.924 Y123.779 E59.31334
G1 X106.531 Y121.336 E59.35809
G1 X107.102 Y118.833 E59.40372
G1 X107.649 Y116.208 E59.45139
G1 X108.159 Y113.521 E59.5
G1 X108.628 Y110.796 E59.54915
G1 X108.646 Y110.699 E59.55091
G1 X109.091 Y107.852 E59.60213
G1 X109.494 Y104.978 E59.65372
G1 X109.874 Y101.951 E59.70795
G1 X110.208 Y98.93 E59.76198
G1 X110.215 Y98.875 E59.76296
G1 X110.508 Y95.858 E59.81685
G1 X110.994 Y89.528 E59.9297
G1 X111.322 Y83.109 E60.04395
G1 X111.493 Y76.534 E60.16087
G1 X111.501 Y76.045 E60.16956
G1 X111.507 Y75.503 E60.1792
G1 X111.515 Y71.911 E60.24305
G1 X111.556 Y71.348 E60.25308
G1 X111.677 Y70.76 E60.26375
G1 X111.84 Y70.22 E60.27378
G1 X112.149 Y69.571 E60.28656
G1 X112.446 Y69.091 E60.29659
M204 S625
M205 X6 Y6
G0 F4285.7 X112.804 Y69.313
M204 S500
M205 X5 Y5
G1 F1200 X113.198 Y68.851 E60.30739
G1 X113.585 Y68.483 E60.31688
G1 X114.058 Y68.146 E60.3272
G1 X114.522 Y67.883 E60.33668
G1 X115.055 Y67.672 E60.34687
G1 X115.569 Y67.528 E60.35636
G1 X116.084 Y67.455 E60.36561
G1 X116.504 Y67.43 E60.37309
G1 X131.929 Y67.429 E60.64728
G1 X131.929 Y33.172 E61.25623
G1 X131.969 Y32.639 E61.26573
G1 X132.088 Y32.119 E61.27522
G1 X132.283 Y31.622 E61.28471
G1 X132.55 Y31.159 E61.29421
G1 X132.964 Y30.658 E61.30576
G1 X133.086 Y30.535 E61.30884
G1 X133.49 Y30.185 E61.31834
G1 X133.941 Y29.899 E61.32784
G1 X134.429 Y29.684 E61.33731
G1 X134.945 Y29.544 E61.34682
G1 X135.606 Y29.479 E61.35863
G1 X139.36 Y29.463 E61.42536
G1 X139.892 Y29.501 E61.43484
G1 X140.414 Y29.617 E61.44434
G1 X140.912 Y29.811 E61.45384
G1 X141.375 Y30.076 E61.46333
G1 X141.889 Y30.498 E61.47515
G1 X142.013 Y30.621 E61.47825
G1 X142.363 Y31.025 E61.48775
G1 X142.649 Y31.476 E61.49725
G1 X142.864 Y31.965 E61.50674
G1 X143.004 Y32.48 E61.51623
G1 X143.069 Y33.156 E61.5283
G1 X143.067 Y74.014 E62.25459
G1 X143.027 Y74.55 E62.26415
G1 X142.986 Y74.82 E62.269
G1 X142.866 Y75.34 E62.27849
G1 X142.614 Y75.969 E62.29053
G1 X142.36 Y76.439 E62.30003
G1 X141.969 Y76.958 E62.31158
G1 X141.604 Y77.348 E62.32108
G1 X141.098 Y77.747 E62.33253
G1 X140.646 Y78.031 E62.34202
G1 X140.012 Y78.302 E62.35428
G1 X139.5 Y78.456 E62.36378
G1 X138.947 Y78.541 E62.37373
G1 X138.492 Y78.57 E62.38183
G1 X123.069 Y78.571 E62.65599
G1 X123.069 Y185.011 E64.54806
G1 X123.06 Y185.27 E64.55267
G1 X122.957 Y186.686 E64.57791
G1 X122.885 Y187.185 E64.58687
G1 X122.585 Y188.565 E64.61197
G1 X122.441 Y189.055 E64.62105
G1 X121.936 Y190.408 E64.64672
G1 X121.723 Y190.872 E64.6558
G1 X121.038 Y192.125 E64.68118
G1 X120.765 Y192.551 E64.69018
G1 X119.919 Y193.682 E64.71529
G1 X119.583 Y194.07 E64.72441
G1 X118.565 Y195.087 E64.74999
G1 X118.183 Y195.418 E64.75897
G1 X117.053 Y196.265 E64.78408
G1 X116.622 Y196.542 E64.79318
G1 X115.368 Y197.226 E64.81857
G1 X114.907 Y197.436 E64.82758
G1 X113.558 Y197.94 E64.85318
G1 X113.068 Y198.084 E64.86226
G1 X111.685 Y198.385 E64.88742
G1 X111.185 Y198.458 E64.8964
G1 X109.768 Y198.561 E64.92165
G1 X109.509 Y198.57 E64.92626
G1 X93.624 Y198.57 E65.20863
G1 X93.091 Y198.53 E65.21813
G1 X92.571 Y198.411 E65.22762
G1 X92.074 Y198.216 E65.23711
G1 X91.611 Y197.949 E65.24661
G1 X91.1 Y197.524 E65.25842
G1 X90.977 Y197.401 E65.26151
G1 X90.628 Y196.997 E65.271
G1 X90.344 Y196.544 E65.28051
G1 X90.131 Y196.055 E65.28999
G1 X89.993 Y195.539 E65.29948
G1 X89.931 Y194.877 E65.3113
G1 X89.932 Y153.062 E66.05461
G1 X89.954 Y152.662 E66.06173
G1 X90.053 Y151.784 E66.07743
G1 X90.168 Y151.203 E66.08796
G1 X90.244 Y150.964 E66.09242
G1 X90.536 Y150.145 E66.10788
G1 X90.737 Y149.687 E66.11677
G1 X90.905 Y149.396 E66.12274
G1 X91.375 Y148.663 E66.13822
G1 X91.896 Y148.021 E66.15291
G1 X92.517 Y147.413 E66.16836
G1 X93.182 Y146.897 E66.18333
G1 X93.926 Y146.445 E66.1988
G1 X94.689 Y146.094 E66.21373
G1 X95.171 Y145.936 E66.22275
G1 X95.615 Y145.678 E66.23187
G1 X96.257 Y145.204 E66.24606
G1 X96.925 Y144.603 E66.26203
G1 X97.639 Y143.846 E66.28053
G1 X98.394 Y142.919 E66.30178
G1 X99.157 Y141.853 E66.32509
G1 X99.909 Y140.664 E66.35009
G1 X100.678 Y139.307 E66.37782
G1 X101.446 Y137.808 E66.40776
G1 X102.191 Y136.195 E66.43934
G1 X102.937 Y134.427 E66.47345
G1 X103.643 Y132.593 E66.50839
G1 X104.364 Y130.541 E66.54705
G1 X105.042 Y128.438 E66.58633
G1 X105.696 Y126.222 E66.6274
G1 X106.332 Y123.876 E66.67061
G1 X106.937 Y121.44 E66.71522
G1 X107.522 Y118.876 E66.76197
G1 X108.068 Y116.257 E66.80953
G1 X108.57 Y113.614 E66.85735
G1 X109.054 Y110.8 E66.90811
G1 X109.063 Y110.755 E66.90892
G1 X109.506 Y107.917 E66.95998
G1 X109.917 Y104.988 E67.01256
G1 X110.291 Y102.004 E67.06602
G1 X110.625 Y98.985 E67.12001
G1 X110.631 Y98.941 E67.1208
G1 X110.923 Y95.932 E67.17454
G1 X111.401 Y89.71 E67.28547
G1 X111.414 Y89.555 E67.28823
G1 X111.742 Y83.14 E67.40241
G1 X111.912 Y76.545 E67.51968
G1 X111.921 Y76.049 E67.5285
G1 X111.927 Y75.507 E67.53814
G1 X111.935 Y71.912 E67.60204
G1 X112.023 Y71.131 E67.61601
G1 X112.086 Y70.853 E67.62108
G1 X112.243 Y70.342 E67.63058
G1 X112.521 Y69.766 E67.64195
G1 X112.804 Y69.313 E67.65145
M204 S625
M205 X6 Y6
G0 F4285.7 X113.161 Y69.537
M204 S500
M205 X5 Y5
G1 F1200 X113.509 Y69.133 E67.66093
G1 X113.874 Y68.789 E67.66984
G1 X114.292 Y68.495 E67.67893
G1 X114.729 Y68.249 E67.68784
G1 X115.198 Y68.067 E67.69678
G1 X115.906 Y67.899 E67.70972
G1 X116.504 Y67.85 E67.72038
G1 X132.349 Y67.849 E68.00204
G1 X132.349 Y33.172 E68.61846
G1 X132.389 Y32.672 E68.62738
G1 X132.508 Y32.185 E68.63629
G1 X132.702 Y31.722 E68.64521
G1 X132.968 Y31.297 E68.65413
G1 X133.385 Y30.831 E68.66524
G1 X133.765 Y30.504 E68.67415
G1 X134.193 Y30.242 E68.68307
G1 X134.656 Y30.05 E68.69198
G1 X135.144 Y29.935 E68.7009
G1 X135.608 Y29.899 E68.70917
G1 X139.362 Y29.883 E68.7759
G1 X139.862 Y29.921 E68.78481
G1 X140.35 Y30.038 E68.79373
G1 X140.813 Y30.23 E68.80264
G1 X141.239 Y30.494 E68.81155
G1 X141.717 Y30.92 E68.82293
G1 X142.044 Y31.3 E68.83185
G1 X142.307 Y31.728 E68.84078
G1 X142.498 Y32.191 E68.84968
G1 X142.613 Y32.68 E68.85861
G1 X142.649 Y33.156 E68.86709
G1 X142.647 Y74.014 E69.59338
G1 X142.57 Y74.757 E69.60666
G1 X142.456 Y75.245 E69.61557
G1 X142.23 Y75.798 E69.62619
G1 X141.99 Y76.238 E69.6351
G1 X141.642 Y76.695 E69.64531
G1 X141.297 Y77.06 E69.65424
G1 X140.849 Y77.409 E69.66433
G1 X140.423 Y77.674 E69.67325
G1 X139.861 Y77.91 E69.68409
G1 X139.135 Y78.093 E69.6974
G1 X138.492 Y78.15 E69.70887
G1 X122.649 Y78.151 E69.9905
G1 X122.649 Y185.011 E71.89004
G1 X122.641 Y185.24 E71.89411
G1 X122.538 Y186.656 E71.91935
G1 X122.474 Y187.096 E71.92725
G1 X122.174 Y188.476 E71.95235
G1 X122.047 Y188.908 E71.96036
G1 X121.542 Y190.261 E71.98603
G1 X121.355 Y190.671 E71.99404
G1 X120.67 Y191.924 E72.01942
G1 X120.428 Y192.3 E72.02737
G1 X119.582 Y193.431 E72.05248
G1 X119.286 Y193.772 E72.06051
G1 X118.268 Y194.789 E72.08609
G1 X117.931 Y195.082 E72.09402
G1 X116.801 Y195.929 E72.11913
G1 X116.42 Y196.173 E72.12717
G1 X115.166 Y196.857 E72.15256
G1 X114.76 Y197.043 E72.1605
G1 X113.411 Y197.547 E72.1861
G1 X112.979 Y197.674 E72.1941
G1 X111.596 Y197.975 E72.21926
G1 X111.154 Y198.039 E72.2272
G1 X109.737 Y198.142 E72.25246
G1 X109.509 Y198.15 E72.25651
G1 X93.624 Y198.15 E72.53888
G1 X93.124 Y198.11 E72.5478
G1 X92.637 Y197.991 E72.55671
G1 X92.174 Y197.797 E72.56563
G1 X91.749 Y197.531 E72.57455
G1 X91.274 Y197.104 E72.5859
G1 X90.948 Y196.723 E72.59481
G1 X90.688 Y196.294 E72.60373
G1 X90.498 Y195.829 E72.61266
G1 X90.385 Y195.341 E72.62156
G1 X90.351 Y194.877 E72.62983
G1 X90.352 Y153.062 E73.37314
G1 X90.372 Y152.709 E73.37942
G1 X90.471 Y151.831 E73.39513
G1 X90.572 Y151.319 E73.4044
G1 X90.64 Y151.105 E73.4084
G1 X90.932 Y150.286 E73.42385
G1 X91.258 Y149.623 E73.43699
G1 X91.728 Y148.89 E73.45246
G1 X92.19 Y148.321 E73.46549
G1 X92.811 Y147.713 E73.48094
G1 X93.4 Y147.256 E73.49419
G1 X94.144 Y146.804 E73.50967
G1 X94.82 Y146.493 E73.5229
G1 X95.343 Y146.321 E73.53268
G1 X95.846 Y146.029 E73.54302
G1 X96.517 Y145.533 E73.55785
G1 X97.221 Y144.901 E73.57467
G1 X97.961 Y144.116 E73.59385
G1 X98.728 Y143.174 E73.61544
G1 X99.507 Y142.085 E73.63924
G1 X100.262 Y140.892 E73.66434
G1 X101.052 Y139.499 E73.69281
G1 X101.821 Y137.997 E73.7228
G1 X102.583 Y136.347 E73.75511
G1 X103.324 Y134.591 E73.78899
G1 X104.042 Y132.726 E73.82451
G1 X104.759 Y130.687 E73.86293
G1 X105.442 Y128.566 E73.90254
G1 X106.106 Y126.318 E73.94421
G1 X106.735 Y123.997 E73.98696
G1 X107.354 Y121.506 E74.03258
G1 X107.919 Y119.027 E74.07778
G1 X108.473 Y116.372 E74.12599
G1 X108.987 Y113.664 E74.17499
G1 X109.466 Y110.879 E74.22522
G1 X109.479 Y110.812 E74.22643
G1 X109.921 Y107.982 E74.27735
G1 X110.326 Y105.093 E74.32921
G1 X110.707 Y102.056 E74.38362
G1 X111.041 Y99.04 E74.43756
G1 X111.049 Y98.977 E74.43868
G1 X111.342 Y95.958 E74.4926
G1 X111.819 Y89.746 E74.60335
G1 X111.833 Y89.584 E74.60624
G1 X112.162 Y83.132 E74.72108
G1 X112.332 Y76.556 E74.83802
G1 X112.341 Y76.054 E74.84694
G1 X112.347 Y75.512 E74.85658
G1 X112.355 Y71.913 E74.92055
G1 X112.433 Y71.224 E74.93288
G1 X112.496 Y70.946 E74.93794
G1 X112.645 Y70.467 E74.94686
G1 X112.893 Y69.962 E74.95686
G1 X113.161 Y69.537 E74.96579
M204 S625
M205 X6 Y6
G0 F4285.7 X113.264 Y70.157
M204 S500
M205 X5 Y5
G1 F1200 X113.657 Y69.595 E74.97798
G1 X113.82 Y69.415 E74.9823
G1 X114.322 Y68.981 E74.9941
G1 X114.526 Y68.844 E74.99847
G1 X115.114 Y68.545 E75.01019
G1 X115.342 Y68.462 E75.0145
G1 X115.955 Y68.316 E75.02571
G1 X116.504 Y68.27 E75.0355
G1 X132.769 Y68.269 E75.32463
G1 X132.769 Y33.172 E75.94851
G1 X132.809 Y32.707 E75.95681
G1 X132.928 Y32.255 E75.96511
G1 X133.121 Y31.83 E75.97341
G1 X133.561 Y31.249 E75.98637
G1 X134.039 Y30.824 E75.99774
G1 X134.441 Y30.587 E76.00603
G1 X134.878 Y30.422 E76.01433
G1 X135.609 Y30.319 E76.02746
G1 X139.363 Y30.303 E76.09419
G1 X139.829 Y30.341 E76.1025
G1 X140.281 Y30.458 E76.1108
G1 X140.706 Y30.65 E76.11909
G1 X141.298 Y31.095 E76.13225
G1 X141.724 Y31.574 E76.14365
G1 X141.961 Y31.976 E76.15194
G1 X142.126 Y32.413 E76.16025
G1 X142.229 Y33.156 E76.17358
G1 X142.227 Y74.014 E76.89987
G1 X142.155 Y74.694 E76.91203
G1 X141.949 Y75.396 E76.92503
G1 X141.62 Y76.035 E76.93781
G1 X141.315 Y76.432 E76.94671
G1 X140.809 Y76.916 E76.95916
G1 X140.201 Y77.316 E76.97209
G1 X139.711 Y77.518 E76.98151
G1 X139.081 Y77.677 E76.99306
G1 X138.492 Y77.73 E77.00358
G1 X122.229 Y77.731 E77.29267
G1 X122.229 Y185.011 E79.19967
G1 X122.222 Y185.209 E79.2032
G1 X122.119 Y186.625 E79.22843
G1 X122.064 Y187.007 E79.23529
G1 X121.764 Y188.387 E79.2604
G1 X121.654 Y188.762 E79.26734
G1 X121.149 Y190.115 E79.29302
G1 X120.986 Y190.47 E79.29996
G1 X120.301 Y191.723 E79.32534
G1 X120.092 Y192.048 E79.33221
G1 X119.246 Y193.179 E79.35732
G1 X118.989 Y193.475 E79.36429
G1 X117.971 Y194.492 E79.38987
G1 X117.679 Y194.745 E79.39673
G1 X116.549 Y195.592 E79.42184
G1 X116.219 Y195.805 E79.42882
G1 X114.965 Y196.489 E79.45421
G1 X114.613 Y196.649 E79.46108
G1 X113.264 Y197.153 E79.48668
G1 X112.89 Y197.264 E79.49362
G1 X111.507 Y197.565 E79.51878
G1 X111.124 Y197.62 E79.52565
G1 X109.707 Y197.723 E79.55091
G1 X109.509 Y197.73 E79.55443
G1 X93.624 Y197.73 E79.8368
G1 X93.159 Y197.69 E79.8451
G1 X92.707 Y197.571 E79.85341
G1 X92.282 Y197.378 E79.86171
G1 X91.694 Y196.93 E79.87485
G1 X91.27 Y196.45 E79.88623
G1 X91.034 Y196.047 E79.89453
G1 X90.871 Y195.61 E79.90282
G1 X90.771 Y194.877 E79.91597
G1 X90.772 Y153.062 E80.65928
G1 X90.789 Y152.756 E80.66472
G1 X90.888 Y151.878 E80.68043
G1 X91.036 Y151.246 E80.69197
G1 X91.328 Y150.427 E80.70742
G1 X91.612 Y149.849 E80.71887
G1 X92.082 Y149.116 E80.73435
G1 X92.484 Y148.621 E80.74569
G1 X93.105 Y148.013 E80.76113
G1 X93.619 Y147.615 E80.77269
G1 X94.363 Y147.163 E80.78817
G1 X94.951 Y146.892 E80.79967
G1 X95.516 Y146.707 E80.81024
G1 X96.081 Y146.378 E80.82186
G1 X96.785 Y145.858 E80.83742
G1 X97.511 Y145.205 E80.85478
G1 X98.282 Y144.388 E80.87475
G1 X99.062 Y143.431 E80.89669
G1 X99.852 Y142.326 E80.92084
G1 X100.625 Y141.105 E80.94653
G1 X101.421 Y139.7 E80.97523
G1 X102.201 Y138.177 E81.00565
G1 X102.959 Y136.535 E81.0378
G1 X103.711 Y134.754 E81.07216
G1 X104.439 Y132.863 E81.10818
G1 X105.16 Y130.812 E81.14683
G1 X105.843 Y128.693 E81.18641
G1 X106.504 Y126.455 E81.22789
G1 X107.153 Y124.058 E81.27203
G1 X107.749 Y121.659 E81.31597
G1 X108.341 Y119.063 E81.3633
G1 X108.881 Y116.475 E81.4103
G1 X109.401 Y113.735 E81.45987
G1 X109.879 Y110.958 E81.50996
G1 X109.891 Y110.896 E81.51108
G1 X110.336 Y108.047 E81.56234
G1 X110.743 Y105.145 E81.61443
G1 X111.124 Y102.108 E81.66884
G1 X111.458 Y99.095 E81.72273
G1 X111.465 Y99.045 E81.72363
G1 X111.762 Y95.979 E81.77838
G1 X112.238 Y89.781 E81.88888
G1 X112.253 Y89.608 E81.89197
G1 X112.581 Y83.166 E82.00663
G1 X112.751 Y76.587 E82.12362
G1 X112.761 Y76.039 E82.13336
G1 X112.767 Y75.517 E82.14264
G1 X112.775 Y71.914 E82.20669
G1 X112.843 Y71.317 E82.21737
G1 X113.047 Y70.594 E82.23072
G1 X113.264 Y70.157 E82.2394
M204 S625
M205 X6 Y6
G0 F4285.7 X113.636 Y70.352
M204 S500
M205 X5 Y5
G1 F1200 X113.969 Y69.876 E82.24972
G1 X114.132 Y69.696 E82.25404
G1 X114.556 Y69.329 E82.26401
G1 X114.76 Y69.192 E82.26837
G1 X115.258 Y68.939 E82.2783
G1 X115.486 Y68.856 E82.28262
G1 X116.004 Y68.733 E82.29208
G1 X116.504 Y68.69 E82.301
G1 X133.189 Y68.689 E82.59759
G1 X133.189 Y33.172 E83.22894
G1 X133.229 Y32.744 E83.23658
G1 X133.347 Y32.332 E83.2442
G1 X133.54 Y31.948 E83.25184
G1 X133.859 Y31.545 E83.26098
G1 X134.31 Y31.147 E83.27167
G1 X134.685 Y30.937 E83.27931
G1 X135.092 Y30.8 E83.28695
G1 X135.611 Y30.739 E83.29623
G1 X139.365 Y30.723 E83.36297
G1 X139.793 Y30.761 E83.3706
G1 X140.206 Y30.878 E83.37823
G1 X140.591 Y31.069 E83.38587
G1 X141.002 Y31.393 E83.39518
G1 X141.401 Y31.845 E83.40589
G1 X141.611 Y32.22 E83.41353
G1 X141.748 Y32.627 E83.42117
G1 X141.809 Y33.156 E83.43063
G1 X141.807 Y74.014 E84.15693
G1 X141.74 Y74.631 E84.16796
G1 X141.566 Y75.225 E84.17896
G1 X141.463 Y75.456 E84.18346
G1 X141.153 Y75.963 E84.19402
G1 X140.988 Y76.168 E84.1987
G1 X140.56 Y76.579 E84.20925
G1 X140.35 Y76.734 E84.21388
G1 X139.805 Y77.032 E84.22493
G1 X139.56 Y77.126 E84.22959
G1 X139.028 Y77.26 E84.23934
G1 X138.492 Y77.31 E84.24891
G1 X121.809 Y77.311 E84.54547
G1 X121.809 Y185.011 E86.45994
G1 X121.803 Y185.179 E86.46293
G1 X121.7 Y186.595 E86.48817
G1 X121.653 Y186.918 E86.49397
G1 X121.353 Y188.298 E86.51907
G1 X121.26 Y188.615 E86.52495
G1 X120.755 Y189.968 E86.55062
G1 X120.618 Y190.268 E86.55648
G1 X119.933 Y191.521 E86.58186
G1 X119.756 Y191.797 E86.58769
G1 X118.91 Y192.928 E86.6128
G1 X118.693 Y193.178 E86.61868
G1 X117.675 Y194.195 E86.64426
G1 X117.427 Y194.409 E86.65009
G1 X116.297 Y195.256 E86.67519
G1 X116.018 Y195.436 E86.68109
G1 X114.764 Y196.12 E86.70648
G1 X114.466 Y196.256 E86.71231
G1 X113.117 Y196.76 E86.7379
G1 X112.8 Y196.853 E86.74378
G1 X111.417 Y197.154 E86.76894
G1 X111.093 Y197.201 E86.77476
G1 X109.676 Y197.304 E86.80001
G1 X109.509 Y197.31 E86.80298
G1 X93.624 Y197.31 E87.08535
G1 X93.196 Y197.27 E87.09299
G1 X92.784 Y197.152 E87.10061
G1 X92.4 Y196.959 E87.10825
G1 X91.991 Y196.633 E87.11755
G1 X91.593 Y196.18 E87.12827
G1 X91.385 Y195.804 E87.13591
G1 X91.25 Y195.397 E87.14353
G1 X91.191 Y194.877 E87.15283
G1 X91.192 Y153.062 E87.89613
G1 X91.207 Y152.803 E87.90075
G1 X91.306 Y151.925 E87.91645
G1 X91.431 Y151.387 E87.92627
G1 X91.723 Y150.568 E87.94173
G1 X91.965 Y150.076 E87.95147
G1 X92.435 Y149.343 E87.96695
G1 X92.778 Y148.921 E87.97662
G1 X93.399 Y148.313 E87.99207
G1 X93.837 Y147.974 E88.00191
G1 X94.581 Y147.522 E88.01739
G1 X95.082 Y147.291 E88.02719
G1 X95.692 Y147.091 E88.03861
G1 X96.303 Y146.736 E88.05117
G1 X97.053 Y146.181 E88.06775
G1 X97.801 Y145.509 E88.08563
G1 X98.596 Y144.666 E88.10622
G1 X99.395 Y143.686 E88.1287
G1 X100.196 Y142.566 E88.15318
G1 X100.992 Y141.309 E88.17962
G1 X101.795 Y139.892 E88.20858
G1 X102.576 Y138.367 E88.23903
G1 X103.346 Y136.698 E88.27171
G1 X104.103 Y134.907 E88.30627
G1 X104.835 Y133.005 E88.3425
G1 X104.837 Y132.994 E88.3427
G1 X105.549 Y130.969 E88.38085
G1 X106.255 Y128.78 E88.42174
G1 X106.904 Y126.582 E88.46248
G1 X107.558 Y124.168 E88.50694
G1 X108.169 Y121.709 E88.55198
G1 X108.751 Y119.156 E88.59852
G1 X109.302 Y116.514 E88.6465
G1 X109.813 Y113.824 E88.69517
G1 X109.814 Y113.806 E88.69549
G1 X110.291 Y111.038 E88.74542
G1 X110.306 Y110.962 E88.7468
G1 X110.745 Y108.147 E88.79744
G1 X111.164 Y105.164 E88.85099
G1 X111.541 Y102.16 E88.9048
G1 X111.874 Y99.15 E88.95864
G1 X111.883 Y99.082 E88.95986
G1 X112.184 Y95.982 E89.01522
G1 X112.656 Y89.816 E89.12515
G1 X112.671 Y89.635 E89.12838
G1 X113.002 Y83.158 E89.24366
G1 X113.171 Y76.595 E89.36036
G1 X113.181 Y76.047 E89.37011
G1 X113.187 Y75.521 E89.37946
G1 X113.195 Y71.915 E89.44356
G1 X113.252 Y71.409 E89.45261
G1 X113.315 Y71.131 E89.45768
G1 X113.523 Y70.567 E89.46836
G1 X113.636 Y70.352 E89.47268
M204 S625
M205 X6 Y6
G0 F4285.7 X114.008 Y70.548
M204 S500
M205 X5 Y5
G1 F1200 X114.443 Y69.978 E89.48543
G1 X114.994 Y69.541 E89.49793
G1 X115.629 Y69.251 E89.51034
G1 X116.282 Y69.123 E89.52216
G1 X116.504 Y69.11 E89.52612
G1 X133.609 Y69.109 E89.83018
G1 X133.609 Y33.172 E90.46899
G1 X133.649 Y32.786 E90.47589
G1 X133.767 Y32.416 E90.48279
G1 X133.958 Y32.078 E90.48969
G1 X134.279 Y31.718 E90.49827
G1 X134.579 Y31.472 E90.50516
G1 X134.924 Y31.292 E90.51208
G1 X135.298 Y31.187 E90.51899
G1 X135.613 Y31.159 E90.52461
G1 X139.367 Y31.143 E90.59134
G1 X139.753 Y31.181 E90.59823
G1 X140.124 Y31.298 E90.60515
G1 X140.463 Y31.487 E90.61205
G1 X140.83 Y31.814 E90.62079
G1 X141.076 Y32.115 E90.6277
G1 X141.256 Y32.459 E90.6346
G1 X141.361 Y32.833 E90.6415
G1 X141.389 Y33.156 E90.64727
G1 X141.387 Y74.014 E91.37356
G1 X141.325 Y74.568 E91.38347
G1 X141.182 Y75.054 E91.39247
G1 X140.825 Y75.7 E91.40559
G1 X140.31 Y76.241 E91.41887
G1 X140.1 Y76.396 E91.42351
G1 X139.655 Y76.64 E91.43253
G1 X138.974 Y76.844 E91.44517
G1 X138.492 Y76.89 E91.45377
G1 X121.389 Y76.891 E91.7578
G1 X121.389 Y185.011 E93.67974
G1 X121.384 Y185.148 E93.68217
G1 X121.281 Y186.564 E93.70741
G1 X121.243 Y186.828 E93.71215
G1 X120.943 Y188.208 E93.73726
G1 X120.867 Y188.468 E93.74207
G1 X120.362 Y189.821 E93.76774
G1 X120.249 Y190.067 E93.77255
G1 X119.564 Y191.32 E93.79794
G1 X119.419 Y191.545 E93.8027
G1 X118.573 Y192.676 E93.8278
G1 X118.396 Y192.881 E93.83262
G1 X117.378 Y193.898 E93.8582
G1 X117.176 Y194.073 E93.86295
G1 X116.046 Y194.92 E93.88805
G1 X115.817 Y195.067 E93.89289
G1 X114.563 Y195.751 E93.91828
G1 X114.319 Y195.862 E93.92304
G1 X112.97 Y196.366 E93.94864
G1 X112.711 Y196.443 E93.95345
G1 X111.328 Y196.744 E93.97861
G1 X111.063 Y196.782 E93.98336
G1 X109.646 Y196.885 E94.00862
G1 X109.509 Y196.89 E94.01106
G1 X93.624 Y196.89 E94.29343
G1 X93.238 Y196.85 E94.30033
G1 X92.868 Y196.732 E94.30723
G1 X92.53 Y196.541 E94.31413
G1 X92.165 Y196.213 E94.32285
G1 X91.92 Y195.912 E94.32975
G1 X91.741 Y195.567 E94.33666
G1 X91.638 Y195.193 E94.34356
G1 X91.611 Y194.877 E94.3492
G1 X91.612 Y153.062 E95.0925
G1 X91.624 Y152.85 E95.09627
G1 X91.723 Y151.972 E95.11198
G1 X91.827 Y151.528 E95.12009
G1 X92.119 Y150.709 E95.13554
G1 X92.319 Y150.303 E95.14359
G1 X92.789 Y149.57 E95.15906
G1 X93.072 Y149.222 E95.16704
G1 X93.693 Y148.614 E95.18249
G1 X94.055 Y148.333 E95.19063
G1 X94.799 Y147.881 E95.20611
G1 X95.213 Y147.69 E95.21421
G1 X95.865 Y147.476 E95.22641
G1 X96.534 Y147.087 E95.24017
G1 X97.319 Y146.507 E95.25752
G1 X98.098 Y145.807 E95.27613
G1 X98.911 Y144.944 E95.29721
G1 X99.729 Y143.941 E95.32022
G1 X100.546 Y142.798 E95.34519
G1 X101.355 Y141.522 E95.37205
G1 X102.164 Y140.093 E95.40124
G1 X102.946 Y138.567 E95.43172
G1 X103.738 Y136.851 E95.46531
G1 X104.49 Y135.071 E95.49966
G1 X105.231 Y133.145 E95.53635
G1 X105.233 Y133.134 E95.53654
G1 X105.951 Y131.094 E95.57499
G1 X106.646 Y128.935 E95.61531
G1 X107.321 Y126.651 E95.65764
G1 X107.957 Y124.303 E95.70088
G1 X108.568 Y121.846 E95.74589
G1 X109.16 Y119.25 E95.79322
G1 X109.706 Y116.633 E95.84074
G1 X110.228 Y113.888 E95.89041
G1 X110.228 Y113.877 E95.89061
G1 X110.704 Y111.117 E95.94039
G1 X110.718 Y111.046 E95.94168
G1 X111.161 Y108.205 E95.99279
G1 X111.581 Y105.222 E96.04634
G1 X111.954 Y102.24 E96.09976
G1 X112.29 Y99.205 E96.15404
G1 X112.301 Y99.121 E96.15555
G1 X112.602 Y96.022 E96.21089
G1 X113.088 Y89.692 E96.32375
G1 X113.422 Y83.16 E96.44001
G1 X113.591 Y76.603 E96.55661
G1 X113.601 Y76.055 E96.56635
G1 X113.607 Y75.526 E96.57575
G1 X113.615 Y71.916 E96.63993
G1 X113.725 Y71.224 E96.65238
G1 X114.008 Y70.548 E96.66541
M204 S625
M205 X6 Y6
G0 F4285.7 X114.38 Y70.743
M204 S500
M205 X5 Y5
G1 F1200 X114.754 Y70.26 E96.67627
G1 X115.228 Y69.89 E96.68696
G1 X115.773 Y69.646 E96.69757
G1 X116.331 Y69.54 E96.70767
G1 X116.504 Y69.53 E96.71075
G1 X134.029 Y69.529 E97.02227
G1 X134.029 Y33.172 E97.66855
G1 X134.069 Y32.832 E97.67464
G1 X134.186 Y32.51 E97.68073
G1 X134.577 Y32.014 E97.69196
G1 X134.845 Y31.8 E97.69805
G1 X135.155 Y31.655 E97.70414
G1 X135.615 Y31.579 E97.71242
G1 X139.369 Y31.563 E97.77915
G1 X139.709 Y31.601 E97.78524
G1 X140.031 Y31.717 E97.79132
G1 X140.534 Y32.112 E97.80269
G1 X140.748 Y32.38 E97.80879
G1 X140.893 Y32.69 E97.81487
G1 X140.969 Y33.156 E97.82326
G1 X140.967 Y74.014 E98.54955
G1 X140.909 Y74.505 E98.55834
G1 X140.696 Y75.114 E98.56981
G1 X140.333 Y75.642 E98.5812
G1 X139.851 Y76.058 E98.59252
G1 X139.26 Y76.341 E98.60417
G1 X138.68 Y76.458 E98.61468
G1 X138.492 Y76.47 E98.61803
G1 X120.969 Y76.471 E98.92952
G1 X120.969 Y185.011 E100.85892
G1 X120.965 Y185.118 E100.86083
G1 X120.862 Y186.534 E100.88607
G1 X120.832 Y186.739 E100.88975
G1 X120.532 Y188.119 E100.91485
G1 X120.473 Y188.321 E100.91859
G1 X119.968 Y189.674 E100.94426
G1 X119.881 Y189.865 E100.948
G1 X119.196 Y191.118 E100.97338
G1 X119.083 Y191.294 E100.9771
G1 X118.237 Y192.425 E101.0022
G1 X118.099 Y192.584 E101.00595
G1 X117.081 Y193.601 E101.03153
G1 X116.924 Y193.737 E101.03522
G1 X115.794 Y194.584 E101.06032
G1 X115.616 Y194.699 E101.06409
G1 X114.362 Y195.383 E101.08948
G1 X114.172 Y195.469 E101.09319
G1 X112.823 Y195.973 E101.11879
G1 X112.622 Y196.032 E101.12251
G1 X111.239 Y196.333 E101.14767
G1 X111.033 Y196.363 E101.15137
G1 X109.616 Y196.466 E101.17662
G1 X109.509 Y196.47 E101.17853
G1 X93.624 Y196.47 E101.4609
G1 X93.284 Y196.43 E101.46699
G1 X92.962 Y196.313 E101.47308
G1 X92.462 Y195.916 E101.48442
G1 X92.249 Y195.648 E101.49051
G1 X92.105 Y195.337 E101.4966
G1 X92.031 Y194.877 E101.50488
G1 X92.032 Y153.062 E102.24819
G1 X92.041 Y152.897 E102.25112
G1 X92.14 Y152.019 E102.26683
G1 X92.222 Y151.669 E102.27322
G1 X92.514 Y150.85 E102.28868
G1 X92.673 Y150.53 E102.29503
G1 X93.143 Y149.797 E102.31051
G1 X93.366 Y149.522 E102.3168
G1 X93.987 Y148.914 E102.33225
G1 X94.273 Y148.692 E102.33868
G1 X95.017 Y148.24 E102.35416
G1 X95.344 Y148.089 E102.36056
G1 X96.037 Y147.862 E102.37352
G1 X96.769 Y147.436 E102.38858
G1 X97.582 Y146.836 E102.40654
G1 X98.393 Y146.106 E102.42594
G1 X99.219 Y145.23 E102.44734
G1 X100.068 Y144.189 E102.47122
G1 X100.899 Y143.027 E102.49661
G1 X101.708 Y141.75 E102.52348
G1 X102.537 Y140.285 E102.55341
G1 X103.325 Y138.747 E102.58413
G1 X104.125 Y137.015 E102.61804
G1 X104.881 Y135.224 E102.6526
G1 X105.626 Y133.287 E102.68949
G1 X105.629 Y133.273 E102.68974
G1 X106.357 Y131.204 E102.72873
G1 X107.047 Y129.063 E102.76872
G1 X107.724 Y126.77 E102.81122
G1 X108.361 Y124.417 E102.85455
G1 X108.984 Y121.911 E102.90045
G1 X109.57 Y119.343 E102.94727
G1 X110.124 Y116.686 E102.99552
G1 X110.642 Y113.96 E103.04484
G1 X110.642 Y113.949 E103.04504
G1 X111.116 Y111.196 E103.0947
G1 X111.135 Y111.097 E103.09649
G1 X111.577 Y108.264 E103.14746
G1 X111.996 Y105.281 E103.201
G1 X112.374 Y102.265 E103.25504
G1 X112.707 Y99.26 E103.30878
G1 X112.717 Y99.187 E103.31009
G1 X113.017 Y96.093 E103.36535
G1 X113.493 Y89.887 E103.47599
G1 X113.511 Y89.674 E103.47979
G1 X113.84 Y83.218 E103.5947
G1 X114.011 Y76.599 E103.7124
G1 X114.021 Y76.062 E103.72194
G1 X114.027 Y75.531 E103.73138
G1 X114.035 Y71.917 E103.79563
G1 X114.134 Y71.317 E103.80644
G1 X114.38 Y70.743 E103.81754
M204 S625
M205 X6 Y6
G0 F4285.7 X114.752 Y70.939
M204 S500
M205 X5 Y5
G1 F1200 X115.066 Y70.542 E103.82653
G1 X115.463 Y70.238 E103.83542
G1 X115.917 Y70.04 E103.84423
G1 X116.504 Y69.95 E103.85478
G1 X134.431 Y69.949 E104.17345
G1 X134.449 Y69.93 E104.17392
G1 X134.449 Y33.172 E104.82733
G1 X134.489 Y32.886 E104.83246
G1 X134.605 Y32.621 E104.8376
G1 X134.876 Y32.31 E104.84494
G1 X135.105 Y32.134 E104.85007
G1 X135.374 Y32.028 E104.85521
G1 X135.617 Y31.999 E104.85956
G1 X139.371 Y31.983 E104.92629
G1 X139.657 Y32.022 E104.93142
G1 X139.922 Y32.137 E104.93656
G1 X140.238 Y32.411 E104.94399
G1 X140.414 Y32.64 E104.94913
G1 X140.52 Y32.91 E104.95428
G1 X140.549 Y33.156 E104.95869
G1 X140.547 Y74.014 E105.68498
G1 X140.494 Y74.442 E105.69264
G1 X140.312 Y74.943 E105.70212
G1 X140.006 Y75.378 E105.71157
G1 X139.602 Y75.72 E105.72098
G1 X139.109 Y75.949 E105.73064
G1 X138.492 Y76.05 E105.74176
G1 X120.567 Y76.051 E106.06039
G1 X120.549 Y76.07 E106.06086
G1 X120.549 Y185.011 E107.99739
G1 X120.546 Y185.087 E107.99874
G1 X120.443 Y186.503 E108.02398
G1 X120.422 Y186.65 E108.02662
G1 X120.122 Y188.03 E108.05172
G1 X120.08 Y188.174 E108.05439
G1 X119.575 Y189.527 E108.08006
G1 X119.512 Y189.664 E108.08274
G1 X118.827 Y190.917 E108.10813
G1 X118.747 Y191.042 E108.11076
G1 X117.901 Y192.173 E108.13587
G1 X117.802 Y192.287 E108.13855
G1 X116.784 Y193.304 E108.16413
G1 X116.672 Y193.401 E108.16677
G1 X115.542 Y194.248 E108.19187
G1 X115.415 Y194.33 E108.19456
G1 X114.161 Y195.014 E108.21995
G1 X114.025 Y195.076 E108.22261
G1 X112.676 Y195.58 E108.24821
G1 X112.532 Y195.622 E108.25087
G1 X111.149 Y195.923 E108.27603
G1 X111.002 Y195.944 E108.27867
G1 X109.585 Y196.047 E108.30393
G1 X109.509 Y196.05 E108.30528
G1 X93.624 Y196.05 E108.58765
G1 X93.338 Y196.01 E108.59278
G1 X93.073 Y195.894 E108.59792
G1 X92.759 Y195.619 E108.60534
G1 X92.584 Y195.389 E108.61048
G1 X92.479 Y195.119 E108.61563
G1 X92.451 Y194.877 E108.61996
G1 X92.452 Y153.062 E109.36326
G1 X92.459 Y152.944 E109.36537
G1 X92.558 Y152.066 E109.38107
G1 X92.618 Y151.81 E109.38575
G1 X92.91 Y150.991 E109.4012
G1 X93.026 Y150.756 E109.40586
G1 X93.496 Y150.023 E109.42134
G1 X93.659 Y149.822 E109.42594
G1 X94.28 Y149.214 E109.44139
G1 X94.491 Y149.051 E109.44613
G1 X95.235 Y148.599 E109.4616
G1 X95.475 Y148.488 E109.4663
G1 X96.209 Y148.247 E109.48004
G1 X97.004 Y147.785 E109.49638
G1 X97.843 Y147.165 E109.51492
G1 X98.69 Y146.404 E109.53517
G1 X99.541 Y145.502 E109.55721
G1 X100.396 Y144.452 E109.58128
G1 X101.244 Y143.267 E109.60718
G1 X102.066 Y141.968 E109.63451
G1 X102.9 Y140.496 E109.66458
G1 X103.719 Y138.897 E109.69652
G1 X104.507 Y137.191 E109.72992
G1 X105.268 Y135.388 E109.76471
G1 X106.023 Y133.425 E109.8021
G1 X106.026 Y133.412 E109.80233
G1 X106.754 Y131.343 E109.84132
G1 X107.448 Y129.19 E109.88153
G1 X108.127 Y126.889 E109.92418
G1 X108.769 Y124.519 E109.96783
G1 X109.392 Y122.013 E110.01373
G1 X109.979 Y119.437 E110.06069
G1 X110.531 Y116.79 E110.10876
G1 X111.056 Y114.028 E110.15873
G1 X111.056 Y114.02 E110.15888
G1 X111.529 Y111.275 E110.20839
G1 X111.548 Y111.176 E110.21018
G1 X111.993 Y108.322 E110.26153
G1 X112.412 Y105.339 E110.31507
G1 X112.791 Y102.317 E110.36921
G1 X113.123 Y99.315 E110.4229
G1 X113.135 Y99.223 E110.42455
G1 X113.438 Y96.104 E110.48026
G1 X113.912 Y89.923 E110.59045
G1 X113.927 Y89.744 E110.59365
G1 X114.261 Y83.202 E110.71009
G1 X114.431 Y76.61 E110.82731
G1 X114.441 Y76.07 E110.83691
G1 X114.447 Y75.535 E110.84642
G1 X114.455 Y71.918 E110.91071
G1 X114.544 Y71.41 E110.91988
G1 X114.752 Y70.939 E110.92903
M204 S625
M205 X6 Y6
G0 F4285.7 X115.123 Y71.134
M204 S500
M205 X5 Y5
G1 F1200 X115.377 Y70.824 E110.93616
G1 X115.697 Y70.587 E110.94324
G1 X116.06 Y70.435 E110.95023
G1 X116.504 Y70.37 E110.95821
G1 X134.461 Y70.369 E111.27741
G1 X134.683 Y70.313 E111.28148
G1 X134.814 Y70.179 E111.28481
G1 X134.869 Y69.962 E111.28879
G1 X134.869 Y33.172 E111.94277
G1 X134.909 Y32.952 E111.94675
G1 X135.174 Y32.605 E111.95451
G1 X135.357 Y32.477 E111.95848
G1 X135.618 Y32.419 E111.96323
G1 X139.372 Y32.403 E112.02996
G1 X139.593 Y32.442 E112.03395
G1 X139.943 Y32.709 E112.04177
G1 X140.071 Y32.892 E112.04574
G1 X140.129 Y33.156 E112.05055
G1 X140.127 Y74.014 E112.77684
G1 X140.031 Y74.541 E112.78636
G1 X139.844 Y74.91 E112.79372
G1 X139.562 Y75.227 E112.80126
G1 X139.204 Y75.463 E112.80888
G1 X138.813 Y75.594 E112.81621
G1 X138.492 Y75.63 E112.82195
G1 X120.537 Y75.631 E113.14112
G1 X120.315 Y75.687 E113.14519
G1 X120.184 Y75.821 E113.14852
G1 X120.129 Y76.038 E113.1525
G1 X120.129 Y185.011 E115.0896
G1 X120.127 Y185.057 E115.09042
G1 X120.024 Y186.473 E115.11566
G1 X120.012 Y186.561 E115.11724
G1 X119.712 Y187.941 E115.14234
G1 X119.686 Y188.027 E115.14394
G1 X119.181 Y189.38 E115.16961
G1 X119.144 Y189.462 E115.17121
G1 X118.459 Y190.715 E115.19659
G1 X118.41 Y190.79 E115.19818
G1 X117.564 Y191.921 E115.22329
G1 X117.505 Y191.99 E115.22491
G1 X116.487 Y193.007 E115.25048
G1 X116.42 Y193.065 E115.25206
G1 X115.29 Y193.912 E115.27716
G1 X115.214 Y193.961 E115.27877
G1 X113.96 Y194.645 E115.30416
G1 X113.878 Y194.682 E115.30576
G1 X112.529 Y195.186 E115.33136
G1 X112.443 Y195.212 E115.33296
G1 X111.06 Y195.513 E115.35812
G1 X110.972 Y195.525 E115.35969
G1 X109.555 Y195.628 E115.38495
G1 X109.509 Y195.63 E115.38577
G1 X93.624 Y195.63 E115.66814
G1 X93.404 Y195.59 E115.67211
G1 X93.056 Y195.322 E115.67992
G1 X92.928 Y195.139 E115.68389
G1 X92.871 Y194.877 E115.68866
G1 X92.872 Y153.062 E116.43196
G1 X92.876 Y152.991 E116.43322
G1 X92.975 Y152.113 E116.44893
G1 X93.014 Y151.951 E116.45189
G1 X93.306 Y151.132 E116.46735
G1 X93.38 Y150.983 E116.47031
G1 X93.85 Y150.25 E116.48578
G1 X93.953 Y150.122 E116.48871
G1 X94.574 Y149.514 E116.50415
G1 X94.709 Y149.41 E116.50718
G1 X95.453 Y148.958 E116.52266
G1 X95.606 Y148.887 E116.52566
G1 X96.382 Y148.632 E116.54018
G1 X97.229 Y148.141 E116.55758
G1 X98.116 Y147.484 E116.5772
G1 X98.986 Y146.702 E116.598
G1 X99.856 Y145.78 E116.62053
G1 X100.73 Y144.707 E116.64513
G1 X101.594 Y143.499 E116.67153
G1 X102.429 Y142.181 E116.69926
G1 X103.27 Y140.697 E116.72959
G1 X104.093 Y139.089 E116.7617
G1 X104.888 Y137.367 E116.79541
G1 X105.659 Y135.54 E116.83066
G1 X106.421 Y133.561 E116.86836
G1 X106.422 Y133.552 E116.86852
G1 X107.144 Y131.499 E116.9072
G1 X107.854 Y129.296 E116.94835
G1 X108.53 Y127.008 E116.99076
G1 X109.18 Y124.607 E117.03497
G1 X109.8 Y122.114 E117.08064
G1 X110.386 Y119.541 E117.12755
G1 X110.946 Y116.857 E117.17629
G1 X111.47 Y114.102 E117.22614
G1 X111.47 Y114.091 E117.22633
G1 X111.941 Y111.354 E117.2757
G1 X111.96 Y111.255 E117.27749
G1 X112.409 Y108.38 E117.32922
G1 X112.828 Y105.397 E117.38276
G1 X113.208 Y102.37 E117.43699
G1 X113.539 Y99.37 E117.49065
G1 X113.553 Y99.264 E117.49255
G1 X113.856 Y96.144 E117.54827
G1 X114.33 Y89.958 E117.65855
G1 X114.348 Y89.745 E117.66235
G1 X114.68 Y83.24 E117.77814
G1 X114.851 Y76.621 E117.89583
G1 X114.861 Y76.078 E117.90549
G1 X114.867 Y75.54 E117.91505
G1 X114.875 Y71.919 E117.97942
G1 X114.954 Y71.503 E117.98695
G1 X115.123 Y71.134 E117.99416
M204 S625
M205 X6 Y6
G0 F4285.7 X115.525 Y71.286
M204 S500
M205 X5 Y5
G1 F1200 X115.727 Y71.073 E117.99938
G1 X115.976 Y70.913 E118.00464
G1 X116.251 Y70.818 E118.00981
G1 X116.504 Y70.79 E118.01434
G1 X134.491 Y70.789 E118.33407
G1 X134.713 Y70.758 E118.33806
G1 X134.897 Y70.679 E118.34162
G1 X135.057 Y70.555 E118.34522
G1 X135.184 Y70.386 E118.34897
G1 X135.262 Y70.194 E118.35266
G1 X135.289 Y69.987 E118.35637
G1 X135.289 Y33.172 E119.01079
G1 X135.35 Y33.024 E119.01364
G1 X135.472 Y32.901 E119.01672
G1 X135.62 Y32.839 E119.01957
G1 X139.374 Y32.823 E119.0863
G1 X139.523 Y32.884 E119.08916
G1 X139.647 Y33.007 E119.09227
G1 X139.709 Y33.156 E119.09514
G1 X139.707 Y74.014 E119.82143
G1 X139.648 Y74.37 E119.82784
G1 X139.517 Y74.647 E119.83329
G1 X139.313 Y74.889 E119.83891
G1 X139.053 Y75.071 E119.84456
G1 X138.76 Y75.177 E119.85009
G1 X138.492 Y75.21 E119.85489
G1 X120.507 Y75.211 E120.17459
G1 X120.285 Y75.242 E120.17858
G1 X120.101 Y75.321 E120.18214
G1 X119.941 Y75.445 E120.18574
G1 X119.814 Y75.614 E120.18949
G1 X119.736 Y75.806 E120.19318
G1 X119.709 Y76.013 E120.19689
G1 X119.709 Y185.011 E122.13444
G1 X119.605 Y186.442 E122.15994
G1 X119.601 Y186.472 E122.16048
G1 X119.301 Y187.852 E122.18558
G1 X119.293 Y187.88 E122.1861
G1 X118.788 Y189.233 E122.21177
G1 X118.775 Y189.261 E122.21232
G1 X118.09 Y190.514 E122.2377
G1 X118.074 Y190.539 E122.23823
G1 X117.228 Y191.67 E122.26334
G1 X117.208 Y191.693 E122.26388
G1 X116.19 Y192.71 E122.28946
G1 X116.168 Y192.729 E122.28998
G1 X115.038 Y193.576 E122.31508
G1 X115.013 Y193.592 E122.31561
G1 X113.759 Y194.276 E122.341
G1 X113.731 Y194.289 E122.34155
G1 X112.382 Y194.793 E122.36715
G1 X112.354 Y194.801 E122.36766
G1 X110.971 Y195.102 E122.39282
G1 X110.941 Y195.106 E122.39336
G1 X109.509 Y195.21 E122.41888
G1 X93.624 Y195.21 E122.70125
G1 X93.476 Y195.148 E122.70411
G1 X93.353 Y195.025 E122.7072
G1 X93.291 Y194.877 E122.71005
G1 X93.293 Y153.038 E123.45378
G1 X93.392 Y152.16 E123.46949
G1 X93.409 Y152.092 E123.47073
G1 X93.701 Y151.273 E123.48619
G1 X93.733 Y151.21 E123.48745
G1 X94.214 Y150.461 E123.50327
G1 X94.247 Y150.422 E123.50418
G1 X94.868 Y149.814 E123.51963
G1 X94.927 Y149.769 E123.52094
G1 X95.671 Y149.317 E123.53642
G1 X95.737 Y149.286 E123.53772
G1 X96.554 Y149.018 E123.553
G1 X97.464 Y148.49 E123.5717
G1 X98.384 Y147.809 E123.59205
G1 X99.27 Y147.013 E123.61322
G1 X100.17 Y146.058 E123.63655
G1 X101.07 Y144.954 E123.66187
G1 X101.944 Y143.732 E123.68857
G1 X102.79 Y142.395 E123.7167
G1 X103.642 Y140.891 E123.74742
G1 X104.467 Y139.28 E123.7796
G1 X105.269 Y137.543 E123.81361
G1 X106.054 Y135.685 E123.84946
G1 X106.818 Y133.699 E123.88729
G1 X106.818 Y133.691 E123.88743
G1 X107.546 Y131.622 E123.92642
G1 X108.254 Y129.425 E123.96745
G1 X108.931 Y127.131 E124.00997
G1 X109.585 Y124.717 E124.05442
G1 X110.207 Y122.215 E124.10025
G1 X110.798 Y119.623 E124.14751
G1 X111.358 Y116.943 E124.19618
G1 X111.885 Y114.171 E124.24634
G1 X111.884 Y114.162 E124.2465
G1 X112.354 Y111.433 E124.29572
G1 X112.373 Y111.334 E124.29752
G1 X112.825 Y108.439 E124.3496
G1 X113.244 Y105.456 E124.40315
G1 X113.624 Y102.425 E124.45745
G1 X113.956 Y99.425 E124.5111
G1 X113.97 Y99.319 E124.513
G1 X114.274 Y96.185 E124.56897
G1 X114.749 Y89.993 E124.67937
G1 X114.766 Y89.787 E124.68304
G1 X115.1 Y83.245 E124.79948
G1 X115.271 Y76.632 E124.91707
G1 X115.281 Y76.085 E124.9268
G1 X115.287 Y75.545 E124.9364
G1 X115.295 Y71.92 E125.00084
G1 X115.382 Y71.544 E125.0077
G1 X115.525 Y71.286 E125.01294
M204 S625
M205 X6 Y6
G1 F1500 E118.51294
;MESH:Support body.stl
G0 F4285.7 X116.188 Y71.788
G0 X119.984 Y74.382
G0 X120.175 Y74.833
M204 S500
M205 X5 Y5
;TYPE:WALL-OUTER
G1 F1500 E125.01294
G1 F1200 X119.884 Y74.957 E125.01856
G1 X119.636 Y75.152 E125.02417
G1 X119.446 Y75.404 E125.02978
G1 X119.327 Y75.696 E125.03539
G1 X119.289 Y75.986 E125.04059
G1 X119.289 Y185 E126.97842
G1 X119.189 Y186.391 E127.00321
G1 X118.892 Y187.756 E127.02804
G1 X118.403 Y189.068 E127.05293
G1 X117.734 Y190.292 E127.07772
G1 X116.897 Y191.411 E127.10256
G1 X115.909 Y192.398 E127.12739
G1 X114.791 Y193.236 E127.15222
G1 X113.567 Y193.904 E127.17701
G1 X112.255 Y194.393 E127.2019
G1 X110.89 Y194.69 E127.22673
G1 X109.498 Y194.79 E127.25154
G1 X93.711 Y194.79 E127.53217
G1 X93.711 Y153.079 E128.27362
G1 X93.809 Y152.221 E128.28897
G1 X94.093 Y151.425 E128.304
G1 X94.55 Y150.713 E128.31904
G1 X95.154 Y150.122 E128.33406
G1 X95.88 Y149.682 E128.34915
G1 X96.727 Y149.404 E128.365
G1 X97.694 Y148.842 E128.38488
G1 X98.639 Y148.143 E128.40577
G1 X99.573 Y147.305 E128.42808
G1 X100.492 Y146.331 E128.45188
G1 X101.396 Y145.221 E128.47733
G1 X102.285 Y143.977 E128.50451
G1 X103.156 Y142.603 E128.53343
G1 X104.008 Y141.1 E128.56414
G1 X104.841 Y139.472 E128.59665
G1 X105.651 Y137.72 E128.63096
G1 X106.44 Y135.849 E128.66705
G1 X107.203 Y133.863 E128.70487
G1 X107.942 Y131.762 E128.74446
G1 X108.654 Y129.554 E128.7857
G1 X109.337 Y127.241 E128.82857
G1 X109.991 Y124.827 E128.87303
G1 X110.615 Y122.318 E128.91899
G1 X111.208 Y119.717 E128.96641
G1 X111.768 Y117.029 E129.01522
G1 X112.274 Y114.358 E129.06354
G1 X112.293 Y114.261 E129.0653
G1 X112.766 Y111.512 E129.11488
G1 X112.785 Y111.414 E129.11666
G1 X113.241 Y108.497 E129.16914
G1 X113.66 Y105.514 E129.22269
G1 X114.042 Y102.471 E129.2772
G1 X114.372 Y99.479 E129.33071
G1 X114.386 Y99.374 E129.33259
G1 X114.692 Y96.225 E129.38883
G1 X115.167 Y90.029 E129.4993
G1 X115.186 Y89.809 E129.50322
G1 X115.52 Y83.267 E129.61966
G1 X115.691 Y76.642 E129.73747
G1 X115.701 Y76.093 E129.74723
G1 X115.707 Y75.549 E129.7569
G1 X115.715 Y71.931 E129.82121
G1 X115.76 Y71.727 E129.82493
G1 X115.847 Y71.557 E129.82832
G1 X115.976 Y71.411 E129.83179
G1 X116.134 Y71.302 E129.8352
G1 X116.314 Y71.234 E129.83862
G1 X116.509 Y71.21 E129.84211
G1 X134.523 Y71.209 E130.16233
G1 X134.823 Y71.167 E130.16771
G1 X135.114 Y71.043 E130.17333
G1 X135.362 Y70.848 E130.17894
G1 X135.552 Y70.596 E130.18455
G1 X135.671 Y70.304 E130.19016
G1 X135.709 Y70.014 E130.19536
G1 X135.709 Y33.259 E130.84871
G1 X139.079 Y33.243 E130.90862
G1 X139.289 Y33.243 E130.91235
G1 X139.289 Y33.453 E130.91477
G1 X139.288 Y73.994 E131.63542
G1 X139.258 Y74.212 E131.63934
G1 X139.178 Y74.398 E131.64294
G1 X139.052 Y74.559 E131.64657
G1 X138.886 Y74.685 E131.65027
G1 X138.692 Y74.763 E131.65399
G1 X138.487 Y74.79 E131.65767
G1 X120.475 Y74.791 E131.97785
G1 X120.175 Y74.833 E131.98323
M204 S625
M205 X6 Y6
G0 F4285.7 X119.991 Y74.911
G0 X119.811 Y74.486
G0 X119.801 Y74.46
G0 X119.07 Y75.191
G0 X112.716 Y114.339
G0 X111.628 Y119.808
G0 X110.529 Y124.422
G0 X96.78 Y174.338
G0 X97.265 Y174.401
M204 S500
M205 X5 Y5
G1 F1200 X97.187 Y175 E131.99397
G1 X97.265 Y175.599 E132.00471
G1 X97.497 Y176.156 E132.01543
G1 X97.864 Y176.635 E132.02616
G1 X98.343 Y177.002 E132.03689
G1 X98.9 Y177.233 E132.04761
G1 X99.485 Y177.31 E132.05809
G1 X109.513 Y177.31 E132.23635
G1 X110.097 Y177.233 E132.24682
G1 X110.655 Y177.003 E132.25755
G1 X111.134 Y176.635 E132.26829
G1 X111.5 Y176.156 E132.279
G1 X111.732 Y175.599 E132.28973
G1 X111.811 Y175 E132.30047
G1 X111.732 Y174.401 E132.31121
G1 X111.5 Y173.844 E132.32194
G1 X111.134 Y173.365 E132.33265
G1 X110.655 Y172.997 E132.34339
G1 X110.097 Y172.767 E132.35412
G1 X109.513 Y172.69 E132.36459
G1 X99.485 Y172.69 E132.54285
G1 X98.9 Y172.767 E132.55333
G1 X98.343 Y172.998 E132.56405
G1 X97.864 Y173.365 E132.57478
G1 X97.497 Y173.844 E132.58551
G1 X97.265 Y174.401 E132.59623
M204 S625
M205 X6 Y6
G0 F4285.7 X97.24 Y174.599
G0 X96.885 Y174.299
M204 S500
M205 X5 Y5
;TYPE:WALL-INNER
G1 F1200 X96.794 Y175 E132.607
G1 X96.885 Y175.701 E132.61777
G1 X97.157 Y176.353 E132.62854
G1 X97.586 Y176.913 E132.63929
G1 X98.146 Y177.343 E132.65004
G1 X98.798 Y177.613 E132.6608
G1 X99.459 Y177.7 E132.67095
G1 X109.539 Y177.7 E132.82454
G1 X110.199 Y177.613 E132.83468
G1 X110.852 Y177.344 E132.84544
G1 X111.413 Y176.913 E132.85622
G1 X111.841 Y176.353 E132.86696
G1 X112.112 Y175.701 E132.87772
G1 X112.204 Y175 E132.88849
G1 X112.112 Y174.299 E132.89926
G1 X111.841 Y173.647 E132.91002
G1 X111.413 Y173.087 E132.92076
G1 X110.852 Y172.656 E132.93154
G1 X110.199 Y172.387 E132.9423
G1 X109.539 Y172.3 E132.95244
G1 X99.459 Y172.3 E133.10603
G1 X98.798 Y172.387 E133.11619
G1 X98.146 Y172.657 E133.12694
G1 X97.586 Y173.087 E133.1377
G1 X97.157 Y173.647 E133.14844
G1 X96.885 Y174.299 E133.15921
M204 S625
M205 X6 Y6
G0 F4285.7 X96.534 Y174.205
M204 S500
M205 X5 Y5
G1 F1200 X96.431 Y175 E133.17142
G1 X96.534 Y175.795 E133.18364
G1 X96.843 Y176.535 E133.19586
G1 X97.329 Y177.17 E133.20804
G1 X97.964 Y177.657 E133.22023
G1 X98.704 Y177.964 E133.23244
G1 X99.435 Y178.06 E133.24367
G1 X109.563 Y178.06 E133.39799
G1 X110.293 Y177.964 E133.40921
G1 X111.033 Y177.659 E133.4214
G1 X111.67 Y177.169 E133.43365
G1 X112.155 Y176.534 E133.44582
G1 X112.463 Y175.795 E133.45802
G1 X112.567 Y175 E133.47024
G1 X112.463 Y174.205 E133.48245
G1 X112.155 Y173.466 E133.49465
G1 X111.67 Y172.831 E133.50683
G1 X111.033 Y172.341 E133.51907
G1 X110.293 Y172.036 E133.53127
G1 X109.563 Y171.94 E133.54249
G1 X99.435 Y171.94 E133.6968
G1 X98.704 Y172.036 E133.70803
G1 X97.964 Y172.343 E133.72024
G1 X97.329 Y172.83 E133.73243
G1 X96.843 Y173.465 E133.74462
G1 X96.534 Y174.205 E133.75684
M204 S625
M205 X6 Y6
G0 F4285.7 X110.406 Y124.935
G0 X111.628 Y119.808
G0 X112.716 Y114.339
G0 X118.909 Y75.585
G0 X119.301 Y74.885
G0 X120.044 Y74.358
G0 X120.07 Y74.454
M204 S500
M205 X5 Y5
G1 F1200 X119.684 Y74.618 E133.76323
G1 X119.355 Y74.877 E133.76961
G1 X119.104 Y75.21 E133.77596
G1 X118.947 Y75.595 E133.7823
G1 X118.899 Y75.961 E133.78792
G1 X118.899 Y184.986 E135.44908
G1 X118.802 Y186.336 E135.46971
G1 X118.516 Y187.649 E135.49018
G1 X118.048 Y188.904 E135.51059
G1 X117.406 Y190.079 E135.53099
G1 X116.603 Y191.153 E135.55142
G1 X115.651 Y192.104 E135.57193
G1 X114.578 Y192.908 E135.59235
G1 X113.403 Y193.549 E135.61275
G1 X112.176 Y194.006 E135.6327
G1 X112.148 Y194.017 E135.63316
G1 X110.835 Y194.303 E135.65363
G1 X109.484 Y194.4 E135.67427
G1 X94.101 Y194.4 E135.90865
G1 X94.101 Y153.097 E136.53797
G1 X94.191 Y152.311 E136.55002
G1 X94.445 Y151.599 E136.56154
G1 X94.854 Y150.962 E136.57307
G1 X95.395 Y150.432 E136.58461
G1 X96.043 Y150.039 E136.59616
G1 X96.084 Y150.026 E136.59682
G1 X96.888 Y149.762 E136.60971
G1 X97.909 Y149.168 E136.62771
G1 X98.886 Y148.446 E136.64622
G1 X99.846 Y147.584 E136.66588
G1 X100.785 Y146.588 E136.68673
G1 X101.706 Y145.458 E136.70894
G1 X102.609 Y144.195 E136.7326
G1 X103.491 Y142.804 E136.7577
G1 X104.351 Y141.285 E136.78429
G1 X105.192 Y139.643 E136.8124
G1 X106.008 Y137.878 E136.84203
G1 X106.802 Y135.995 E136.87317
G1 X107.569 Y133.998 E136.90576
G1 X108.312 Y131.887 E136.93986
G1 X109.027 Y129.669 E136.97537
G1 X109.712 Y127.347 E137.01225
G1 X110.368 Y124.925 E137.05048
G1 X110.994 Y122.408 E137.09
G1 X111.589 Y119.8 E137.13076
G1 X112.151 Y117.105 E137.17271
G1 X112.677 Y114.332 E137.21571
G1 X113.149 Y111.586 E137.25816
G1 X113.169 Y111.481 E137.25979
G1 X113.627 Y108.554 E137.30493
G1 X114.047 Y105.565 E137.35092
G1 X114.429 Y102.517 E137.39773
G1 X114.759 Y99.531 E137.4435
G1 X114.773 Y99.419 E137.44522
G1 X115.081 Y96.259 E137.4936
G1 X115.556 Y90.063 E137.58828
G1 X115.575 Y89.836 E137.59175
G1 X115.91 Y83.282 E137.69174
G1 X116.081 Y76.651 E137.79281
G1 X116.091 Y76.099 E137.80122
G1 X116.097 Y75.552 E137.80955
G1 X116.105 Y71.975 E137.86406
G1 X116.13 Y71.859 E137.86586
G1 X116.172 Y71.777 E137.86727
G1 X116.236 Y71.705 E137.86873
G1 X116.314 Y71.651 E137.87018
G1 X116.409 Y71.615 E137.87173
G1 X116.455 Y71.61 E137.87243
G1 X116.505 Y71.604 E137.8732
G1 X116.533 Y71.6 E137.87363
G1 X134.55 Y71.599 E138.14815
G1 X134.928 Y71.546 E138.15396
G1 X135.314 Y71.382 E138.16035
G1 X135.643 Y71.123 E138.16673
G1 X135.894 Y70.79 E138.17309
G1 X136.051 Y70.405 E138.17942
G1 X136.099 Y70.039 E138.18505
G1 X136.099 Y33.647 E138.73954
G1 X138.719 Y33.635 E138.77946
G1 X138.899 Y33.635 E138.7822
G1 X138.899 Y33.815 E138.78397
G1 X138.898 Y73.97 E139.3958
G1 X138.879 Y74.106 E139.39789
G1 X138.84 Y74.198 E139.39941
G1 X138.778 Y74.277 E139.40094
G1 X138.69 Y74.343 E139.40262
G1 X138.594 Y74.382 E139.4042
G1 X138.459 Y74.4 E139.40627
G1 X120.448 Y74.401 E139.6807
G1 X120.07 Y74.454 E139.68651
M204 S625
M205 X6 Y6
G0 F4285.7 X119.973 Y74.104
M204 S500
M205 X5 Y5
G1 F1200 X119.499 Y74.305 E139.69436
G1 X119.096 Y74.623 E139.70218
G1 X118.788 Y75.031 E139.70997
G1 X118.596 Y75.502 E139.71772
G1 X118.539 Y75.937 E139.7244
G1 X118.539 Y184.974 E141.38575
G1 X118.445 Y186.282 E141.40573
G1 X118.169 Y187.551 E141.42552
G1 X117.721 Y188.751 E141.44504
G1 X117.101 Y189.885 E141.46473
G1 X116.33 Y190.917 E141.48436
G1 X115.415 Y191.831 E141.50406
G1 X114.382 Y192.605 E141.52373
G1 X113.253 Y193.221 E141.54332
G1 X112.05 Y193.67 E141.56289
G1 X110.781 Y193.946 E141.58268
G1 X109.472 Y194.04 E141.60267
G1 X94.461 Y194.04 E141.83139
G1 X94.461 Y153.121 E142.45485
G1 X94.544 Y152.391 E142.46605
G1 X94.77 Y151.76 E142.47626
G1 X95.136 Y151.189 E142.48659
G1 X95.616 Y150.719 E142.49683
G1 X96.196 Y150.367 E142.50717
G1 X97.036 Y150.092 E142.52063
G1 X98.107 Y149.469 E142.53951
G1 X99.114 Y148.725 E142.55859
G1 X100.098 Y147.842 E142.57873
G1 X101.056 Y146.826 E142.60001
G1 X101.992 Y145.677 E142.62259
G1 X102.908 Y144.396 E142.64658
G1 X103.8 Y142.989 E142.67197
G1 X104.668 Y141.456 E142.69881
G1 X105.516 Y139.801 E142.72714
G1 X106.337 Y138.024 E142.75697
G1 X107.136 Y136.13 E142.78829
G1 X107.907 Y134.122 E142.82106
G1 X108.653 Y132.002 E142.8553
G1 X109.371 Y129.775 E142.89096
G1 X110.058 Y127.445 E142.92797
G1 X110.716 Y125.016 E142.96631
G1 X111.344 Y122.491 E143.00596
G1 X111.941 Y119.877 E143.04681
G1 X112.504 Y117.175 E143.08886
G1 X113.031 Y114.396 E143.13196
G1 X113.503 Y111.653 E143.17437
G1 X113.524 Y111.543 E143.17608
G1 X113.983 Y108.607 E143.22135
G1 X114.404 Y105.612 E143.26744
G1 X114.787 Y102.559 E143.31432
G1 X115.116 Y99.576 E143.36004
G1 X115.131 Y99.459 E143.36184
G1 X115.44 Y96.29 E143.41035
G1 X115.915 Y90.093 E143.50505
G1 X115.934 Y89.86 E143.50861
G1 X116.27 Y83.296 E143.60876
G1 X116.441 Y76.659 E143.70992
G1 X116.451 Y76.104 E143.71837
G1 X116.457 Y75.554 E143.72675
G1 X116.465 Y72.014 E143.78069
G1 X116.472 Y71.981 E143.78121
G1 X116.481 Y71.973 E143.78139
G1 X116.499 Y71.966 E143.78168
G1 X116.551 Y71.96 E143.78248
G1 X134.575 Y71.959 E144.0571
G1 X135.025 Y71.896 E144.06403
G1 X135.499 Y71.695 E144.07187
G1 X135.902 Y71.377 E144.07969
G1 X136.21 Y70.969 E144.08748
G1 X136.402 Y70.498 E144.09523
G1 X136.459 Y70.063 E144.10192
G1 X136.459 Y34.005 E144.65132
G1 X138.359 Y33.997 E144.68027
G1 X138.539 Y33.997 E144.68301
G1 X138.539 Y34.177 E144.68478
G1 X138.538 Y73.941 E145.29065
G1 X138.529 Y74.009 E145.2917
G1 X138.525 Y74.017 E145.29183
G1 X138.512 Y74.026 E145.29207
G1 X138.501 Y74.031 E145.29226
G1 X138.433 Y74.04 E145.2933
G1 X120.423 Y74.041 E145.56771
G1 X119.973 Y74.104 E145.57464
M204 S625
M205 X6 Y6
G0 F4285.7 X119.871 Y73.735
M204 S500
M205 X5 Y5
;TYPE:SKIN
G1 F1200 X119.303 Y73.975 E145.5856
G1 X118.822 Y74.355 E145.59649
G1 X118.455 Y74.841 E145.60732
G1 X118.226 Y75.404 E145.61812
G1 X118.159 Y75.912 E145.62723
G1 X118.159 Y184.961 E147.56568
G1 X118.068 Y186.229 E147.58828
G1 X117.804 Y187.442 E147.61035
G1 X117.375 Y188.59 E147.63213
G1 X116.779 Y189.681 E147.65423
G1 X116.041 Y190.669 E147.67615
G1 X115.167 Y191.542 E147.69811
G1 X114.178 Y192.283 E147.72008
G1 X113.093 Y192.875 E147.74205
G1 X111.941 Y193.305 E147.76391
G1 X110.728 Y193.569 E147.78598
G1 X109.459 Y193.66 E147.80859
G1 X94.841 Y193.66 E148.06844
G1 X94.841 Y153.146 E148.78862
G1 X94.918 Y152.472 E148.80068
G1 X95.111 Y151.931 E148.81089
G1 X95.432 Y151.432 E148.82143
G1 X95.852 Y151.02 E148.83189
G1 X96.357 Y150.714 E148.84239
G1 X97.192 Y150.44 E148.85801
G1 X98.316 Y149.787 E148.88112
G1 X99.355 Y149.02 E148.90407
G1 X100.364 Y148.114 E148.92818
G1 X101.342 Y147.077 E148.95352
G1 X102.294 Y145.907 E148.98033
G1 X103.223 Y144.609 E149.0087
G1 X104.126 Y143.185 E149.03868
G1 X105.002 Y141.636 E149.07031
G1 X105.858 Y139.968 E149.10364
G1 X106.685 Y138.178 E149.13869
G1 X107.489 Y136.272 E149.17546
G1 X108.264 Y134.253 E149.2139
G1 X109.014 Y132.124 E149.25403
G1 X109.734 Y129.887 E149.2958
G1 X110.423 Y127.548 E149.33915
G1 X111.084 Y125.111 E149.38403
G1 X111.714 Y122.579 E149.43041
G1 X112.312 Y119.958 E149.4782
G1 X112.877 Y117.249 E149.52739
G1 X113.405 Y114.464 E149.57778
G1 X113.877 Y111.724 E149.6272
G1 X113.898 Y111.608 E149.6293
G1 X114.359 Y108.662 E149.6823
G1 X114.78 Y105.662 E149.73616
G1 X115.165 Y102.603 E149.79096
G1 X115.493 Y99.621 E149.84429
G1 X115.509 Y99.501 E149.84644
G1 X115.818 Y96.323 E149.9032
G1 X116.293 Y90.124 E150.01372
G1 X116.314 Y89.885 E150.01798
G1 X116.65 Y83.311 E150.13499
G1 X116.821 Y76.667 E150.25313
G1 X116.831 Y76.11 E150.26304
G1 X116.837 Y75.556 E150.27289
G1 X116.845 Y72.34 E150.33005
G1 X134.602 Y72.339 E150.6457
G1 X135.127 Y72.265 E150.65513
G1 X135.695 Y72.025 E150.66609
G1 X136.176 Y71.645 E150.67698
G1 X136.543 Y71.159 E150.68781
G1 X136.772 Y70.596 E150.69861
G1 X136.839 Y70.088 E150.70772
G1 X136.839 Y34.383 E151.34241
G1 X138.159 Y34.379 E151.36588
G1 X138.158 Y73.66 E152.06414
G1 X120.396 Y73.661 E152.37987
G1 X119.871 Y73.735 E152.3893
M204 S625
M205 X6 Y6
G0 F4285.7 X119.07 Y75.191
G0 X109.588 Y171.56
M204 S500
M205 X5 Y5
G1 F1200 X99.41 Y171.56 E152.57022
G1 X98.605 Y171.666 E152.58465
G1 X97.772 Y172.011 E152.60068
G1 X97.058 Y172.559 E152.61668
G1 X96.511 Y173.273 E152.63267
G1 X96.164 Y174.106 E152.64871
G1 X96.047 Y175 E152.66474
G1 X96.164 Y175.894 E152.68076
G1 X96.511 Y176.727 E152.69681
G1 X97.058 Y177.441 E152.71279
G1 X97.772 Y177.989 E152.72879
G1 X98.605 Y178.334 E152.74482
G1 X99.41 Y178.44 E152.75925
G1 X109.588 Y178.44 E152.94018
G1 X110.392 Y178.334 E152.95459
G1 X111.225 Y177.991 E152.97061
G1 X111.942 Y177.439 E152.98669
G1 X112.487 Y176.726 E153.00264
G1 X112.833 Y175.894 E153.01866
G1 X112.951 Y175 E153.03469
G1 X112.833 Y174.106 E153.05072
G1 X112.487 Y173.274 E153.06674
G1 X111.942 Y172.561 E153.08269
G1 X111.225 Y172.009 E153.09878
G1 X110.392 Y171.666 E153.11479
G1 X109.588 Y171.56 E153.12921
M204 S625
M205 X6 Y6
G0 F4285.7 X111.441 Y173.059
G0 X111.875 Y173.628
G0 X112.15 Y174.289
G0 X112.244 Y175
G0 X112.15 Y175.711
G0 X111.875 Y176.372
G0 X95.508 Y193.513
M204 S500
M205 X5 Y5
G1 F1200 X94.985 Y192.99 E153.14235
M204 S625
M205 X6 Y6
G0 F4285.7 X94.985 Y192.396
M204 S500
M205 X5 Y5
G1 F1200 X96.102 Y193.513 E153.17043
M204 S625
M205 X6 Y6
G0 F4285.7 X96.696 Y193.513
M204 S500
M205 X5 Y5
G1 F1200 X94.985 Y191.802 E153.21345
M204 S625
M205 X6 Y6
G0 F4285.7 X94.985 Y191.208
M204 S500
M205 X5 Y5
G1 F1200 X97.29 Y193.513 E153.27139
M204 S625
M205 X6 Y6
G0 F4285.7 X97.884 Y193.513
M204 S500
M205 X5 Y5
G1 F1200 X94.985 Y190.614 E153.34427
M204 S625
M205 X6 Y6
G0 F4285.7 X94.985 Y190.02
M204 S500
M205 X5 Y5
G1 F1200 X98.478 Y193.513 E153.43208
M204 S625
M205 X6 Y6
G0 F4285.7 X99.072 Y193.513
M204 S500
M205 X5 Y5
G1 F1200 X94.985 Y189.426 E153.53482
M204 S625
M205 X6 Y6
G0 F4285.7 X94.985 Y188.832
M204 S500
M205 X5 Y5
G1 F1200 X99.666 Y193.513 E153.6525
M204 S625
M205 X6 Y6
G0 F4285.7 X100.26 Y193.513
M204 S500
M205 X5 Y5
G1 F1200 X94.985 Y188.238 E153.78511
M204 S625
M205 X6 Y6
G0 F4285.7 X94.985 Y187.644
M204 S500
M205 X5 Y5
G1 F1200 X100.854 Y193.513 E153.93265
M204 S625
M205 X6 Y6
G0 F4285.7 X101.448 Y193.513
M204 S500
M205 X5 Y5
G1 F1200 X94.985 Y187.05 E154.09512
M204 S625
M205 X6 Y6
G0 F4285.7 X94.985 Y186.456
M204 S500
M205 X5 Y5
G1 F1200 X102.042 Y193.513 E154.27253
M204 S625
M205 X6 Y6
G0 F4285.7 X102.636 Y193.513
M204 S500
M205 X5 Y5
G1 F1200 X94.985 Y185.863 E154.46485
M204 S625
M205 X6 Y6
G0 F4285.7 X94.985 Y185.269
M204 S500
M205 X5 Y5
G1 F1200 X103.23 Y193.513 E154.67211
M204 S625
M205 X6 Y6
G0 F4285.7 X103.824 Y193.513
M204 S500
M205 X5 Y5
G1 F1200 X94.985 Y184.675 E154.8943
M204 S625
M205 X6 Y6
G0 F4285.7 X94.985 Y184.081
M204 S500
M205 X5 Y5
G1 F1200 X104.418 Y193.513 E155.13143
M204 S625
M205 X6 Y6
G0 F4285.7 X105.012 Y193.513
M204 S500
M205 X5 Y5
G1 F1200 X94.985 Y183.487 E155.38348
M204 S625
M205 X6 Y6
G0 F4285.7 X94.985 Y182.893
M204 S500
M205 X5 Y5
G1 F1200 X105.606 Y193.513 E155.65047
M204 S625
M205 X6 Y6
G0 F4285.7 X106.2 Y193.513
M204 S500
M205 X5 Y5
G1 F1200 X94.985 Y182.299 E155.9324
M204 S625
M205 X6 Y6
G0 F4285.7 X94.985 Y181.705
M204 S500
M205 X5 Y5
G1 F1200 X106.794 Y193.513 E156.22925
M204 S625
M205 X6 Y6
G0 F4285.7 X107.388 Y193.513
M204 S500
M205 X5 Y5
G1 F1200 X94.985 Y181.111 E156.54104
M204 S625
M205 X6 Y6
G0 F4285.7 X94.985 Y180.517
M204 S500
M205 X5 Y5
G1 F1200 X107.982 Y193.513 E156.86776
M204 S625
M205 X6 Y6
G0 F4285.7 X108.576 Y193.513
M204 S500
M205 X5 Y5
G1 F1200 X94.985 Y179.923 E157.20941
M204 S625
M205 X6 Y6
G0 F4285.7 X94.985 Y179.329
M204 S500
M205 X5 Y5
G1 F1200 X109.17 Y193.513 E157.56599
M204 S625
M205 X6 Y6
G0 F4285.7 X109.743 Y193.493
M204 S500
M205 X5 Y5
G1 F1200 X94.985 Y178.735 E157.93699
M204 S625
M205 X6 Y6
G0 F4285.7 X94.985 Y178.141
M204 S500
M205 X5 Y5
G1 F1200 X110.297 Y193.453 E158.32192
M204 S625
M205 X6 Y6
G0 F4285.7 X110.834 Y193.395
M204 S500
M205 X5 Y5
G1 F1200 X94.985 Y177.547 E158.72034
M204 S625
M205 X6 Y6
G0 F4285.7 X94.985 Y176.953
M204 S500
M205 X5 Y5
G1 F1200 X111.321 Y193.289 E159.13101
M204 S625
M205 X6 Y6
G0 F4285.7 X111.809 Y193.183
M204 S500
M205 X5 Y5
G1 F1200 X94.985 Y176.359 E159.55395
M204 S625
M205 X6 Y6
G0 F4285.7 X94.985 Y175.765
M204 S500
M205 X5 Y5
G1 F1200 X112.252 Y193.032 E159.98802
M204 S625
M205 X6 Y6
G0 F4285.7 X112.685 Y192.871
M204 S500
M205 X5 Y5
G1 F1200 X98.091 Y178.277 E160.3549
M204 S625
M205 X6 Y6
G0 F4285.7 X98.931 Y178.523
M204 S500
M205 X5 Y5
G1 F1200 X113.108 Y192.7 E160.7113
M204 S625
M205 X6 Y6
G0 F4285.7 X113.492 Y192.49
M204 S500
M205 X5 Y5
G1 F1200 X99.586 Y178.584 E161.06088
M204 S625
M205 X6 Y6
G0 F4285.7 X100.18 Y178.584
M204 S500
M205 X5 Y5
G1 F1200 X113.876 Y192.28 E161.40519
M204 S625
M205 X6 Y6
G0 F4285.7 X114.242 Y192.052
M204 S500
M205 X5 Y5
G1 F1200 X100.774 Y178.584 E161.74376
M204 S625
M205 X6 Y6
G0 F4285.7 X101.368 Y178.584
M204 S500
M205 X5 Y5
G1 F1200 X114.581 Y191.797 E162.07592
M204 S625
M205 X6 Y6
G0 F4285.7 X114.921 Y191.543
M204 S500
M205 X5 Y5
G1 F1200 X101.962 Y178.584 E162.4017
M204 S625
M205 X6 Y6
G0 F4285.7 X102.556 Y178.584
M204 S500
M205 X5 Y5
G1 F1200 X115.237 Y191.266 E162.7205
M204 S625
M205 X6 Y6
G0 F4285.7 X115.534 Y190.969
M204 S500
M205 X5 Y5
G1 F1200 X103.15 Y178.584 E163.03183
M204 S625
M205 X6 Y6
G0 F4285.7 X103.744 Y178.584
M204 S500
M205 X5 Y5
G1 F1200 X115.831 Y190.672 E163.3357
M204 S625
M205 X6 Y6
G0 F4285.7 X116.1 Y190.346
M204 S500
M205 X5 Y5
G1 F1200 X104.338 Y178.584 E163.63139
M204 S625
M205 X6 Y6
G0 F4285.7 X104.932 Y178.584
M204 S500
M205 X5 Y5
G1 F1200 X116.354 Y190.006 E163.91852
M204 S625
M205 X6 Y6
G0 F4285.7 X116.608 Y189.666
M204 S500
M205 X5 Y5
G1 F1200 X105.526 Y178.584 E164.19711
M204 S625
M205 X6 Y6
G0 F4285.7 X106.12 Y178.584
M204 S500
M205 X5 Y5
G1 F1200 X116.826 Y189.291 E164.46627
M204 S625
M205 X6 Y6
G0 F4285.7 X117.036 Y188.907
M204 S500
M205 X5 Y5
G1 F1200 X106.714 Y178.584 E164.72576
M204 S625
M205 X6 Y6
G0 F4285.7 X107.308 Y178.584
M204 S500
M205 X5 Y5
G1 F1200 X117.244 Y188.521 E164.97556
M204 S625
M205 X6 Y6
G0 F4285.7 X117.407 Y188.089
M204 S500
M205 X5 Y5
G1 F1200 X107.902 Y178.584 E165.2145
M204 S625
M205 X6 Y6
G0 F4285.7 X108.496 Y178.584
M204 S500
M205 X5 Y5
G1 F1200 X117.569 Y187.657 E165.44259
M204 S625
M205 X6 Y6
G0 F4285.7 X117.708 Y187.202
M204 S500
M205 X5 Y5
G1 F1200 X109.09 Y178.584 E165.65924
M204 S625
M205 X6 Y6
G0 F4285.7 X109.674 Y178.574
M204 S500
M205 X5 Y5
G1 F1200 X117.814 Y186.715 E165.86388
M204 S625
M205 X6 Y6
G0 F4285.7 X117.919 Y186.226
M204 S500
M205 X5 Y5
G1 F1200 X110.199 Y178.505 E166.05797
M204 S625
M205 X6 Y6
G0 F4285.7 X110.665 Y178.377
M204 S500
M205 X5 Y5
G1 F1200 X117.963 Y185.675 E166.24143
M204 S625
M205 X6 Y6
G0 F4285.7 X118.002 Y185.121
M204 S500
M205 X5 Y5
G1 F1200 X111.086 Y178.205 E166.41529
M204 S625
M205 X6 Y6
G0 F4285.7 X111.464 Y177.989
M204 S500
M205 X5 Y5
G1 F1200 X118.014 Y184.538 E166.57994
M204 S625
M205 X6 Y6
G0 F4285.7 X118.014 Y183.944
M204 S500
M205 X5 Y5
G1 F1200 X111.799 Y177.73 E166.73617
M204 S625
M205 X6 Y6
G0 F4285.7 X112.114 Y177.451
M204 S500
M205 X5 Y5
G1 F1200 X118.014 Y183.35 E166.88448
M204 S625
M205 X6 Y6
G0 F4285.7 X118.014 Y182.756
M204 S500
M205 X5 Y5
G1 F1200 X112.371 Y177.113 E167.02634
M204 S625
M205 X6 Y6
G0 F4285.7 X112.623 Y176.772
M204 S500
M205 X5 Y5
G1 F1200 X118.014 Y182.162 E167.16185
M204 S625
M205 X6 Y6
G0 F4285.7 X118.014 Y181.568
M204 S500
M205 X5 Y5
G1 F1200 X112.798 Y176.353 E167.29296
M204 S625
M205 X6 Y6
G0 F4285.7 X112.973 Y175.933
M204 S500
M205 X5 Y5
G1 F1200 X118.014 Y180.974 E167.41969
M204 S625
M205 X6 Y6
G0 F4285.7 X118.014 Y180.38
M204 S500
M205 X5 Y5
G1 F1200 X113.043 Y175.41 E167.54464
M204 S625
M205 X6 Y6
G0 F4285.7 X113.078 Y174.851
M204 S500
M205 X5 Y5
G1 F1200 X118.014 Y179.786 E167.66871
M204 S625
M205 X6 Y6
G0 F4285.7 X118.014 Y179.192
M204 S500
M205 X5 Y5
G1 F1200 X112.987 Y174.166 E167.79507
M204 S625
M205 X6 Y6
G0 F4285.7 X112.603 Y173.188
M204 S500
M205 X5 Y5
G1 F1200 X118.014 Y178.598 E167.93109
M204 S625
M205 X6 Y6
G0 F4285.7 X118.014 Y178.004
M204 S500
M205 X5 Y5
G1 F1200 X94.985 Y154.976 E168.51
M204 S625
M205 X6 Y6
G0 F4285.7 X94.985 Y154.382
M204 S500
M205 X5 Y5
G1 F1200 X118.014 Y177.41 E169.08892
M204 S625
M205 X6 Y6
G0 F4285.7 X118.014 Y176.817
M204 S500
M205 X5 Y5
G1 F1200 X94.985 Y153.788 E169.66784
M204 S625
M205 X6 Y6
G0 F4285.7 X94.985 Y153.194
M204 S500
M205 X5 Y5
G1 F1200 X118.014 Y176.223 E170.24677
M204 S625
M205 X6 Y6
G0 F4285.7 X118.014 Y175.629
M204 S500
M205 X5 Y5
G1 F1200 X95.042 Y152.657 E170.82426
M204 S625
M205 X6 Y6
G0 F4285.7 X95.17 Y152.192
M204 S500
M205 X5 Y5
G1 F1200 X118.014 Y175.035 E171.39853
M204 S625
M205 X6 Y6
G0 F4285.7 X118.014 Y174.441
M204 S500
M205 X5 Y5
G1 F1200 X95.369 Y151.796 E171.9678
M204 S625
M205 X6 Y6
G0 F4285.7 X95.618 Y151.451
M204 S500
M205 X5 Y5
G1 F1200 X118.014 Y173.847 E172.53081
M204 S625
M205 X6 Y6
G0 F4285.7 X118.014 Y173.253
M204 S500
M205 X5 Y5
G1 F1200 X95.918 Y151.157 E173.08629
M204 S625
M205 X6 Y6
G0 F4285.7 X96.283 Y150.928
M204 S500
M205 X5 Y5
G1 F1200 X118.014 Y172.659 E173.63258
M204 S625
M205 X6 Y6
G0 F4285.7 X118.014 Y172.065
M204 S500
M205 X5 Y5
G1 F1200 X96.702 Y150.753 E174.16835
M204 S625
M205 X6 Y6
G0 F4285.7 X97.149 Y150.606
M204 S500
M205 X5 Y5
G1 F1200 X118.014 Y171.471 E174.69287
M204 S625
M205 X6 Y6
G0 F4285.7 X118.014 Y170.877
M204 S500
M205 X5 Y5
G1 F1200 X97.541 Y150.404 E175.20754
M204 S625
M205 X6 Y6
G0 F4285.7 X97.917 Y150.186
M204 S500
M205 X5 Y5
G1 F1200 X118.014 Y170.283 E175.71276
M204 S625
M205 X6 Y6
G0 F4285.7 X118.014 Y169.689
M204 S500
M205 X5 Y5
G1 F1200 X98.292 Y149.968 E176.20854
M204 S625
M205 X6 Y6
G0 F4285.7 X98.643 Y149.724
M204 S500
M205 X5 Y5
G1 F1200 X118.014 Y169.095 E176.69551
M204 S625
M205 X6 Y6
G0 F4285.7 X118.014 Y168.501
M204 S500
M205 X5 Y5
G1 F1200 X98.985 Y149.473 E177.17387
M204 S625
M205 X6 Y6
G0 F4285.7 X99.327 Y149.22
M204 S500
M205 X5 Y5
