;START_OF_HEADER
;HEADER_VERSION:0.1
;FLAVOR:Griffin
;GENERATOR.NAME:Cura_SteamEngine
;GENERATOR.VERSION:4.7.1
;GENERATOR.BUILD_DATE:2020-09-02
;TARGET_MACHINE.NAME:Ultimaker 3
;EXTRUDER_TRAIN.0.INITIAL_TEMPERATURE:205
;EXTRUDER_TRAIN.0.MATERIAL.VOLUME_USED:545
;EXTRUDER_TRAIN.0.MATERIAL.GUID:506c9f0d-e3aa-4bd4-b2d2-23e2425b1aa9
;EXTRUDER_TRAIN.0.NOZZLE.DIAMETER:0.4
;EXTRUDER_TRAIN.0.NOZZLE.NAME:AA 0.4
;BUILD_PLATE.TYPE:glass
;BUILD_PLATE.INITIAL_TEMPERATURE:60
;PRINT.TIME:574
;PRINT.GROUPS:1
;PRINT.SIZE.MIN.X:9
;PRINT.SIZE.MIN.Y:6
;PRINT.SIZE.MIN.Z:0.27
;PRINT.SIZE.MAX.X:126.38
;PRINT.SIZE.MAX.Y:130.395
;PRINT.SIZE.MAX.Z:2.27
;END_OF_HEADER
;Generated with Cura_SteamEngine 4.7.1
T0
M82 ;absolute extrusion mode

G92 E0
M109 S205
G0 F15000 X9 Y6 Z2
G280
G1 F1500 E-6.5
;LAYER_COUNT:18
;LAYER:0
M107
M204 S625
M205 X6 Y6
G1 F600 Z2.27
G0 F4285.7 X108.011 Y87.362 Z2.27
M204 S500
M205 X5 Y5
;TYPE:SKIRT
G1 F600 Z0.27
G1 F1500 E0
G1 F1200 X108.49 Y86.792 E0.01323
G1 X109.027 Y86.277 E0.02646
G1 X109.616 Y85.822 E0.03969
G1 X110.25 Y85.433 E0.05291
G1 X110.923 Y85.114 E0.06615
G1 X111.626 Y84.869 E0.07939
G1 X112.351 Y84.701 E0.09262
G1 X113.09 Y84.612 E0.10585
G1 X113.55 Y84.597 E0.11403
G1 X119.45 Y84.597 E0.21891
G1 X120.193 Y84.637 E0.23213
G1 X120.928 Y84.756 E0.24537
G1 X121.646 Y84.954 E0.25861
G1 X122.338 Y85.227 E0.27183
G1 X122.997 Y85.573 E0.28506
G1 X123.615 Y85.988 E0.29829
G1 X124.185 Y86.467 E0.31153
G1 X124.7 Y87.004 E0.32476
G1 X125.155 Y87.593 E0.33799
G1 X125.544 Y88.227 E0.35121
G1 X125.863 Y88.9 E0.36445
G1 X126.108 Y89.603 E0.37768
G1 X126.276 Y90.328 E0.39091
G1 X126.365 Y91.067 E0.40414
G1 X126.38 Y91.527 E0.41232
G1 X126.379 Y120.549 E0.92822
G1 X126.331 Y121.366 E0.94277
G1 X126.253 Y122.023 E0.95453
G1 X126.125 Y122.756 E0.96775
G1 X125.882 Y123.578 E0.98299
G1 X125.647 Y124.223 E0.99519
G1 X125.355 Y124.908 E1.00843
G1 X124.929 Y125.655 E1.02372
G1 X124.554 Y126.226 E1.03586
G1 X124.112 Y126.825 E1.04909
G1 X123.518 Y127.461 E1.06456
G1 X123.017 Y127.934 E1.07681
G1 X122.45 Y128.415 E1.09003
G1 X121.716 Y128.902 E1.10568
G1 X121.125 Y129.242 E1.1178
G1 X120.461 Y129.578 E1.13103
G1 X119.671 Y129.869 E1.146
G1 X119.015 Y130.067 E1.15818
G1 X118.292 Y130.244 E1.17141
G1 X117.418 Y130.351 E1.18706
G1 X116.734 Y130.391 E1.19924
G1 X115.989 Y130.395 E1.21249
G1 X115.121 Y130.297 E1.22801
G1 X114.443 Y130.177 E1.24025
G1 X113.718 Y130.008 E1.25349
G1 X112.894 Y129.711 E1.26906
G1 X112.269 Y129.44 E1.28116
G1 X111.603 Y129.108 E1.29439
G1 X110.894 Y128.645 E1.30945
G1 X110.342 Y128.235 E1.32167
G1 X109.769 Y127.76 E1.3349
G1 X109.17 Y127.132 E1.35033
G1 X108.731 Y126.61 E1.36245
G1 X108.283 Y126.016 E1.37568
G1 X107.837 Y125.249 E1.39145
G1 X107.529 Y124.633 E1.40369
G1 X107.232 Y123.951 E1.41691
G1 X106.984 Y123.133 E1.43211
G1 X106.827 Y122.471 E1.4442
G1 X106.694 Y121.739 E1.45743
G1 X106.632 Y120.93 E1.47185
G1 X106.62 Y120.528 E1.479
G1 X106.62 Y91.527 E1.99452
G1 X106.66 Y90.784 E2.00775
G1 X106.779 Y90.049 E2.02098
G1 X106.977 Y89.331 E2.03422
G1 X107.25 Y88.639 E2.04744
G1 X107.596 Y87.98 E2.06068
G1 X108.011 Y87.362 E2.07391
M204 S625
M205 X6 Y6
G0 F4285.7 X108.428 Y87.509
M204 S500
M205 X5 Y5
G1 F1200 X108.904 Y86.967 E2.08673
G1 X109.437 Y86.481 E2.09955
G1 X110.021 Y86.057 E2.11238
G1 X110.648 Y85.7 E2.12521
G1 X111.31 Y85.414 E2.13803
G1 X112 Y85.204 E2.15085
G1 X112.709 Y85.072 E2.16367
G1 X113.55 Y85.017 E2.17865
G1 X119.45 Y85.017 E2.28353
G1 X120.17 Y85.057 E2.29634
G1 X120.882 Y85.176 E2.30918
G1 X121.576 Y85.374 E2.32201
G1 X122.243 Y85.647 E2.33482
G1 X122.877 Y85.992 E2.34765
G1 X123.468 Y86.405 E2.36046
G1 X124.01 Y86.881 E2.37329
G1 X124.496 Y87.414 E2.38611
G1 X124.92 Y87.998 E2.39894
G1 X125.277 Y88.625 E2.41176
G1 X125.563 Y89.287 E2.42458
G1 X125.773 Y89.977 E2.4374
G1 X125.905 Y90.686 E2.45022
G1 X125.96 Y91.527 E2.4652
G1 X125.959 Y120.549 E2.9811
G1 X125.914 Y121.316 E2.99476
G1 X125.836 Y121.973 E3.00652
G1 X125.711 Y122.684 E3.01935
G1 X125.488 Y123.435 E3.03328
G1 X125.253 Y124.08 E3.04548
G1 X124.969 Y124.743 E3.0583
G1 X124.577 Y125.425 E3.07228
G1 X124.202 Y125.996 E3.08443
G1 X123.774 Y126.576 E3.09724
G1 X123.23 Y127.156 E3.11137
G1 X122.729 Y127.629 E3.12362
G1 X122.178 Y128.094 E3.13644
G1 X121.506 Y128.538 E3.15076
G1 X120.915 Y128.878 E3.16288
G1 X120.271 Y129.202 E3.17569
G1 X119.55 Y129.467 E3.18935
G1 X118.894 Y129.665 E3.20153
G1 X118.193 Y129.835 E3.21435
G1 X117.393 Y129.932 E3.22867
G1 X116.709 Y129.972 E3.24085
G1 X115.988 Y129.974 E3.25367
G1 X115.194 Y129.883 E3.26788
G1 X114.516 Y129.763 E3.28011
G1 X113.814 Y129.598 E3.29293
G1 X113.061 Y129.326 E3.30717
G1 X112.436 Y129.055 E3.31927
G1 X111.791 Y128.731 E3.33211
G1 X111.144 Y128.308 E3.34585
G1 X110.592 Y127.898 E3.35807
G1 X110.038 Y127.437 E3.37088
G1 X109.492 Y126.862 E3.38498
G1 X109.053 Y126.34 E3.3971
G1 X108.62 Y125.763 E3.40992
G1 X108.212 Y125.061 E3.42436
G1 X107.904 Y124.445 E3.4366
G1 X107.618 Y123.783 E3.44942
G1 X107.393 Y123.036 E3.46329
G1 X107.236 Y122.374 E3.47538
G1 X107.108 Y121.664 E3.48821
G1 X107.051 Y120.906 E3.50172
G1 X107.04 Y120.528 E3.50844
G1 X107.04 Y91.527 E4.02396
G1 X107.08 Y90.807 E4.03678
G1 X107.199 Y90.095 E4.04961
G1 X107.397 Y89.401 E4.06244
G1 X107.67 Y88.734 E4.07525
G1 X108.015 Y88.1 E4.08808
G1 X108.428 Y87.509 E4.1009
M204 S625
M205 X6 Y6
G0 F4285.7 X108.845 Y87.661
M204 S500
M205 X5 Y5
G1 F1200 X109.318 Y87.148 E4.1133
G1 X109.846 Y86.693 E4.12569
G1 X110.423 Y86.301 E4.13809
G1 X111.042 Y85.978 E4.1505
G1 X111.693 Y85.727 E4.16291
G1 X112.369 Y85.553 E4.17531
G1 X113.06 Y85.457 E4.18771
G1 X113.55 Y85.437 E4.19643
G1 X119.45 Y85.437 E4.30131
G1 X120.147 Y85.477 E4.31372
G1 X120.834 Y85.596 E4.32611
G1 X121.503 Y85.794 E4.33852
G1 X122.146 Y86.066 E4.35093
G1 X122.752 Y86.41 E4.36331
G1 X123.316 Y86.822 E4.37573
G1 X123.829 Y87.295 E4.38813
G1 X124.284 Y87.823 E4.40052
G1 X124.676 Y88.4 E4.41292
G1 X124.999 Y89.019 E4.42533
G1 X125.25 Y89.67 E4.43774
G1 X125.424 Y90.346 E4.45015
G1 X125.52 Y91.037 E4.46255
G1 X125.54 Y91.527 E4.47126
G1 X125.539 Y120.549 E4.98716
G1 X125.497 Y121.267 E4.99994
G1 X125.419 Y121.924 E5.0117
G1 X125.297 Y122.611 E5.02411
G1 X125.093 Y123.291 E5.03673
G1 X124.858 Y123.936 E5.04893
G1 X124.582 Y124.577 E5.06134
G1 X124.226 Y125.194 E5.074
G1 X123.851 Y125.765 E5.08614
G1 X123.436 Y126.325 E5.09853
G1 X122.942 Y126.85 E5.11135
G1 X122.441 Y127.323 E5.12359
G1 X121.907 Y127.772 E5.136
G1 X121.297 Y128.174 E5.14898
G1 X120.706 Y128.514 E5.1611
G1 X120.082 Y128.826 E5.1735
G1 X119.429 Y129.065 E5.18586
G1 X118.773 Y129.263 E5.19804
G1 X118.094 Y129.426 E5.21046
G1 X117.369 Y129.513 E5.22344
G1 X116.685 Y129.553 E5.23562
G1 X115.987 Y129.553 E5.24802
G1 X115.268 Y129.47 E5.26089
G1 X114.59 Y129.35 E5.27313
G1 X113.911 Y129.189 E5.28553
G1 X113.228 Y128.94 E5.29846
G1 X112.603 Y128.669 E5.31057
G1 X111.98 Y128.356 E5.32296
G1 X111.395 Y127.971 E5.33541
G1 X110.843 Y127.561 E5.34763
G1 X110.307 Y127.114 E5.36004
G1 X109.813 Y126.592 E5.37281
G1 X109.374 Y126.07 E5.38494
G1 X108.956 Y125.511 E5.39735
G1 X108.588 Y124.874 E5.41042
G1 X108.28 Y124.258 E5.42267
G1 X108.004 Y123.617 E5.43507
G1 X107.801 Y122.939 E5.44765
G1 X107.644 Y122.277 E5.45975
G1 X107.523 Y121.59 E5.47215
G1 X107.47 Y120.881 E5.48478
G1 X107.46 Y120.528 E5.49106
G1 X107.46 Y91.527 E6.00658
G1 X107.5 Y90.83 E6.01899
G1 X107.619 Y90.143 E6.03139
G1 X107.817 Y89.474 E6.04379
G1 X108.089 Y88.831 E6.0562
G1 X108.433 Y88.225 E6.06859
G1 X108.845 Y87.661 E6.081
M204 S625
M205 X6 Y6
G0 F4285.7 X108.851 Y88.354
M204 S500
M205 X5 Y5
G1 F1200 X109.26 Y87.819 E6.09297
G1 X109.73 Y87.337 E6.10494
G1 X110.254 Y86.914 E6.11691
G1 X110.824 Y86.555 E6.12889
G1 X111.432 Y86.267 E6.14084
G1 X112.07 Y86.053 E6.15281
G1 X112.73 Y85.917 E6.16479
G1 X113.55 Y85.857 E6.1794
G1 X119.45 Y85.857 E6.28428
G1 X120.122 Y85.897 E6.29625
G1 X120.785 Y86.016 E6.30822
G1 X121.428 Y86.213 E6.32017
G1 X122.044 Y86.485 E6.33214
G1 X122.623 Y86.828 E6.34411
G1 X123.158 Y87.237 E6.35608
G1 X123.64 Y87.707 E6.36804
G1 X124.063 Y88.231 E6.38001
G1 X124.422 Y88.801 E6.39199
G1 X124.71 Y89.409 E6.40395
G1 X124.924 Y90.047 E6.41591
G1 X125.06 Y90.707 E6.42789
G1 X125.12 Y91.527 E6.4425
G1 X125.119 Y120.549 E6.9584
G1 X125.079 Y121.217 E6.97029
G1 X125.001 Y121.874 E6.98206
G1 X124.883 Y122.537 E6.99403
G1 X124.698 Y123.147 E7.00536
G1 X124.463 Y123.792 E7.01756
G1 X124.196 Y124.41 E7.02953
G1 X123.875 Y124.964 E7.04091
G1 X123.5 Y125.535 E7.05305
G1 X123.098 Y126.074 E7.065
G1 X122.653 Y126.545 E7.07652
G1 X122.152 Y127.018 E7.08877
G1 X121.636 Y127.45 E7.10073
G1 X121.087 Y127.81 E7.1124
G1 X120.496 Y128.15 E7.12452
G1 X119.894 Y128.45 E7.13648
G1 X119.307 Y128.663 E7.14758
G1 X118.651 Y128.861 E7.15976
G1 X117.996 Y129.017 E7.17173
G1 X117.344 Y129.093 E7.1834
G1 X116.66 Y129.133 E7.19558
G1 X115.987 Y129.133 E7.20754
G1 X115.341 Y129.056 E7.2191
G1 X114.663 Y128.936 E7.23134
G1 X114.008 Y128.78 E7.24331
G1 X113.395 Y128.555 E7.25492
G1 X112.77 Y128.284 E7.26703
G1 X112.17 Y127.98 E7.27899
G1 X111.645 Y127.634 E7.29016
G1 X111.093 Y127.224 E7.30239
G1 X110.577 Y126.791 E7.31436
G1 X110.135 Y126.321 E7.32583
G1 X109.696 Y125.799 E7.33795
G1 X109.294 Y125.259 E7.34992
G1 X108.964 Y124.686 E7.36167
G1 X108.656 Y124.07 E7.37392
G1 X108.391 Y123.451 E7.38589
G1 X108.21 Y122.842 E7.39718
G1 X108.053 Y122.18 E7.40927
G1 X107.91 Y121.201 E7.42686
G1 X107.88 Y120.528 E7.43884
G1 X107.88 Y91.527 E7.95436
G1 X107.92 Y90.855 E7.96632
G1 X108.039 Y90.192 E7.9783
G1 X108.236 Y89.549 E7.99025
G1 X108.508 Y88.933 E8.00222
G1 X108.851 Y88.354 E8.01418
M204 S625
M205 X6 Y6
G0 F4285.7 X109.269 Y88.488
M204 S500
M205 X5 Y5
G1 F1200 X109.676 Y87.984 E8.0257
G1 X110.142 Y87.534 E8.03722
G1 X110.659 Y87.145 E8.04872
G1 X111.221 Y86.822 E8.06024
G1 X111.818 Y86.571 E8.07175
G1 X112.442 Y86.395 E8.08328
G1 X113.082 Y86.298 E8.09478
G1 X113.55 Y86.277 E8.10311
G1 X119.45 Y86.277 E8.20799
G1 X120.097 Y86.317 E8.21951
G1 X120.733 Y86.436 E8.23101
G1 X121.35 Y86.633 E8.24253
G1 X121.939 Y86.904 E8.25405
G1 X122.489 Y87.246 E8.26556
G1 X122.993 Y87.653 E8.27708
G1 X123.443 Y88.119 E8.2886
G1 X123.832 Y88.636 E8.3001
G1 X124.155 Y89.198 E8.31162
G1 X124.406 Y89.795 E8.32313
G1 X124.582 Y90.419 E8.33466
G1 X124.679 Y91.059 E8.34616
G1 X124.7 Y91.527 E8.35449
G1 X124.699 Y120.549 E8.87038
G1 X124.662 Y121.168 E8.88141
G1 X124.584 Y121.825 E8.89317
G1 X124.468 Y122.462 E8.90468
G1 X124.304 Y123.003 E8.91473
G1 X124.069 Y123.648 E8.92693
G1 X123.81 Y124.242 E8.93845
G1 X123.524 Y124.733 E8.94855
G1 X123.149 Y125.304 E8.96069
G1 X122.761 Y125.822 E8.9722
G1 X122.365 Y126.239 E8.98242
G1 X121.864 Y126.712 E8.99467
G1 X121.367 Y127.127 E9.00618
G1 X120.878 Y127.446 E9.01656
G1 X120.287 Y127.786 E9.02868
G1 X119.707 Y128.073 E9.04018
G1 X119.186 Y128.261 E9.05002
G1 X118.53 Y128.459 E9.06221
G1 X117.9 Y128.608 E9.07371
G1 X117.319 Y128.674 E9.08411
G1 X116.635 Y128.714 E9.09629
G1 X115.988 Y128.712 E9.10779
G1 X115.414 Y128.643 E9.11806
G1 X114.736 Y128.523 E9.1303
G1 X114.106 Y128.371 E9.14182
G1 X113.562 Y128.17 E9.15213
G1 X112.937 Y127.899 E9.16424
G1 X112.36 Y127.605 E9.17575
G1 X111.896 Y127.297 E9.18565
G1 X111.344 Y126.887 E9.19788
G1 X110.848 Y126.469 E9.20941
G1 X110.456 Y126.051 E9.21959
G1 X110.017 Y125.529 E9.23172
G1 X109.631 Y125.009 E9.24323
G1 X109.339 Y124.498 E9.25369
G1 X109.031 Y123.882 E9.26593
G1 X108.778 Y123.286 E9.27744
G1 X108.619 Y122.745 E9.28747
G1 X108.462 Y122.083 E9.29956
G1 X108.329 Y121.177 E9.31584
G1 X108.3 Y120.528 E9.32739
G1 X108.3 Y91.527 E9.84291
G1 X108.34 Y90.88 E9.85443
G1 X108.459 Y90.244 E9.86593
G1 X108.656 Y89.627 E9.87745
G1 X108.927 Y89.038 E9.88897
G1 X109.269 Y88.488 E9.90048
M204 S625
M205 X6 Y6
G0 F4285.7 X109.686 Y88.629
M204 S500
M205 X5 Y5
G1 F1200 X110.09 Y88.157 E9.91153
G1 X110.552 Y87.74 E9.92259
G1 X111.062 Y87.387 E9.93362
G1 X111.614 Y87.102 E9.94466
G1 X112.199 Y86.89 E9.95572
G1 X112.805 Y86.755 E9.96676
G1 X113.55 Y86.697 E9.98004
G1 X119.45 Y86.697 E10.08492
G1 X120.07 Y86.737 E10.09596
G1 X120.68 Y86.856 E10.10701
G1 X121.269 Y87.053 E10.11805
G1 X121.828 Y87.323 E10.12909
G1 X122.348 Y87.663 E10.14013
G1 X122.82 Y88.067 E10.15117
G1 X123.237 Y88.529 E10.16224
G1 X123.59 Y89.039 E10.17326
G1 X123.875 Y89.591 E10.18431
G1 X124.087 Y90.176 E10.19537
G1 X124.222 Y90.782 E10.2064
G1 X124.28 Y91.527 E10.21969
G1 X124.279 Y120.549 E10.73558
G1 X124.245 Y121.118 E10.74571
G1 X124.167 Y121.775 E10.75747
G1 X124.055 Y122.386 E10.76852
G1 X123.909 Y122.859 E10.77731
G1 X123.674 Y123.504 E10.78952
G1 X123.424 Y124.073 E10.80057
G1 X123.173 Y124.502 E10.8094
G1 X122.798 Y125.073 E10.82154
G1 X122.424 Y125.57 E10.8326
G1 X122.077 Y125.934 E10.84154
G1 X121.576 Y126.407 E10.85379
G1 X121.098 Y126.804 E10.86483
G1 X120.669 Y127.082 E10.87392
G1 X120.078 Y127.422 E10.88604
G1 X119.52 Y127.696 E10.89709
G1 X119.065 Y127.859 E10.90568
G1 X118.409 Y128.057 E10.91786
G1 X117.804 Y128.198 E10.92891
G1 X117.295 Y128.255 E10.93801
G1 X116.611 Y128.295 E10.95019
G1 X115.99 Y128.291 E10.96123
G1 X115.487 Y128.229 E10.97024
G1 X114.809 Y128.109 E10.98248
G1 X114.206 Y127.962 E10.99351
G1 X113.73 Y127.784 E11.00254
G1 X113.105 Y127.513 E11.01465
G1 X112.552 Y127.23 E11.0257
G1 X112.146 Y126.959 E11.03437
G1 X111.594 Y126.549 E11.0466
G1 X111.12 Y126.148 E11.05763
G1 X110.777 Y125.781 E11.06656
G1 X110.338 Y125.259 E11.07869
G1 X109.97 Y124.759 E11.08972
G1 X109.715 Y124.31 E11.0989
G1 X109.407 Y123.694 E11.11114
G1 X109.165 Y123.122 E11.12218
G1 X109.027 Y122.649 E11.13094
G1 X108.87 Y121.987 E11.14304
G1 X108.748 Y121.152 E11.15804
G1 X108.72 Y120.528 E11.16914
G1 X108.72 Y91.527 E11.68466
G1 X108.76 Y90.907 E11.6957
G1 X108.879 Y90.297 E11.70675
G1 X109.076 Y89.708 E11.71779
G1 X109.346 Y89.149 E11.72883
G1 X109.686 Y88.629 E11.73987
M204 S625
M205 X6 Y6
G0 F4285.7 X110.103 Y88.776
M204 S500
M205 X5 Y5
G1 F1200 X110.504 Y88.338 E11.75043
G1 X110.96 Y87.958 E11.76098
G1 X111.463 Y87.642 E11.77154
G1 X112.003 Y87.397 E11.78208
G1 X112.572 Y87.227 E11.79264
G1 X113.158 Y87.134 E11.80318
G1 X113.55 Y87.117 E11.81016
G1 X119.45 Y87.117 E11.91504
G1 X120.042 Y87.157 E11.92558
G1 X120.624 Y87.276 E11.93614
G1 X121.184 Y87.472 E11.94669
G1 X121.713 Y87.742 E11.95725
G1 X122.201 Y88.08 E11.9678
G1 X122.639 Y88.481 E11.97836
G1 X123.019 Y88.937 E11.98891
G1 X123.335 Y89.44 E11.99947
G1 X123.58 Y89.98 E12.01001
G1 X123.75 Y90.549 E12.02056
G1 X123.843 Y91.135 E12.03111
G1 X123.86 Y91.527 E12.03809
G1 X123.859 Y120.549 E12.55398
G1 X123.828 Y121.069 E12.56324
G1 X123.75 Y121.726 E12.575
G1 X123.641 Y122.309 E12.58554
G1 X123.515 Y122.716 E12.59312
G1 X123.28 Y123.361 E12.60532
G1 X123.039 Y123.903 E12.61586
G1 X122.822 Y124.272 E12.62347
G1 X122.447 Y124.843 E12.63562
G1 X122.089 Y125.316 E12.64616
G1 X121.788 Y125.629 E12.65388
G1 X121.287 Y126.102 E12.66613
G1 X120.829 Y126.479 E12.67667
G1 X120.459 Y126.718 E12.6845
G1 X119.868 Y127.058 E12.69662
G1 X119.335 Y127.318 E12.70716
G1 X118.943 Y127.457 E12.71456
G1 X118.287 Y127.655 E12.72674
G1 X117.709 Y127.788 E12.73728
G1 X117.27 Y127.835 E12.74513
G1 X116.586 Y127.875 E12.75731
G1 X115.993 Y127.87 E12.76785
G1 X115.56 Y127.816 E12.77561
G1 X114.882 Y127.696 E12.78785
G1 X114.306 Y127.553 E12.7984
G1 X113.897 Y127.399 E12.80617
G1 X113.272 Y127.128 E12.81827
G1 X112.744 Y126.856 E12.82883
G1 X112.396 Y126.622 E12.83629
G1 X111.844 Y126.212 E12.84851
G1 X111.393 Y125.827 E12.85905
G1 X111.099 Y125.51 E12.86674
G1 X110.66 Y124.988 E12.87886
G1 X110.309 Y124.509 E12.88942
G1 X110.091 Y124.122 E12.89731
G1 X109.783 Y123.506 E12.90955
G1 X109.553 Y122.959 E12.9201
G1 X109.436 Y122.552 E12.92763
G1 X109.279 Y121.89 E12.93972
G1 X109.167 Y121.128 E12.95342
G1 X109.14 Y120.528 E12.96409
G1 X109.14 Y91.527 E13.47961
G1 X109.18 Y90.935 E13.49016
G1 X109.299 Y90.353 E13.50072
G1 X109.495 Y89.793 E13.51127
G1 X109.765 Y89.264 E13.52182
G1 X110.103 Y88.776 E13.53238
M204 S625
M205 X6 Y6
G0 F4285.7 X110.519 Y88.932
M204 S500
M205 X5 Y5
G1 F1200 X110.916 Y88.53 E13.54242
G1 X111.365 Y88.188 E13.55245
G1 X111.859 Y87.913 E13.5625
G1 X112.386 Y87.711 E13.57254
G1 X112.936 Y87.585 E13.58257
G1 X113.55 Y87.537 E13.59351
G1 X119.45 Y87.537 E13.69839
G1 X120.013 Y87.577 E13.70842
G1 X120.565 Y87.696 E13.71846
G1 X121.095 Y87.892 E13.72851
G1 X121.591 Y88.16 E13.73853
G1 X122.045 Y88.496 E13.74857
G1 X122.447 Y88.893 E13.75861
G1 X122.789 Y89.342 E13.76865
G1 X123.064 Y89.836 E13.7787
G1 X123.266 Y90.363 E13.78873
G1 X123.392 Y90.913 E13.79876
G1 X123.44 Y91.527 E13.80971
G1 X123.439 Y120.549 E14.3256
G1 X123.411 Y121.019 E14.33397
G1 X123.333 Y121.676 E14.34573
G1 X123.227 Y122.231 E14.35577
G1 X123.12 Y122.572 E14.36213
G1 X122.885 Y123.217 E14.37433
G1 X122.655 Y123.732 E14.38436
G1 X122.471 Y124.041 E14.39075
G1 X122.096 Y124.612 E14.40289
G1 X121.754 Y125.061 E14.41293
G1 X121.5 Y125.323 E14.41941
G1 X120.999 Y125.796 E14.43166
G1 X120.562 Y126.154 E14.4417
G1 X120.25 Y126.354 E14.44829
G1 X119.659 Y126.694 E14.46041
G1 X119.151 Y126.94 E14.47044
G1 X118.822 Y127.055 E14.47664
G1 X118.166 Y127.253 E14.48882
G1 X117.615 Y127.377 E14.49886
G1 X117.246 Y127.416 E14.50545
G1 X116.562 Y127.456 E14.51763
G1 X115.997 Y127.449 E14.52768
G1 X115.634 Y127.402 E14.53418
G1 X114.956 Y127.282 E14.54642
G1 X114.408 Y127.144 E14.55647
G1 X114.064 Y127.014 E14.56301
G1 X113.439 Y126.743 E14.57512
G1 X112.938 Y126.482 E14.58516
G1 X112.647 Y126.285 E14.5914
G1 X112.095 Y125.875 E14.60363
G1 X111.667 Y125.507 E14.61366
G1 X111.42 Y125.24 E14.62013
G1 X110.981 Y124.718 E14.63225
G1 X110.649 Y124.261 E14.64229
G1 X110.466 Y123.934 E14.64895
G1 X110.158 Y123.318 E14.6612
G1 X109.942 Y122.797 E14.67122
G1 X109.845 Y122.455 E14.67754
G1 X109.688 Y121.793 E14.68963
G1 X109.587 Y121.104 E14.70201
G1 X109.56 Y120.528 E14.71226
G1 X109.56 Y91.527 E15.22778
G1 X109.6 Y90.964 E15.23782
G1 X109.719 Y90.412 E15.24786
G1 X109.915 Y89.882 E15.2579
G1 X110.183 Y89.386 E15.26792
G1 X110.519 Y88.932 E15.27796
M204 S625
M205 X6 Y6
G0 F4285.7 X110.601 Y89.514
M204 S500
M205 X5 Y5
G1 F1200 X110.935 Y89.097 E15.28746
G1 X111.326 Y88.734 E15.29694
G1 X111.768 Y88.434 E15.30644
G1 X112.249 Y88.202 E15.31593
G1 X112.76 Y88.046 E15.32543
G1 X113.55 Y87.957 E15.33956
G1 X119.45 Y87.957 E15.44444
G1 X119.983 Y87.997 E15.45394
G1 X120.503 Y88.116 E15.46342
G1 X121 Y88.311 E15.47291
G1 X121.463 Y88.578 E15.48241
G1 X121.88 Y88.912 E15.49191
G1 X122.243 Y89.303 E15.5014
G1 X122.543 Y89.745 E15.51089
G1 X122.775 Y90.226 E15.52038
G1 X122.931 Y90.737 E15.52988
G1 X123.02 Y91.527 E15.54401
G1 X123.019 Y120.549 E16.05991
G1 X122.994 Y120.97 E16.0674
G1 X122.916 Y121.627 E16.07917
G1 X122.814 Y122.151 E16.08865
G1 X122.725 Y122.428 E16.09383
G1 X122.49 Y123.073 E16.10603
G1 X122.27 Y123.56 E16.11553
G1 X122.12 Y123.811 E16.12073
G1 X121.745 Y124.382 E16.13287
G1 X121.419 Y124.805 E16.14236
G1 X121.212 Y125.018 E16.14764
G1 X120.711 Y125.491 E16.15989
G1 X120.296 Y125.827 E16.16938
G1 X120.04 Y125.989 E16.17477
G1 X119.449 Y126.329 E16.18689
G1 X118.968 Y126.56 E16.19637
G1 X118.701 Y126.653 E16.2014
G1 X118.045 Y126.851 E16.21358
G1 X117.523 Y126.966 E16.22308
G1 X117.221 Y126.997 E16.22848
G1 X116.537 Y127.037 E16.24066
G1 X116.003 Y127.028 E16.25015
G1 X115.707 Y126.988 E16.25546
G1 X115.029 Y126.868 E16.2677
G1 X114.511 Y126.736 E16.2772
G1 X114.231 Y126.628 E16.28254
G1 X113.606 Y126.357 E16.29465
G1 X113.133 Y126.109 E16.30414
G1 X112.897 Y125.948 E16.30922
G1 X112.345 Y125.538 E16.32144
G1 X111.942 Y125.188 E16.33093
G1 X111.742 Y124.97 E16.33619
G1 X111.303 Y124.448 E16.34831
G1 X110.991 Y124.015 E16.3578
G1 X110.842 Y123.747 E16.36325
G1 X110.534 Y123.131 E16.37549
G1 X110.331 Y122.636 E16.385
G1 X110.253 Y122.358 E16.39014
G1 X110.096 Y121.696 E16.40223
G1 X110.006 Y121.079 E16.41331
G1 X109.98 Y120.528 E16.42312
G1 X109.98 Y91.527 E16.93864
G1 X110.02 Y90.994 E16.94814
G1 X110.139 Y90.474 E16.95762
G1 X110.334 Y89.977 E16.96711
G1 X110.601 Y89.514 E16.97661
M204 S625
M205 X6 Y6
G0 F4285.7 X111.019 Y89.652
M204 S500
M205 X5 Y5
G1 F1200 X111.349 Y89.274 E16.98553
G1 X111.734 Y88.953 E16.99444
G1 X112.166 Y88.697 E17.00337
G1 X112.633 Y88.514 E17.01229
G1 X113.122 Y88.406 E17.02119
G1 X113.55 Y88.377 E17.02881
G1 X119.45 Y88.377 E17.13369
G1 X119.95 Y88.417 E17.14261
G1 X120.437 Y88.536 E17.15152
G1 X120.9 Y88.73 E17.16044
G1 X121.325 Y88.996 E17.16936
G1 X121.703 Y89.326 E17.17828
G1 X122.024 Y89.711 E17.18719
G1 X122.28 Y90.143 E17.19611
G1 X122.463 Y90.61 E17.20503
G1 X122.571 Y91.099 E17.21393
G1 X122.6 Y91.527 E17.22156
G1 X122.599 Y120.549 E17.73745
G1 X122.577 Y120.92 E17.74406
G1 X122.499 Y121.577 E17.75582
G1 X122.331 Y122.284 E17.76874
G1 X122.096 Y122.929 E17.78094
G1 X121.769 Y123.58 E17.79389
G1 X121.394 Y124.151 E17.80603
G1 X120.923 Y124.712 E17.81905
G1 X120.422 Y125.185 E17.8313
G1 X119.831 Y125.625 E17.8444
G1 X119.24 Y125.965 E17.85652
G1 X118.579 Y126.251 E17.86932
G1 X117.923 Y126.449 E17.8815
G1 X117.197 Y126.578 E17.89461
G1 X116.513 Y126.618 E17.90679
G1 X115.78 Y126.575 E17.91984
G1 X115.102 Y126.455 E17.93208
G1 X114.398 Y126.243 E17.94515
G1 X113.773 Y125.972 E17.95726
G1 X113.148 Y125.611 E17.97009
G1 X112.596 Y125.201 E17.98231
G1 X112.063 Y124.699 E17.99533
G1 X111.624 Y124.177 E18.00745
G1 X111.218 Y123.559 E18.0206
G1 X110.91 Y122.943 E18.03284
G1 X110.662 Y122.261 E18.04574
G1 X110.505 Y121.599 E18.05783
G1 X110.425 Y121.055 E18.06761
G1 X110.4 Y120.528 E18.07698
G1 X110.4 Y91.527 E18.59251
G1 X110.44 Y91.027 E18.60142
G1 X110.559 Y90.54 E18.61033
G1 X110.753 Y90.077 E18.61926
G1 X111.019 Y89.652 E18.62817
M204 S625
M205 X6 Y6
G0 F4285.7 X111.436 Y89.8
M204 S500
M205 X5 Y5
G1 F1200 X111.761 Y89.465 E18.63647
G1 X112.139 Y89.19 E18.64478
G1 X112.557 Y88.984 E18.65306
G1 X113.005 Y88.852 E18.66136
G1 X113.55 Y88.797 E18.6711
G1 X119.45 Y88.797 E18.77598
G1 X119.915 Y88.837 E18.78427
G1 X120.367 Y88.956 E18.79258
G1 X120.792 Y89.149 E18.80088
G1 X121.177 Y89.413 E18.80918
G1 X121.512 Y89.738 E18.81747
G1 X121.787 Y90.116 E18.82578
G1 X121.993 Y90.534 E18.83407
G1 X122.125 Y90.982 E18.84237
G1 X122.18 Y91.527 E18.85211
G1 X122.179 Y120.549 E19.368
G1 X122.16 Y120.871 E19.37373
G1 X122.082 Y121.528 E19.3855
G1 X121.936 Y122.141 E19.3967
G1 X121.701 Y122.786 E19.4089
G1 X121.418 Y123.35 E19.42012
G1 X121.043 Y123.921 E19.43226
G1 X120.635 Y124.407 E19.44354
G1 X120.134 Y124.88 E19.45579
G1 X119.621 Y125.261 E19.46715
G1 X119.03 Y125.601 E19.47927
G1 X118.458 Y125.849 E19.49035
G1 X117.802 Y126.047 E19.50253
G1 X117.172 Y126.158 E19.5139
G1 X116.488 Y126.198 E19.52608
G1 X115.853 Y126.161 E19.53739
G1 X115.175 Y126.041 E19.54963
G1 X114.565 Y125.858 E19.56095
G1 X113.94 Y125.587 E19.57306
G1 X113.398 Y125.274 E19.58418
G1 X112.846 Y124.864 E19.59641
G1 X112.385 Y124.429 E19.60767
G1 X111.946 Y123.907 E19.6198
G1 X111.593 Y123.371 E19.63121
G1 X111.285 Y122.755 E19.64345
G1 X111.071 Y122.164 E19.65462
G1 X110.914 Y121.502 E19.66672
G1 X110.825 Y120.686 E19.68131
G1 X110.82 Y120.528 E19.68412
G1 X110.82 Y91.527 E20.19964
G1 X110.86 Y91.062 E20.20793
G1 X110.979 Y90.61 E20.21624
G1 X111.172 Y90.185 E20.22454
G1 X111.436 Y89.8 E20.23284
M204 S625
M205 X6 Y6
G0 F4285.7 X111.591 Y90.303
M204 S500
M205 X5 Y5
G1 F1200 X111.851 Y89.961 E20.24047
G1 X112.171 Y89.674 E20.24812
G1 X112.537 Y89.451 E20.25573
G1 X112.939 Y89.299 E20.26337
G1 X113.55 Y89.217 E20.27433
G1 X119.45 Y89.217 E20.37921
G1 X119.878 Y89.257 E20.38685
G1 X120.29 Y89.375 E20.39447
G1 X120.674 Y89.568 E20.40211
G1 X121.016 Y89.828 E20.40975
G1 X121.303 Y90.148 E20.41739
G1 X121.526 Y90.514 E20.42501
G1 X121.678 Y90.916 E20.43265
G1 X121.76 Y91.527 E20.4436
G1 X121.759 Y120.549 E20.9595
G1 X121.743 Y120.821 E20.96434
G1 X121.665 Y121.478 E20.9761
G1 X121.541 Y121.997 E20.98559
G1 X121.306 Y122.642 E20.99779
G1 X121.067 Y123.119 E21.00727
G1 X120.692 Y123.69 E21.01942
G1 X120.347 Y124.102 E21.02897
G1 X119.846 Y124.575 E21.04122
G1 X119.412 Y124.897 E21.05082
G1 X118.821 Y125.237 E21.06294
G1 X118.336 Y125.446 E21.07233
G1 X117.68 Y125.644 E21.08451
G1 X117.148 Y125.739 E21.09412
G1 X116.464 Y125.779 E21.1063
G1 X115.926 Y125.748 E21.11588
G1 X115.248 Y125.628 E21.12812
G1 X114.732 Y125.472 E21.1377
G1 X114.107 Y125.201 E21.14981
G1 X113.649 Y124.936 E21.15922
G1 X113.097 Y124.526 E21.17144
G1 X112.706 Y124.159 E21.18097
G1 X112.267 Y123.637 E21.19309
G1 X111.969 Y123.183 E21.20275
G1 X111.661 Y122.567 E21.21499
G1 X111.479 Y122.067 E21.22445
G1 X111.322 Y121.405 E21.23654
G1 X111.244 Y120.662 E21.24982
G1 X111.24 Y120.528 E21.25221
G1 X111.24 Y91.527 E21.76773
G1 X111.28 Y91.099 E21.77537
G1 X111.398 Y90.687 E21.78299
G1 X111.591 Y90.303 E21.79063
M204 S625
M205 X6 Y6
G0 F4285.7 X112.009 Y90.433
M204 S500
M205 X5 Y5
G1 F1200 X112.265 Y90.141 E21.79753
G1 X112.576 Y89.908 E21.80444
G1 X112.927 Y89.743 E21.81133
G1 X113.305 Y89.653 E21.81824
G1 X113.55 Y89.637 E21.8226
G1 X119.45 Y89.637 E21.92748
G1 X119.836 Y89.677 E21.93438
G1 X120.206 Y89.795 E21.94128
G1 X120.544 Y89.986 E21.94818
G1 X120.836 Y90.242 E21.95509
G1 X121.069 Y90.553 E21.962
G1 X121.234 Y90.904 E21.96889
G1 X121.324 Y91.282 E21.9758
G1 X121.34 Y91.527 E21.98016
G1 X121.339 Y120.549 E22.49606
G1 X121.326 Y120.772 E22.50003
G1 X121.248 Y121.429 E22.51179
G1 X121.147 Y121.853 E22.51954
G1 X120.912 Y122.498 E22.53174
G1 X120.716 Y122.889 E22.53951
G1 X120.341 Y123.46 E22.55166
G1 X120.058 Y123.796 E22.55947
G1 X119.557 Y124.269 E22.57171
G1 X119.202 Y124.533 E22.57958
G1 X118.611 Y124.873 E22.5917
G1 X118.215 Y125.044 E22.59936
G1 X117.559 Y125.242 E22.61155
G1 X117.123 Y125.32 E22.61942
G1 X116.439 Y125.36 E22.6316
G1 X116 Y125.334 E22.63942
G1 X115.322 Y125.214 E22.65165
G1 X114.899 Y125.087 E22.65951
G1 X114.274 Y124.816 E22.67162
G1 X113.899 Y124.599 E22.67932
G1 X113.347 Y124.189 E22.69154
G1 X113.028 Y123.888 E22.69934
G1 X112.589 Y123.366 E22.71146
G1 X112.345 Y122.995 E22.71935
G1 X112.037 Y122.379 E22.7316
G1 X111.888 Y121.97 E22.73933
G1 X111.731 Y121.308 E22.75143
G1 X111.663 Y120.638 E22.7634
G1 X111.66 Y120.528 E22.76536
G1 X111.66 Y91.527 E23.28088
G1 X111.7 Y91.141 E23.28777
G1 X111.818 Y90.771 E23.29468
G1 X112.009 Y90.433 E23.30158
M204 S625
M205 X6 Y6
G0 F4285.7 X112.426 Y90.58
M204 S500
M205 X5 Y5
G1 F1200 X112.676 Y90.345 E23.30768
G1 X112.973 Y90.175 E23.31376
G1 X113.301 Y90.078 E23.31984
G1 X113.55 Y90.057 E23.32428
G1 X119.45 Y90.057 E23.42916
G1 X119.79 Y90.097 E23.43525
G1 X120.112 Y90.214 E23.44134
G1 X120.397 Y90.403 E23.44742
G1 X120.632 Y90.653 E23.45352
G1 X120.802 Y90.95 E23.4596
G1 X120.899 Y91.278 E23.46568
G1 X120.92 Y91.527 E23.47012
G1 X120.919 Y120.549 E23.98602
G1 X120.909 Y120.722 E23.9891
G1 X120.831 Y121.379 E24.00086
G1 X120.752 Y121.709 E24.00689
G1 X120.517 Y122.354 E24.01909
G1 X120.365 Y122.658 E24.02513
G1 X119.99 Y123.229 E24.03728
G1 X119.77 Y123.491 E24.04336
G1 X119.269 Y123.964 E24.05561
G1 X118.993 Y124.169 E24.06172
G1 X118.402 Y124.509 E24.07384
G1 X118.094 Y124.642 E24.0798
G1 X117.438 Y124.84 E24.09198
G1 X117.099 Y124.9 E24.0981
G1 X116.415 Y124.94 E24.11028
G1 X116.073 Y124.921 E24.11637
G1 X115.395 Y124.801 E24.12861
G1 X115.066 Y124.702 E24.13472
G1 X114.441 Y124.431 E24.14683
G1 X114.149 Y124.262 E24.15282
G1 X113.597 Y123.852 E24.16505
G1 X113.349 Y123.618 E24.17111
G1 X112.91 Y123.096 E24.18323
G1 X112.72 Y122.807 E24.18938
G1 X112.412 Y122.191 E24.20162
G1 X112.297 Y121.873 E24.20763
G1 X112.14 Y121.211 E24.21973
G1 X112.082 Y120.613 E24.23041
G1 X112.08 Y120.528 E24.23192
G1 X112.08 Y91.527 E24.74744
G1 X112.12 Y91.187 E24.75352
G1 X112.237 Y90.865 E24.75961
G1 X112.426 Y90.58 E24.76569
M204 S625
M205 X6 Y6
G0 F4285.7 X112.656 Y90.976
M204 S500
M205 X5 Y5
G1 F1200 X112.84 Y90.753 E24.77083
G1 X113.078 Y90.589 E24.77597
G1 X113.352 Y90.496 E24.78111
G1 X113.55 Y90.477 E24.78465
G1 X119.45 Y90.477 E24.88953
G1 X119.736 Y90.517 E24.89466
G1 X120.001 Y90.633 E24.8998
G1 X120.224 Y90.817 E24.90494
G1 X120.388 Y91.055 E24.91008
G1 X120.481 Y91.329 E24.91522
G1 X120.5 Y91.527 E24.91876
G1 X120.499 Y120.549 E25.43465
G1 X120.492 Y120.673 E25.43686
G1 X120.414 Y121.33 E25.44862
G1 X120.358 Y121.565 E25.45292
G1 X120.123 Y122.21 E25.46512
G1 X120.014 Y122.427 E25.46944
G1 X119.639 Y122.998 E25.48158
G1 X119.482 Y123.185 E25.48592
G1 X118.981 Y123.658 E25.49817
G1 X118.784 Y123.805 E25.50254
G1 X118.193 Y124.145 E25.51466
G1 X117.972 Y124.24 E25.51893
G1 X117.316 Y124.438 E25.53111
G1 X117.074 Y124.481 E25.53548
G1 X116.39 Y124.521 E25.54766
G1 X116.146 Y124.507 E25.55201
G1 X115.468 Y124.387 E25.56425
G1 X115.233 Y124.316 E25.56861
G1 X114.608 Y124.045 E25.58072
G1 X114.4 Y123.925 E25.58499
G1 X113.848 Y123.515 E25.59721
G1 X113.67 Y123.348 E25.60155
G1 X113.231 Y122.826 E25.61367
G1 X113.096 Y122.62 E25.61805
G1 X112.788 Y122.004 E25.63029
G1 X112.705 Y121.776 E25.63461
G1 X112.548 Y121.114 E25.6467
G1 X112.502 Y120.589 E25.65607
G1 X112.5 Y120.528 E25.65716
G1 X112.5 Y91.527 E26.17268
G1 X112.54 Y91.241 E26.17781
G1 X112.656 Y90.976 E26.18295
M204 S625
M205 X6 Y6
G0 F4285.7 X113.074 Y91.115
M204 S500
M205 X5 Y5
G1 F1200 X113.248 Y90.974 E26.18693
G1 X113.55 Y90.897 E26.19247
G1 X119.45 Y90.897 E26.29735
G1 X119.67 Y90.937 E26.30133
G1 X119.862 Y91.051 E26.3053
G1 X120.003 Y91.225 E26.30928
G1 X120.08 Y91.527 E26.31482
G1 X120.079 Y120.549 E26.83071
G1 X120.075 Y120.623 E26.83203
G1 X119.997 Y121.28 E26.84379
G1 X119.963 Y121.422 E26.84638
G1 X119.728 Y122.067 E26.85859
G1 X119.663 Y122.197 E26.86117
G1 X119.288 Y122.768 E26.87331
G1 X119.193 Y122.88 E26.87592
G1 X118.692 Y123.353 E26.88817
G1 X118.574 Y123.441 E26.89079
G1 X117.983 Y123.781 E26.90291
G1 X117.851 Y123.838 E26.90547
G1 X117.195 Y124.036 E26.91765
G1 X117.05 Y124.062 E26.92026
G1 X116.366 Y124.102 E26.93244
G1 X116.219 Y124.093 E26.93506
G1 X115.541 Y123.973 E26.9473
G1 X115.4 Y123.931 E26.94992
G1 X114.775 Y123.66 E26.96203
G1 X114.65 Y123.588 E26.96459
G1 X114.098 Y123.178 E26.97681
G1 X113.992 Y123.077 E26.97942
G1 X113.553 Y122.555 E26.99154
G1 X113.472 Y122.432 E26.99416
G1 X113.164 Y121.816 E27.0064
G1 X113.114 Y121.679 E27.00899
G1 X112.957 Y121.017 E27.02109
G1 X112.92 Y120.528 E27.0298
G1 X112.92 Y91.527 E27.54533
G1 X112.96 Y91.307 E27.5493
G1 X113.074 Y91.115 E27.55327
M204 S625
M205 X6 Y6
G0 F4285.7 X113.379 Y91.405
M204 S500
M205 X5 Y5
G1 F1200 X113.55 Y91.317 E27.55669
G1 X119.45 Y91.317 E27.66157
G1 X119.572 Y91.356 E27.66384
G1 X119.66 Y91.527 E27.66726
G1 X119.658 Y120.574 E28.1836
G1 X119.58 Y121.231 E28.19536
G1 X119.568 Y121.278 E28.19622
G1 X119.333 Y121.923 E28.20843
G1 X119.312 Y121.966 E28.20928
G1 X118.937 Y122.537 E28.22142
G1 X118.905 Y122.575 E28.2223
G1 X118.404 Y123.048 E28.23455
G1 X118.365 Y123.077 E28.23542
G1 X117.774 Y123.417 E28.24754
G1 X117.73 Y123.436 E28.24839
G1 X117.074 Y123.634 E28.26057
G1 X117.025 Y123.643 E28.26145
G1 X116.341 Y123.683 E28.27363
G1 X116.292 Y123.68 E28.27451
G1 X115.614 Y123.56 E28.28674
G1 X115.567 Y123.546 E28.28762
G1 X114.942 Y123.275 E28.29973
G1 X114.901 Y123.251 E28.30057
G1 X114.349 Y122.841 E28.31279
G1 X114.313 Y122.807 E28.31367
G1 X113.874 Y122.285 E28.3258
G1 X113.847 Y122.244 E28.32667
G1 X113.539 Y121.628 E28.33891
G1 X113.523 Y121.582 E28.33978
G1 X113.366 Y120.92 E28.35187
G1 X113.34 Y120.54 E28.35864
G1 X113.34 Y91.527 E28.87438
G1 X113.379 Y91.405 E28.87665
M204 S625
M205 X6 Y6
G1 F1500 E22.37665
;MESH:Middle adjusting piece cover.stl
G0 F4285.7 X114.164 Y92.141
G0 X118.78 Y92.197
G0 X119.24 Y91.947
M204 S500
M205 X5 Y5
;TYPE:WALL-OUTER
G1 F1500 E28.87665
G1 F1200 X119.239 Y120.533 E29.3848
G1 X119.164 Y121.162 E29.39606
G1 X118.948 Y121.754 E29.40726
G1 X118.597 Y122.289 E29.41864
G1 X118.136 Y122.724 E29.4299
G1 X117.583 Y123.043 E29.44125
G1 X116.978 Y123.224 E29.45248
G1 X116.34 Y123.262 E29.46384
G1 X115.714 Y123.151 E29.47514
G1 X115.128 Y122.898 E29.48648
G1 X114.623 Y122.521 E29.49769
G1 X114.212 Y122.033 E29.50903
G1 X113.926 Y121.461 E29.5204
G1 X113.779 Y120.844 E29.53167
G1 X113.76 Y120.515 E29.53753
G1 X113.76 Y91.737 E30.04909
G1 X119.03 Y91.737 E30.14277
G1 X119.24 Y91.737 E30.1465
G1 X119.24 Y91.947 E30.14892
M204 S625
M205 X6 Y6
G0 F4285.7 X119.24 Y92.147
G0 X118.778 Y92.199
G0 X118.778 Y92.227
G0 X117.87 Y120.065
G0 X117.435 Y120.291
M204 S500
M205 X5 Y5
G1 F1200 X117.229 Y119.896 E30.15684
G1 X116.868 Y119.637 E30.16473
G1 X116.428 Y119.566 E30.17266
G1 X116.005 Y119.7 E30.18054
G1 X115.686 Y120.01 E30.18845
G1 X115.54 Y120.43 E30.19635
G1 X115.598 Y120.872 E30.20428
G1 X115.848 Y121.239 E30.21217
G1 X116.238 Y121.456 E30.22011
G1 X116.682 Y121.475 E30.22801
G1 X117.089 Y121.292 E30.23594
G1 X117.359 Y120.958 E30.24357
G1 X117.44 Y120.736 E30.24777
G1 X117.435 Y120.291 E30.25568
M204 S625
M205 X6 Y6
G0 F4285.7 X117.343 Y120.114
G0 X117.824 Y120.193
M204 S500
M205 X5 Y5
;TYPE:WALL-INNER
G1 F1200 X117.532 Y119.633 E30.26531
G1 X117.021 Y119.267 E30.27488
G1 X116.399 Y119.166 E30.28449
G1 X115.799 Y119.356 E30.29407
G1 X115.348 Y119.795 E30.30366
G1 X115.141 Y120.389 E30.31325
G1 X115.223 Y121.015 E30.32287
G1 X115.578 Y121.535 E30.33246
G1 X116.129 Y121.842 E30.34207
G1 X116.758 Y121.869 E30.35166
G1 X117.334 Y121.61 E30.36129
G1 X117.703 Y121.153 E30.37024
G1 X117.831 Y120.803 E30.37591
G1 X117.824 Y120.193 E30.38521
M204 S625
M205 X6 Y6
G0 F4285.7 X118.134 Y120.009
M204 S500
M205 X5 Y5
G1 F1200 X117.811 Y119.39 E30.39585
G1 X117.162 Y118.925 E30.40801
G1 X116.372 Y118.797 E30.42021
G1 X115.609 Y119.039 E30.4324
G1 X115.036 Y119.596 E30.44458
G1 X114.866 Y120.084 E30.45245
G1 X114.773 Y120.351 E30.45676
G1 X114.789 Y120.478 E30.45871
G1 X114.818 Y120.696 E30.46206
G1 X114.877 Y121.147 E30.46899
G1 X115.085 Y121.452 E30.47462
G1 X115.329 Y121.808 E30.48119
G1 X115.651 Y121.987 E30.48681
G1 X116.028 Y122.198 E30.49339
G1 X116.397 Y122.213 E30.49902
G1 X116.828 Y122.232 E30.50559
G1 X117.163 Y122.082 E30.51118
G1 X117.56 Y121.903 E30.51782
G1 X117.793 Y121.615 E30.52346
G1 X118.021 Y121.333 E30.52899
G1 X118.18 Y120.896 E30.53607
G1 X118.192 Y120.865 E30.53658
G1 X118.188 Y120.498 E30.54217
G1 X118.183 Y120.103 E30.54819
G1 X118.134 Y120.009 E30.5498
M204 S625
M205 X6 Y6
G0 F4285.7 X115.187 Y109.135
G0 X115.594 Y108.863
M204 S500
M205 X5 Y5
;TYPE:WALL-OUTER
G1 F1200 X115.843 Y109.235 E30.55776
G1 X116.231 Y109.454 E30.56568
G1 X116.675 Y109.477 E30.57358
G1 X117.083 Y109.297 E30.58151
G1 X117.366 Y108.954 E30.58942
G1 X117.466 Y108.519 E30.59735
G1 X117.359 Y108.087 E30.60526
G1 X117.071 Y107.749 E30.61316
G1 X116.66 Y107.575 E30.62109
G1 X116.215 Y107.605 E30.62902
G1 X115.832 Y107.83 E30.63691
G1 X115.597 Y108.194 E30.64462
G1 X115.544 Y108.421 E30.64876
G1 X115.594 Y108.863 E30.65667
M204 S625
M205 X6 Y6
G0 F4285.7 X115.705 Y109.029
G0 X115.217 Y109.001
M204 S500
M205 X5 Y5
;TYPE:WALL-INNER
G1 F1200 X115.571 Y109.529 E30.66635
G1 X116.119 Y109.839 E30.67594
G1 X116.748 Y109.871 E30.68554
G1 X117.325 Y109.617 E30.69515
G1 X117.725 Y109.131 E30.70474
G1 X117.867 Y108.516 E30.71435
G1 X117.715 Y107.904 E30.72396
G1 X117.308 Y107.426 E30.73353
G1 X116.726 Y107.18 E30.74315
G1 X116.097 Y107.222 E30.75276
G1 X115.555 Y107.541 E30.76234
G1 X115.233 Y108.039 E30.77138
G1 X115.149 Y108.398 E30.777
G1 X115.217 Y109.001 E30.78624
M204 S625
M205 X6 Y6
G0 F4285.7 X114.869 Y109.129
M204 S500
M205 X5 Y5
G1 F1200 X115.319 Y109.8 E30.79855
G1 X116.016 Y110.194 E30.81075
G1 X116.815 Y110.235 E30.82294
G1 X117.548 Y109.912 E30.83515
G1 X118.057 Y109.294 E30.84734
G1 X118.133 Y108.966 E30.85247
G1 X118.237 Y108.513 E30.85956
G1 X118.133 Y108.093 E30.86615
G1 X118.044 Y107.735 E30.87177
G1 X117.527 Y107.128 E30.88392
G1 X116.787 Y106.815 E30.89616
G1 X115.988 Y106.868 E30.90836
G1 X115.299 Y107.274 E30.92055
G1 X114.897 Y107.896 E30.93183
G1 X114.867 Y108.021 E30.93379
G1 X114.784 Y108.377 E30.93936
G1 X114.869 Y109.129 E30.95089
M204 S625
M205 X6 Y6
G0 F4285.7 X117.87 Y96.809
G0 X117.87 Y96.065
G0 X117.435 Y96.291
M204 S500
M205 X5 Y5
;TYPE:WALL-OUTER
G1 F1200 X117.229 Y95.896 E30.95881
G1 X116.868 Y95.637 E30.96671
G1 X116.428 Y95.566 E30.97463
G1 X116.005 Y95.7 E30.98252
G1 X115.686 Y96.01 E30.99042
G1 X115.54 Y96.43 E30.99833
G1 X115.598 Y96.872 E31.00625
G1 X115.848 Y97.239 E31.01415
G1 X116.238 Y97.456 E31.02208
G1 X116.682 Y97.475 E31.02998
G1 X117.089 Y97.292 E31.03791
G1 X117.359 Y96.958 E31.04555
G1 X117.44 Y96.736 E31.04975
G1 X117.435 Y96.291 E31.05766
M204 S625
M205 X6 Y6
G0 F4285.7 X117.343 Y96.114
G0 X117.824 Y96.193
M204 S500
M205 X5 Y5
;TYPE:WALL-INNER
G1 F1200 X117.532 Y95.633 E31.06728
G1 X117.021 Y95.267 E31.07686
G1 X116.399 Y95.166 E31.08646
G1 X115.799 Y95.356 E31.09605
G1 X115.348 Y95.795 E31.10564
G1 X115.141 Y96.389 E31.11522
G1 X115.223 Y97.015 E31.12484
G1 X115.578 Y97.535 E31.13443
G1 X116.129 Y97.842 E31.14404
G1 X116.758 Y97.869 E31.15364
G1 X117.334 Y97.61 E31.16326
G1 X117.703 Y97.153 E31.17221
G1 X117.831 Y96.803 E31.17789
G1 X117.824 Y96.193 E31.18718
M204 S625
M205 X6 Y6
G0 F4285.7 X118.134 Y96.009
M204 S500
M205 X5 Y5
G1 F1200 X117.811 Y95.39 E31.19782
G1 X117.162 Y94.925 E31.20999
G1 X116.372 Y94.797 E31.22218
G1 X115.609 Y95.039 E31.23438
G1 X115.036 Y95.596 E31.24655
G1 X114.866 Y96.084 E31.25443
G1 X114.773 Y96.351 E31.25873
G1 X114.868 Y97.082 E31.26996
G1 X114.877 Y97.147 E31.27096
G1 X115.329 Y97.808 E31.28317
G1 X116.028 Y98.198 E31.29536
G1 X116.828 Y98.232 E31.30756
G1 X117.56 Y97.903 E31.31979
G1 X118.021 Y97.333 E31.33096
G1 X118.133 Y97.026 E31.33594
G1 X118.192 Y96.865 E31.33855
G1 X118.183 Y96.103 E31.35016
G1 X118.134 Y96.009 E31.35178
M204 S625
M205 X6 Y6
G0 F4285.7 X118.78 Y92.197
G0 X118.85 Y92.127
M204 S500
M205 X5 Y5
G1 F1200 X118.85 Y92.306 E31.3545
G1 X118.849 Y120.512 E31.78427
G1 X118.782 Y121.071 E31.79284
G1 X118.598 Y121.577 E31.80105
G1 X118.299 Y122.033 E31.80936
G1 X117.9 Y122.409 E31.81771
G1 X117.428 Y122.682 E31.82602
G1 X116.906 Y122.838 E31.83432
G1 X116.863 Y122.84 E31.83498
G1 X116.407 Y122.867 E31.84194
G1 X116.364 Y122.87 E31.84259
G1 X115.827 Y122.775 E31.8509
G1 X115.325 Y122.558 E31.85923
G1 X114.89 Y122.234 E31.8675
G1 X114.541 Y121.819 E31.87576
G1 X114.294 Y121.325 E31.88418
G1 X114.285 Y121.284 E31.88481
G1 X114.174 Y120.819 E31.8921
G1 X114.166 Y120.788 E31.89259
G1 X114.165 Y120.757 E31.89306
G1 X114.152 Y120.538 E31.8964
G1 X114.15 Y120.515 E31.89675
G1 X114.15 Y92.127 E32.32929
G1 X118.671 Y92.127 E32.39817
G1 X118.85 Y92.127 E32.39994
M204 S625
M205 X6 Y6
G0 F4285.7 X118.49 Y92.487
M204 S500
M205 X5 Y5
G1 F1200 X118.49 Y95.997 E32.45342
G1 X118.49 Y96.103 E32.45492
G1 X118.49 Y96.865 E32.4647
G1 X118.49 Y97.037 E32.4671
G1 X118.49 Y108.08 E32.63536
G1 X118.49 Y108.513 E32.64099
G1 X118.49 Y108.978 E32.64704
G1 X118.49 Y119.997 E32.81493
G1 X118.49 Y120.103 E32.81643
G1 X118.489 Y120.494 E32.82147
G1 X118.442 Y120.894 E32.82625
G1 X118.43 Y120.987 E32.82741
G1 X118.274 Y121.415 E32.83253
G1 X118.236 Y121.473 E32.83358
G1 X118.022 Y121.799 E32.83817
G1 X117.726 Y122.078 E32.84286
G1 X117.684 Y122.118 E32.84374
G1 X117.284 Y122.349 E32.84909
G1 X116.898 Y122.464 E32.85373
G1 X116.841 Y122.482 E32.85464
G1 X116.385 Y122.509 E32.85998
G1 X115.986 Y122.438 E32.86469
G1 X115.931 Y122.428 E32.86541
G1 X115.508 Y122.245 E32.87077
G1 X115.184 Y122.004 E32.87544
G1 X115.14 Y121.971 E32.87615
G1 X114.843 Y121.618 E32.88151
G1 X114.662 Y121.255 E32.88617
G1 X114.634 Y121.2 E32.88712
G1 X114.523 Y120.735 E32.89269
G1 X114.51 Y120.515 E32.89539
G1 X114.51 Y120.351 E32.89735
G1 X114.51 Y120.068 E32.9011
G1 X114.51 Y109.129 E33.06777
G1 X114.51 Y108.377 E33.07787
G1 X114.51 Y108.011 E33.08279
G1 X114.51 Y97.088 E33.24922
G1 X114.51 Y96.351 E33.25895
G1 X114.51 Y96.068 E33.2627
G1 X114.51 Y92.487 E33.31726
G1 X118.49 Y92.487 E33.3779
M204 S625
M205 X6 Y6
G0 F4285.7 X118.11 Y92.867
M204 S500
M205 X5 Y5
;TYPE:SKIN
G1 F1200 X118.11 Y95.142 E33.41834
G1 X118.106 Y95.134 E33.4185
G1 X117.31 Y94.564 E33.4359
G1 X116.343 Y94.407 E33.45332
G1 X115.408 Y94.704 E33.47076
G1 X114.89 Y95.209 E33.48362
G1 X114.89 Y92.867 E33.52525
G1 X118.11 Y92.867 E33.58249
M204 S625
M205 X6 Y6
G0 F4285.7 X117.931 Y93.578
M204 S500
M205 X5 Y5
G1 F1200 X117.398 Y93.045 E33.59589
M204 S625
M205 X6 Y6
G0 F4285.7 X116.804 Y93.045
M204 S500
M205 X5 Y5
G1 F1200 X117.931 Y94.172 E33.62422
M204 S625
M205 X6 Y6
G0 F4285.7 X117.919 Y94.754
M204 S500
M205 X5 Y5
G1 F1200 X116.21 Y93.045 E33.66718
M204 S625
M205 X6 Y6
G0 F4285.7 X115.616 Y93.045
M204 S500
M205 X5 Y5
G1 F1200 X116.886 Y94.315 E33.69911
M204 S625
M205 X6 Y6
G0 F4285.7 X116.231 Y94.254
M204 S500
M205 X5 Y5
G1 F1200 X115.067 Y93.09 E33.72837
M204 S625
M205 X6 Y6
G0 F4285.7 X115.067 Y93.684
M204 S500
M205 X5 Y5
G1 F1200 X115.78 Y94.398 E33.74631
M204 S625
M205 X6 Y6
G0 F4285.7 X115.33 Y94.541
M204 S500
M205 X5 Y5
G1 F1200 X115.067 Y94.278 E33.75292
M204 S625
M205 X6 Y6
G0 F4285.7 X114.89 Y97.84
M204 S500
M205 X5 Y5
G1 F1200 X115.065 Y98.097 E33.75844
G1 X115.922 Y98.574 E33.77588
G1 X116.902 Y98.616 E33.79332
G1 X117.799 Y98.213 E33.8108
G1 X118.11 Y97.828 E33.81959
G1 X118.109 Y107.226 E33.98665
G1 X117.757 Y106.813 E33.9963
G1 X116.852 Y106.43 E34.01377
G1 X115.872 Y106.495 E34.03123
G1 X115.029 Y106.993 E34.04863
G1 X114.89 Y107.207 E34.05317
G1 X114.89 Y97.84 E34.21967
M204 S625
M205 X6 Y6
G0 F4285.7 X117.534 Y98.527
M204 S500
M205 X5 Y5
G1 F1200 X117.931 Y98.924 E34.22965
M204 S625
M205 X6 Y6
G0 F4285.7 X117.931 Y99.518
M204 S500
M205 X5 Y5
G1 F1200 X117.125 Y98.712 E34.24992
M204 S625
M205 X6 Y6
G0 F4285.7 X116.601 Y98.782
M204 S500
M205 X5 Y5
G1 F1200 X117.931 Y100.112 E34.28335
M204 S625
M205 X6 Y6
G0 F4285.7 X117.931 Y100.706
M204 S500
M205 X5 Y5
G1 F1200 X115.979 Y98.754 E34.33242
M204 S625
M205 X6 Y6
G0 F4285.7 X115.067 Y99.03
M204 S500
M205 X5 Y5
G1 F1200 X117.931 Y101.894 E34.40442
M204 S625
M205 X6 Y6
G0 F4285.7 X117.931 Y101.3
M204 S500
M205 X5 Y5
G1 F1200 X115.067 Y98.436 E34.47642
M204 S625
M205 X6 Y6
G0 F4285.7 X115.067 Y99.624
M204 S500
M205 X5 Y5
G1 F1200 X117.931 Y102.488 E34.54842
M204 S625
M205 X6 Y6
G0 F4285.7 X117.931 Y103.082
M204 S500
M205 X5 Y5
G1 F1200 X115.067 Y100.218 E34.62042
M204 S625
M205 X6 Y6
G0 F4285.7 X115.067 Y100.812
M204 S500
M205 X5 Y5
G1 F1200 X117.931 Y103.675 E34.6924
M204 S625
M205 X6 Y6
G0 F4285.7 X117.931 Y104.269
M204 S500
M205 X5 Y5
G1 F1200 X115.067 Y101.406 E34.76439
M204 S625
M205 X6 Y6
G0 F4285.7 X115.067 Y102
M204 S500
M205 X5 Y5
G1 F1200 X117.931 Y104.863 E34.83637
M204 S625
M205 X6 Y6
G0 F4285.7 X117.931 Y105.457
M204 S500
M205 X5 Y5
G1 F1200 X115.067 Y102.594 E34.90836
M204 S625
M205 X6 Y6
G0 F4285.7 X115.067 Y103.188
M204 S500
M205 X5 Y5
G1 F1200 X117.931 Y106.051 E34.98034
M204 S625
M205 X6 Y6
G0 F4285.7 X117.931 Y106.645
M204 S500
M205 X5 Y5
G1 F1200 X115.067 Y103.782 E35.05233
M204 S625
M205 X6 Y6
G0 F4285.7 X115.067 Y104.376
M204 S500
M205 X5 Y5
G1 F1200 X116.98 Y106.289 E35.10042
M204 S625
M205 X6 Y6
G0 F4285.7 X116.379 Y106.281
M204 S500
M205 X5 Y5
G1 F1200 X115.067 Y104.97 E35.13339
M204 S625
M205 X6 Y6
G0 F4285.7 X115.067 Y105.563
M204 S500
M205 X5 Y5
G1 F1200 X115.822 Y106.319 E35.15238
M204 S625
M205 X6 Y6
G0 F4285.7 X115.447 Y106.537
M204 S500
M205 X5 Y5
G1 F1200 X115.067 Y106.157 E35.16193
M204 S625
M205 X6 Y6
G0 F4285.7 X114.89 Y109.844
M204 S500
M205 X5 Y5
G1 F1200 X115.053 Y110.087 E35.16714
G1 X115.907 Y110.569 E35.18457
G1 X116.885 Y110.619 E35.20198
G1 X117.784 Y110.223 E35.21944
G1 X118.109 Y109.829 E35.22852
G1 X118.109 Y119.14 E35.39403
G1 X118.106 Y119.134 E35.39415
G1 X117.31 Y118.564 E35.41155
G1 X116.343 Y118.407 E35.42897
G1 X115.408 Y118.704 E35.4464
G1 X114.89 Y119.209 E35.45926
G1 X114.89 Y109.844 E35.62574
M204 S625
M205 X6 Y6
G0 F4285.7 X117.618 Y110.491
M204 S500
M205 X5 Y5
G1 F1200 X117.931 Y110.803 E35.63359
M204 S625
M205 X6 Y6
G0 F4285.7 X117.931 Y111.397
M204 S500
M205 X5 Y5
G1 F1200 X117.205 Y110.672 E35.65183
M204 S625
M205 X6 Y6
G0 F4285.7 X116.729 Y110.789
M204 S500
M205 X5 Y5
G1 F1200 X117.931 Y111.991 E35.68205
M204 S625
M205 X6 Y6
G0 F4285.7 X117.931 Y112.585
M204 S500
M205 X5 Y5
G1 F1200 X116.102 Y110.756 E35.72803
M204 S625
M205 X6 Y6
G0 F4285.7 X115.067 Y110.909
M204 S500
M205 X5 Y5
G1 F1200 X117.931 Y113.773 E35.80003
M204 S625
M205 X6 Y6
G0 F4285.7 X117.931 Y113.179
M204 S500
M205 X5 Y5
G1 F1200 X115.067 Y110.315 E35.87202
M204 S625
M205 X6 Y6
G0 F4285.7 X115.067 Y111.503
M204 S500
M205 X5 Y5
G1 F1200 X117.931 Y114.367 E35.94402
M204 S625
M205 X6 Y6
G0 F4285.7 X117.931 Y114.961
M104 S200
M204 S500
M205 X5 Y5
G1 F1200 X115.067 Y112.097 E36.01602
M204 S625
M205 X6 Y6
G0 F4285.7 X115.067 Y112.691
M204 S500
M205 X5 Y5
G1 F1200 X117.931 Y115.555 E36.08802
M204 S625
M205 X6 Y6
G0 F4285.7 X117.931 Y116.149
M204 S500
M205 X5 Y5
G1 F1200 X115.067 Y113.285 E36.16002
M204 S625
M205 X6 Y6
G0 F4285.7 X115.067 Y113.879
M204 S500
M205 X5 Y5
G1 F1200 X117.931 Y116.743 E36.23201
M204 S625
M205 X6 Y6
G0 F4285.7 X117.931 Y117.337
M204 S500
M205 X5 Y5
G1 F1200 X115.067 Y114.473 E36.30401
M204 S625
M205 X6 Y6
G0 F4285.7 X115.067 Y115.067
M204 S500
M205 X5 Y5
G1 F1200 X117.931 Y117.931 E36.37601
M204 S625
M205 X6 Y6
G0 F4285.7 X117.931 Y118.525
M204 S500
M205 X5 Y5
G1 F1200 X115.067 Y115.661 E36.44801
M204 S625
M205 X6 Y6
G0 F4285.7 X115.067 Y116.255
M204 S500
M205 X5 Y5
G1 F1200 X117.173 Y118.361 E36.50095
M204 S625
M205 X6 Y6
G0 F4285.7 X116.464 Y118.246
M204 S500
M205 X5 Y5
G1 F1200 X115.067 Y116.849 E36.53607
M204 S625
M205 X6 Y6
G0 F4285.7 X115.067 Y117.443
M204 S500
M205 X5 Y5
G1 F1200 X115.964 Y118.339 E36.55861
M204 S625
M205 X6 Y6
G0 F4285.7 X115.512 Y118.482
M204 S500
M205 X5 Y5
G1 F1200 X115.067 Y118.037 E36.5698
M204 S625
M205 X6 Y6
G0 F4285.7 X115.067 Y118.631
M204 S500
M205 X5 Y5
G1 F1200 X115.145 Y118.709 E36.57176
M204 S625
M205 X6 Y6
;MESH:NONMESH
G0 F600 X115.145 Y118.709 Z0.37
G0 F4285.7 X115.11 Y108.396
G0 X117.87 Y96.809
G0 X117.705 Y95.516
;TIME_ELAPSED:117.397429
;LAYER:1
M106 S85
M204 S750
M205 X7.5 Y7.5
;TYPE:WALL-INNER
;MESH:Middle adjusting piece cover.stl
G1 F1500 X117.122 Y95.084 E36.57517
G1 X116.409 Y94.957 E36.57857
G1 X115.714 Y95.166 E36.58199
G1 X115.187 Y95.662 E36.58539
G1 X114.938 Y96.344 E36.5888
G1 X115.022 Y97.065 E36.59222
G1 X115.421 Y97.671 E36.59563
G1 X116.049 Y98.033 E36.59904
G1 X116.773 Y98.076 E36.60245
G1 X117.438 Y97.788 E36.60586
G1 X117.874 Y97.27 E36.60904
G1 X118.03 Y96.841 E36.61119
G1 X118.03 Y96.166 E36.61436
G1 X117.705 Y95.516 E36.61778
M204 S2812
M205 X18 Y18
G0 F9642.9 X117.469 Y95.714
M204 S750
M205 X7.5 Y7.5
G1 F1500 X117 Y95.367 E36.62052
G1 X116.427 Y95.265 E36.62326
G1 X115.868 Y95.433 E36.62601
G1 X115.444 Y95.832 E36.62874
G1 X115.244 Y96.38 E36.63149
G1 X115.312 Y96.959 E36.63423
G1 X115.633 Y97.447 E36.63698
G1 X116.137 Y97.738 E36.63971
G1 X116.719 Y97.772 E36.64245
G1 X117.254 Y97.541 E36.64519
G1 X117.61 Y97.118 E36.64779
G1 X117.73 Y96.788 E36.64945
G1 X117.73 Y96.237 E36.65204
G1 X117.469 Y95.714 E36.65479
M204 S2812
M205 X18 Y18
G0 F9642.9 X117.213 Y95.929
M204 S500
M205 X5 Y5
;TYPE:WALL-OUTER
G1 F1200 X116.868 Y95.674 E36.65714
G1 X116.446 Y95.599 E36.65949
G1 X116.035 Y95.722 E36.66184
G1 X115.723 Y96.016 E36.6642
G1 X115.576 Y96.419 E36.66655
G1 X115.626 Y96.845 E36.6689
G1 X115.862 Y97.204 E36.67126
G1 X116.233 Y97.418 E36.67361
G1 X116.661 Y97.443 E36.67596
G1 X117.055 Y97.273 E36.67832
G1 X117.324 Y96.953 E36.68061
G1 X117.405 Y96.731 E36.68191
G1 X117.405 Y96.314 E36.68419
G1 X117.213 Y95.929 E36.68655
M204 S2812
M205 X18 Y18
G0 F9642.9 X117.053 Y95.811
G0 X117.282 Y95.502
G0 X117.306 Y95.47
G0 X117.768 Y96.228
G0 X117.801 Y108.553
G0 X116.74 Y110.082
M204 S750
M205 X7.5 Y7.5
;TYPE:WALL-INNER
G1 F1500 X117.415 Y109.807 E36.68998
G1 X117.89 Y109.259 E36.69339
G1 X118.07 Y108.56 E36.69679
G1 X117.921 Y107.852 E36.70019
G1 X117.463 Y107.286 E36.70361
G1 X116.805 Y106.988 E36.70701
G1 X116.081 Y107.013 E36.71042
G1 X115.445 Y107.364 E36.71383
G1 X115.063 Y107.919 E36.717
G1 X114.948 Y108.358 E36.71914
G1 X115.012 Y109.034 E36.72233
G1 X115.398 Y109.65 E36.72575
G1 X116.02 Y110.022 E36.72916
G1 X116.74 Y110.082 E36.73255
M204 S2812
M205 X18 Y18
G0 F9642.9 X116.693 Y109.777
M204 S750
M205 X7.5 Y7.5
G1 F1500 X117.235 Y109.556 E36.73531
G1 X117.617 Y109.116 E36.73805
G1 X117.762 Y108.553 E36.74078
G1 X117.642 Y107.985 E36.74351
G1 X117.274 Y107.53 E36.74626
G1 X116.745 Y107.29 E36.74899
G1 X116.163 Y107.31 E36.75173
G1 X115.652 Y107.592 E36.75448
G1 X115.34 Y108.046 E36.75707
G1 X115.252 Y108.383 E36.75871
G1 X115.304 Y108.935 E36.76131
G1 X115.614 Y109.43 E36.76406
G1 X116.114 Y109.729 E36.7668
G1 X116.693 Y109.777 E36.76953
M204 S2812
M205 X18 Y18
G0 F9642.9 X116.642 Y109.447
M204 S500
M205 X5 Y5
;TYPE:WALL-OUTER
G1 F1200 X117.04 Y109.284 E36.77189
G1 X117.321 Y108.961 E36.77424
G1 X117.428 Y108.546 E36.77659
G1 X117.34 Y108.128 E36.77893
G1 X117.07 Y107.794 E36.78129
G1 X116.68 Y107.617 E36.78364
G1 X116.252 Y107.632 E36.78599
G1 X115.876 Y107.839 E36.78835
G1 X115.64 Y108.183 E36.79063
G1 X115.581 Y108.41 E36.79192
G1 X115.62 Y108.828 E36.79422
G1 X115.848 Y109.191 E36.79658
G1 X116.216 Y109.411 E36.79893
G1 X116.642 Y109.447 E36.80127
M204 S2812
M205 X18 Y18
G0 F9642.9 X116.827 Y109.372
G0 X116.971 Y109.728
G0 X116.985 Y109.765
G0 X117.705 Y119.516
M204 S750
M205 X7.5 Y7.5
;TYPE:WALL-INNER
G1 F1500 X117.122 Y119.084 E36.80469
G1 X116.409 Y118.957 E36.80809
G1 X115.714 Y119.166 E36.8115
G1 X115.187 Y119.662 E36.81491
G1 X114.938 Y120.344 E36.81832
G1 X115.022 Y121.065 E36.82174
G1 X115.421 Y121.671 E36.82515
G1 X116.049 Y122.033 E36.82856
G1 X116.773 Y122.076 E36.83197
G1 X117.438 Y121.788 E36.83538
G1 X117.874 Y121.27 E36.83856
G1 X118.03 Y120.841 E36.84071
G1 X118.03 Y120.166 E36.84388
G1 X117.705 Y119.516 E36.8473
M204 S2812
M205 X18 Y18
G0 F9642.9 X117.469 Y119.714
M204 S750
M205 X7.5 Y7.5
G1 F1500 X117 Y119.367 E36.85004
G1 X116.427 Y119.265 E36.85278
G1 X115.868 Y119.433 E36.85552
G1 X115.444 Y119.832 E36.85826
G1 X115.244 Y120.38 E36.861
G1 X115.312 Y120.959 E36.86375
G1 X115.633 Y121.447 E36.86649
G1 X116.137 Y121.738 E36.86923
G1 X116.719 Y121.772 E36.87197
G1 X117.254 Y121.541 E36.87471
G1 X117.61 Y121.118 E36.87731
G1 X117.73 Y120.788 E36.87896
G1 X117.73 Y120.237 E36.88155
G1 X117.469 Y119.714 E36.8843
M204 S2812
M205 X18 Y18
G0 F9642.9 X117.213 Y119.929
M204 S500
M205 X5 Y5
;TYPE:WALL-OUTER
G1 F1200 X116.868 Y119.674 E36.88666
G1 X116.446 Y119.599 E36.88901
G1 X116.035 Y119.722 E36.89136
G1 X115.723 Y120.016 E36.89371
G1 X115.576 Y120.419 E36.89607
G1 X115.626 Y120.845 E36.89842
G1 X115.862 Y121.204 E36.90078
G1 X116.233 Y121.418 E36.90313
G1 X116.661 Y121.443 E36.90548
G1 X117.055 Y121.273 E36.90783
G1 X117.324 Y120.953 E36.91013
G1 X117.405 Y120.731 E36.91142
G1 X117.405 Y120.314 E36.91371
G1 X117.213 Y119.929 E36.91607
M204 S2812
M205 X18 Y18
G0 F9642.9 X117.053 Y119.811
G0 X117.282 Y119.502
G0 X117.306 Y119.47
G0 X118.65 Y120.477
M204 S750
M205 X7.5 Y7.5
;TYPE:WALL-INNER
G1 F1500 X118.585 Y121.028 E36.91868
G1 X118.419 Y121.486 E36.92097
G1 X118.14 Y121.909 E36.92336
G1 X117.784 Y122.245 E36.92566
G1 X117.345 Y122.499 E36.92804
G1 X116.871 Y122.64 E36.93037
G1 X116.374 Y122.67 E36.93271
G1 X115.886 Y122.583 E36.93504
G1 X115.431 Y122.387 E36.93737
G1 X115.027 Y122.085 E36.93974
G1 X114.705 Y121.704 E36.94209
G1 X114.484 Y121.263 E36.94441
G1 X114.365 Y120.756 E36.94686
G1 X114.35 Y120.5 E36.94806
G1 X114.35 Y92.327 E37.08055
G1 X118.65 Y92.327 E37.10077
G1 X118.65 Y120.477 E37.23315
M204 S2812
M205 X18 Y18
G0 F9642.9 X118.95 Y120.495
M204 S750
M205 X7.5 Y7.5
G1 F1500 X118.879 Y121.097 E37.236
G1 X118.688 Y121.623 E37.23863
G1 X118.373 Y122.102 E37.24133
G1 X117.964 Y122.488 E37.24397
G1 X117.467 Y122.775 E37.24667
G1 X117.431 Y122.785 E37.24685
G1 X116.924 Y122.937 E37.24934
G1 X116.392 Y122.968 E37.25184
G1 X116.356 Y122.971 E37.25201
G1 X115.8 Y122.872 E37.25467
G1 X115.278 Y122.647 E37.25734
G1 X114.822 Y122.307 E37.26002
G1 X114.477 Y121.897 E37.26254
G1 X114.452 Y121.868 E37.26272
G1 X114.2 Y121.366 E37.26536
G1 X114.066 Y120.797 E37.26811
G1 X114.05 Y120.517 E37.26943
G1 X114.05 Y92.027 E37.4034
G1 X118.95 Y92.027 E37.42645
G1 X118.95 Y120.495 E37.56032
M204 S2812
M205 X18 Y18
G0 F9642.9 X119.275 Y120.516
M204 S500
M205 X5 Y5
;TYPE:WALL-OUTER
G1 F1200 X119.198 Y121.17 E37.56394
G1 X118.979 Y121.772 E37.56745
G1 X118.625 Y122.311 E37.57099
G1 X118.158 Y122.752 E37.57451
G1 X117.599 Y123.074 E37.57805
G1 X116.981 Y123.259 E37.58159
G1 X116.335 Y123.297 E37.58514
G1 X115.707 Y123.186 E37.58864
G1 X115.113 Y122.929 E37.59219
G1 X114.598 Y122.546 E37.59571
G1 X114.18 Y122.049 E37.59927
G1 X113.893 Y121.477 E37.60279
G1 X113.744 Y120.845 E37.60635
G1 X113.725 Y120.517 E37.60815
G1 X113.725 Y91.702 E37.76624
G1 X119.275 Y91.702 E37.79669
G1 X119.275 Y120.516 E37.95478
M204 S2812
M205 X18 Y18
G0 F9642.9 X119.252 Y120.714
G0 X118.87 Y120.668
G0 X118.335 Y120.072
M204 S500
M205 X5 Y5
;TYPE:SKIN
G1 F1500 X117.953 Y119.308 E37.95946
G1 X117.25 Y118.787 E37.96426
G1 X116.39 Y118.634 E37.96906
G1 X115.552 Y118.886 E37.97386
G1 X114.916 Y119.484 E37.97865
G1 X114.665 Y120.174 E37.98268
G1 X114.665 Y108.714 E38.04555
G1 X114.705 Y109.139 E38.04789
G1 X115.171 Y109.881 E38.0527
G1 X115.921 Y110.33 E38.05749
G1 X116.789 Y110.402 E38.06227
G1 X117.604 Y110.07 E38.0671
G1 X118.176 Y109.41 E38.07189
G1 X118.335 Y108.792 E38.07539
G1 X118.335 Y120.072 E38.13728
M204 S2812
M205 X18 Y18
G0 F9642.9 X118.335 Y108.292
M204 S500
M205 X5 Y5
G1 F1500 X118.213 Y107.713 E38.14053
G1 X117.661 Y107.03 E38.14535
G1 X116.868 Y106.671 E38.15012
G1 X115.995 Y106.7 E38.15491
G1 X115.228 Y107.124 E38.15972
G1 X114.773 Y107.786 E38.16413
G1 X114.665 Y108.196 E38.16645
G1 X114.665 Y96.719 E38.22942
G1 X114.718 Y97.176 E38.23195
G1 X115.199 Y97.906 E38.23674
G1 X115.956 Y98.343 E38.24154
G1 X116.829 Y98.395 E38.24634
G1 X117.631 Y98.048 E38.25113
G1 X118.151 Y97.43 E38.25556
G1 X118.335 Y96.924 E38.25852
G1 X118.335 Y108.292 E38.32089
M204 S2812
M205 X18 Y18
G0 F9642.9 X118.335 Y96.072
M204 S500
M205 X5 Y5
G1 F1500 X117.953 Y95.308 E38.32557
G1 X117.25 Y94.787 E38.33037
G1 X116.39 Y94.634 E38.33516
G1 X115.552 Y94.886 E38.33997
G1 X114.916 Y95.484 E38.34476
G1 X114.665 Y96.174 E38.34878
G1 X114.665 Y92.642 E38.36816
G1 X118.335 Y92.642 E38.3883
G1 X118.335 Y96.072 E38.40712
M204 S2812
M205 X18 Y18
G0 F9642.9 X115.104 Y92.785
M204 S500
M205 X5 Y5
G1 F1500 X114.807 Y93.082 E38.40942
M204 S2812
M205 X18 Y18
G0 F9642.9 X114.807 Y93.577
M204 S500
M205 X5 Y5
G1 F1500 X115.599 Y92.785 E38.41556
M204 S2812
M205 X18 Y18
G0 F9642.9 X116.094 Y92.785
M204 S500
M205 X5 Y5
G1 F1500 X114.807 Y94.072 E38.42555
M204 S2812
M205 X18 Y18
G0 F9642.9 X114.807 Y94.567
M204 S500
M205 X5 Y5
G1 F1500 X116.589 Y92.785 E38.43938
M204 S2812
M205 X18 Y18
G0 F9642.9 X117.084 Y92.785
M204 S500
M205 X5 Y5
G1 F1500 X114.807 Y95.062 E38.45704
M204 S2812
M205 X18 Y18
G0 F9642.9 X115.659 Y94.704
M204 S500
M205 X5 Y5
G1 F1500 X117.579 Y92.785 E38.47194
M204 S2812
M205 X18 Y18
G0 F9642.9 X118.074 Y92.785
M204 S500
M205 X5 Y5
G1 F1500 X116.367 Y94.491 E38.48518
M204 S2812
M205 X18 Y18
G0 F9642.9 X116.792 Y94.561
M204 S500
M205 X5 Y5
G1 F1500 X118.191 Y93.162 E38.49603
M204 S2812
M205 X18 Y18
G0 F9642.9 X118.191 Y93.657
M204 S500
M205 X5 Y5
G1 F1500 X117.212 Y94.636 E38.50363
M204 S2812
M205 X18 Y18
G0 F9642.9 X117.528 Y94.815
M204 S500
M205 X5 Y5
G1 F1500 X118.191 Y94.152 E38.50877
M204 S2812
M205 X18 Y18
G0 F9642.9 X118.191 Y94.647
M204 S500
M205 X5 Y5
G1 F1500 X117.812 Y95.026 E38.51171
M204 S2812
M205 X18 Y18
G0 F9642.9 X118.084 Y95.249
M204 S500
M205 X5 Y5
G1 F1500 X118.191 Y95.142 E38.51254
M204 S2812
M205 X18 Y18
G0 F9642.9 X118.19 Y98.113
M204 S500
M205 X5 Y5
G1 F1500 X114.807 Y101.495 E38.53879
M204 S2812
M205 X18 Y18
G0 F9642.9 X114.807 Y101.001
M204 S500
M205 X5 Y5
G1 F1500 X117.585 Y98.223 E38.56034
M204 S2812
M205 X18 Y18
G0 F9642.9 X118.19 Y98.608
M204 S500
M205 X5 Y5
G1 F1500 X114.807 Y101.99 E38.58659
M204 S2812
M205 X18 Y18
G0 F9642.9 X114.807 Y102.485
M204 S500
M205 X5 Y5
G1 F1500 X118.19 Y99.103 E38.61283
M204 S2812
M205 X18 Y18
G0 F9642.9 X118.19 Y99.598
M204 S500
M205 X5 Y5
G1 F1500 X114.807 Y102.98 E38.63908
M204 S2812
M205 X18 Y18
G0 F9642.9 X114.807 Y103.475
M204 S500
M205 X5 Y5
G1 F1500 X118.19 Y100.093 E38.66532
M204 S2812
M205 X18 Y18
G0 F9642.9 X118.19 Y100.588
M204 S500
M205 X5 Y5
G1 F1500 X114.807 Y103.97 E38.69157
M204 S2812
M205 X18 Y18
G0 F9642.9 X114.807 Y104.465
M204 S500
M205 X5 Y5
G1 F1500 X118.19 Y101.083 E38.71781
M204 S2812
M205 X18 Y18
G0 F9642.9 X118.19 Y101.578
M204 S500
M205 X5 Y5
G1 F1500 X114.807 Y104.96 E38.74406
M204 S2812
M205 X18 Y18
G0 F9642.9 X114.807 Y105.455
M204 S500
M205 X5 Y5
G1 F1500 X118.19 Y102.072 E38.7703
M204 S2812
M205 X18 Y18
G0 F9642.9 X118.19 Y102.567
M204 S500
M205 X5 Y5
G1 F1500 X114.807 Y105.95 E38.79655
M204 S2812
M205 X18 Y18
G0 F9642.9 X114.807 Y106.445
M204 S500
M205 X5 Y5
G1 F1500 X118.19 Y103.062 E38.8228
M204 S2812
M205 X18 Y18
G0 F9642.9 X118.19 Y103.557
M204 S500
M205 X5 Y5
G1 F1500 X114.807 Y106.94 E38.84905
M204 S2812
M205 X18 Y18
G0 F9642.9 X114.91 Y107.333
M204 S500
M205 X5 Y5
G1 F1500 X114.832 Y107.411 E38.84966
M204 S2812
M205 X18 Y18
G0 F9642.9 X115.352 Y106.891
M204 S500
M205 X5 Y5
G1 F1500 X118.19 Y104.052 E38.87168
M204 S2812
M205 X18 Y18
G0 F9642.9 X118.19 Y104.547
M204 S500
M205 X5 Y5
G1 F1500 X116.187 Y106.551 E38.88722
M204 S2812
M205 X18 Y18
G0 F9642.9 X116.699 Y106.534
M204 S500
M205 X5 Y5
G1 F1500 X118.19 Y105.042 E38.8988
M204 S2812
M205 X18 Y18
G0 F9642.9 X118.19 Y105.537
M204 S500
M205 X5 Y5
G1 F1500 X117.106 Y106.622 E38.90721
M204 S2812
M205 X18 Y18
G0 F9642.9 X117.446 Y106.777
M204 S500
M205 X5 Y5
G1 F1500 X118.19 Y106.032 E38.91299
M204 S2812
M205 X18 Y18
G0 F9642.9 X118.19 Y106.527
M204 S500
M205 X5 Y5
G1 F1500 X117.774 Y106.944 E38.91622
M204 S2812
M205 X18 Y18
G0 F9642.9 X117.995 Y107.217
M204 S500
M205 X5 Y5
G1 F1500 X118.19 Y107.022 E38.91773
M204 S2812
M205 X18 Y18
G0 F9642.9 X118.19 Y109.992
M204 S500
M205 X5 Y5
G1 F1500 X114.807 Y113.375 E38.94398
M204 S2812
M205 X18 Y18
G0 F9642.9 X114.807 Y112.88
M204 S500
M205 X5 Y5
G1 F1500 X117.369 Y110.318 E38.96386
M204 S2812
M205 X18 Y18
G0 F9642.9 X116.659 Y110.534
M204 S500
M205 X5 Y5
G1 F1500 X114.807 Y112.385 E38.97823
M204 S2812
M205 X18 Y18
G0 F9642.9 X114.807 Y111.89
M204 S500
M205 X5 Y5
G1 F1500 X116.202 Y110.496 E38.98904
M204 S2812
M205 X18 Y18
G0 F9642.9 X115.786 Y110.416
M204 S500
M205 X5 Y5
G1 F1500 X114.807 Y111.395 E38.99664
M204 S2812
M205 X18 Y18
G0 F9642.9 X114.807 Y110.9
M204 S500
M205 X5 Y5
G1 F1500 X115.476 Y110.231 E39.00183
M204 S2812
M205 X18 Y18
G0 F9642.9 X115.166 Y110.047
M204 S500
M205 X5 Y5
G1 F1500 X114.807 Y110.405 E39.00461
M204 S2812
M205 X18 Y18
G0 F9642.9 X114.807 Y109.91
M204 S500
M205 X5 Y5
G1 F1500 X114.937 Y109.781 E39.00562
M204 S2812
M205 X18 Y18
G0 F9642.9 X118.19 Y110.487
M204 S500
M205 X5 Y5
G1 F1500 X114.807 Y113.87 E39.03187
M204 S2812
M205 X18 Y18
G0 F9642.9 X114.807 Y114.365
M204 S500
M205 X5 Y5
G1 F1500 X118.19 Y110.982 E39.05812
M204 S2812
M205 X18 Y18
G0 F9642.9 X118.19 Y111.477
M204 S500
M205 X5 Y5
G1 F1500 X114.807 Y114.86 E39.08436
M204 S2812
M205 X18 Y18
G0 F9642.9 X114.807 Y115.355
M204 S500
M205 X5 Y5
G1 F1500 X118.19 Y111.972 E39.11061
M204 S2812
M205 X18 Y18
G0 F9642.9 X118.19 Y112.467
M204 S500
M205 X5 Y5
G1 F1500 X114.807 Y115.85 E39.13686
M204 S2812
M205 X18 Y18
G0 F9642.9 X114.807 Y116.345
M204 S500
M205 X5 Y5
G1 F1500 X118.19 Y112.962 E39.16311
M204 S2812
M205 X18 Y18
G0 F9642.9 X118.19 Y113.457
M204 S500
M205 X5 Y5
G1 F1500 X114.807 Y116.84 E39.18936
M204 S2812
M205 X18 Y18
G0 F9642.9 X114.807 Y117.335
M204 S500
M205 X5 Y5
G1 F1500 X118.19 Y113.952 E39.21561
M204 S2812
M205 X18 Y18
G0 F9642.9 X118.19 Y114.447
M204 S500
M205 X5 Y5
G1 F1500 X114.807 Y117.83 E39.24186
M204 S2812
M205 X18 Y18
G0 F9642.9 X114.807 Y118.325
M204 S500
M205 X5 Y5
G1 F1500 X118.191 Y114.941 E39.26811
M204 S2812
M205 X18 Y18
G0 F9642.9 X118.191 Y115.436
M204 S500
M205 X5 Y5
G1 F1500 X114.807 Y118.82 E39.29437
M204 S2812
M205 X18 Y18
G0 F9642.9 X114.807 Y119.315
M204 S500
M205 X5 Y5
G1 F1500 X118.191 Y115.931 E39.32062
M204 S2812
M205 X18 Y18
G0 F9642.9 X118.191 Y116.426
M204 S500
M205 X5 Y5
G1 F1500 X116.024 Y118.593 E39.33744
M204 S2812
M205 X18 Y18
G0 F9642.9 X116.589 Y118.523
M204 S500
M205 X5 Y5
G1 F1500 X118.191 Y116.921 E39.34987
M204 S2812
M205 X18 Y18
G0 F9642.9 X118.191 Y117.416
M204 S500
M205 X5 Y5
G1 F1500 X117.008 Y118.599 E39.35905
M204 S2812
M205 X18 Y18
G0 F9642.9 X117.389 Y118.713
M204 S500
M205 X5 Y5
G1 F1500 X118.191 Y117.911 E39.36527
M204 S2812
M205 X18 Y18
G0 F9642.9 X118.191 Y118.406
M204 S500
M205 X5 Y5
G1 F1500 X117.674 Y118.923 E39.36928
M204 S2812
M205 X18 Y18
G0 F9642.9 X117.958 Y119.134
M204 S500
M205 X5 Y5
G1 F1500 X118.191 Y118.901 E39.37109
M204 S2812
M205 X18 Y18
G0 F9642.9 X115.267 Y108.947
G0 X114.807 Y100.506
M204 S500
M205 X5 Y5
G1 F1500 X116.778 Y98.535 E39.38638
M204 S2812
M205 X18 Y18
G0 F9642.9 X116.311 Y98.507
M204 S500
M205 X5 Y5
G1 F1500 X114.807 Y100.011 E39.39805
M204 S2812
M205 X18 Y18
G0 F9642.9 X114.807 Y99.516
M204 S500
M205 X5 Y5
G1 F1500 X115.867 Y98.456 E39.40628
M204 S2812
M205 X18 Y18
G0 F9642.9 X115.553 Y98.275
M204 S500
M205 X5 Y5
G1 F1500 X114.807 Y99.021 E39.41206
M204 S2812
M205 X18 Y18
G0 F9642.9 X114.807 Y98.526
M204 S500
M205 X5 Y5
G1 F1500 X115.24 Y98.094 E39.41542
M204 S2812
M205 X18 Y18
G0 F9642.9 X114.989 Y97.849
M204 S500
M205 X5 Y5
G1 F1500 X114.807 Y98.031 E39.41683
M204 S2812
M205 X18 Y18
G0 F9642.9 X114.552 Y120.313
M204 S500
M205 X5 Y5
;TYPE:SKIN
G1 F1500 X114.467 Y120.397 E39.41716
M204 S2812
M205 X18 Y18
G0 F9642.9 X114.476 Y120.636
M204 S500
M205 X5 Y5
G1 F1500 X114.762 Y120.35 E39.41827
M204 S2812
M205 X18 Y18
G0 F9642.9 X114.839 Y120.52
M204 S500
M205 X5 Y5
G1 F1500 X114.508 Y120.851 E39.41955
M204 S2812
M205 X18 Y18
G0 F9642.9 X114.556 Y121.051
M204 S500
M205 X5 Y5
G1 F1500 X114.865 Y120.742 E39.42075
M204 S2812
M205 X18 Y18
G0 F9642.9 X114.891 Y120.964
M204 S500
M205 X5 Y5
G1 F1500 X114.609 Y121.246 E39.42185
M204 S2812
M205 X18 Y18
G0 F9642.9 X114.691 Y121.411
M204 S500
M205 X5 Y5
G1 F1500 X114.943 Y121.159 E39.42282
M204 S2812
M205 X18 Y18
G0 F9642.9 X115.041 Y121.309
M204 S500
M205 X5 Y5
G1 F1500 X114.774 Y121.576 E39.42386
M204 S2812
M205 X18 Y18
G0 F9642.9 X114.875 Y121.722
M204 S500
M205 X5 Y5
G1 F1500 X115.139 Y121.458 E39.42488
M204 S2812
M205 X18 Y18
G0 F9642.9 X115.237 Y121.607
M204 S500
M205 X5 Y5
G1 F1500 X114.989 Y121.855 E39.42585
M204 S2812
M205 X18 Y18
G0 F9642.9 X115.102 Y121.99
M204 S500
M205 X5 Y5
G1 F1500 X115.336 Y121.756 E39.42675
M204 S2812
M205 X18 Y18
G0 F9642.9 X115.493 Y121.847
M204 S500
M205 X5 Y5
G1 F1500 X115.242 Y122.098 E39.42773
M204 S2812
M205 X18 Y18
G0 F9642.9 X115.383 Y122.204
M204 S500
M205 X5 Y5
G1 F1500 X115.65 Y121.937 E39.42876
M204 S2812
M205 X18 Y18
G0 F9642.9 X115.807 Y122.028
M204 S500
M205 X5 Y5
G1 F1500 X115.532 Y122.302 E39.42983
M204 S2812
M205 X18 Y18
G0 F9642.9 X115.706 Y122.376
M204 S500
M205 X5 Y5
G1 F1500 X115.964 Y122.118 E39.43083
M204 S2812
M205 X18 Y18
G0 F9642.9 X116.172 Y122.157
M204 S500
M205 X5 Y5
G1 F1500 X115.879 Y122.451 E39.43197
M204 S2812
M205 X18 Y18
G0 F9642.9 X116.08 Y122.497
M204 S500
M205 X5 Y5
G1 F1500 X116.406 Y122.171 E39.43323
M204 S2812
M205 X18 Y18
G0 F9642.9 X116.639 Y122.185
M204 S500
M205 X5 Y5
G1 F1500 X116.29 Y122.534 E39.43459
M204 S2812
M205 X18 Y18
G0 F9642.9 X116.531 Y122.541
M204 S500
M205 X5 Y5
G1 F1500 X116.94 Y122.132 E39.43617
M204 S2812
M205 X18 Y18
G0 F9642.9 X117.127 Y122.439
M204 S500
M205 X5 Y5
G1 F1500 X118.412 Y121.154 E39.44116
M204 S2812
M205 X18 Y18
G0 F9642.9 X118.488 Y120.831
M204 S500
M205 X5 Y5
G1 F1500 X117.91 Y121.41 E39.4434
M204 S2812
M205 X18 Y18
G0 F9642.9 X118.176 Y121.638
M204 S500
M205 X5 Y5
G1 F1500 X117.601 Y122.213 E39.44563
M204 S2812
M205 X18 Y18
G0 F9642.9 X117.377 Y121.942
M204 S500
M205 X5 Y5
G1 F1500 X116.794 Y122.525 E39.44789
M204 S2812
M205 X18 Y18
G0 F9642.9 X118.111 Y120.961
M204 S500
M205 X5 Y5
G1 F1500 X118.522 Y120.55 E39.44949
M204 S2812
M205 X18 Y18
G0 F9642.9 X118.532 Y120.293
M204 S500
M205 X5 Y5
G1 F1500 X118.147 Y120.677 E39.45098
M204 S2812
M205 X18 Y18
G0 F9642.9 X118.147 Y120.43
M204 S500
M205 X5 Y5
G1 F1500 X118.347 Y120.23 E39.45176
M204 S2812
M205 X18 Y18
G0 F9642.9 X118.176 Y120.153
M204 S500
M205 X5 Y5
G1 F1500 X118.147 Y120.182 E39.45187
M204 S2812
M205 X18 Y18
;MESH:NONMESH
G0 F600 X118.147 Y120.182 Z0.47
G0 F9642.9 X117.768 Y96.228
G0 X117.705 Y95.516
;TIME_ELAPSED:147.950682
;LAYER:2
M106 S170
M204 S1000
M205 X10 Y10
;TYPE:WALL-INNER
;MESH:Middle adjusting piece cover.stl
G1 F1800 X117.122 Y95.084 E39.45528
G1 X116.409 Y94.957 E39.45869
G1 X115.714 Y95.166 E39.4621
G1 X115.187 Y95.662 E39.4655
G1 X114.938 Y96.344 E39.46892
G1 X115.022 Y97.065 E39.47233
G1 X115.421 Y97.671 E39.47574
G1 X116.049 Y98.033 E39.47915
G1 X116.773 Y98.076 E39.48256
G1 X117.438 Y97.788 E39.48597
G1 X117.874 Y97.27 E39.48915
G1 X118.03 Y96.841 E39.4913
G1 X118.03 Y96.166 E39.49448
G1 X117.705 Y95.516 E39.49789
M204 S5000
M205 X30 Y30
G0 F15000 X117.469 Y95.714
M204 S1000
M205 X10 Y10
G1 F1800 X117 Y95.367 E39.50064
G1 X116.427 Y95.265 E39.50337
G1 X115.868 Y95.433 E39.50612
G1 X115.444 Y95.832 E39.50886
G1 X115.244 Y96.38 E39.5116
G1 X115.312 Y96.959 E39.51434
G1 X115.633 Y97.447 E39.51709
G1 X116.137 Y97.738 E39.51982
G1 X116.719 Y97.772 E39.52257
G1 X117.254 Y97.541 E39.52531
G1 X117.61 Y97.118 E39.52791
G1 X117.73 Y96.788 E39.52956
G1 X117.73 Y96.237 E39.53215
G1 X117.469 Y95.714 E39.5349
M204 S5000
M205 X30 Y30
G0 F15000 X117.213 Y95.929
M204 S500
M205 X5 Y5
;TYPE:WALL-OUTER
G1 F1200 X116.868 Y95.674 E39.53725
G1 X116.446 Y95.599 E39.5396
G1 X116.035 Y95.722 E39.54196
G1 X115.723 Y96.016 E39.54431
G1 X115.576 Y96.419 E39.54666
G1 X115.626 Y96.845 E39.54902
G1 X115.862 Y97.204 E39.55137
G1 X116.233 Y97.418 E39.55372
G1 X116.661 Y97.443 E39.55607
G1 X117.055 Y97.273 E39.55843
G1 X117.324 Y96.953 E39.56072
G1 X117.405 Y96.731 E39.56202
G1 X117.405 Y96.314 E39.56431
G1 X117.213 Y95.929 E39.56667
M204 S5000
M205 X30 Y30
G0 F15000 X117.053 Y95.811
G0 X117.282 Y95.502
G0 X117.306 Y95.47
G0 X117.768 Y96.228
G0 X115.214 Y108.375
G0 X115.392 Y109.643
M204 S1000
M205 X10 Y10
;TYPE:WALL-INNER
G1 F1800 X116.011 Y110.02 E39.57008
G1 X116.731 Y110.082 E39.57347
G1 X117.407 Y109.812 E39.5769
G1 X117.886 Y109.268 E39.58031
G1 X118.07 Y108.568 E39.58371
G1 X117.922 Y107.86 E39.58711
G1 X117.47 Y107.293 E39.59052
G1 X117.406 Y107.264 E39.59085
G1 X116.814 Y106.989 E39.59392
G1 X116.09 Y107.009 E39.59733
G1 X115.451 Y107.357 E39.60075
G1 X115.065 Y107.914 E39.60394
G1 X114.95 Y108.352 E39.60607
G1 X115.008 Y109.024 E39.60924
G1 X115.392 Y109.643 E39.61266
M204 S5000
M205 X30 Y30
G0 F15000 X115.609 Y109.424
M204 S1000
M205 X10 Y10
G1 F1800 X116.107 Y109.727 E39.6154
G1 X116.686 Y109.777 E39.61814
G1 X117.229 Y109.56 E39.62089
G1 X117.614 Y109.123 E39.62363
G1 X117.762 Y108.56 E39.62636
G1 X117.643 Y107.991 E39.6291
G1 X117.28 Y107.535 E39.63184
G1 X116.752 Y107.291 E39.63457
G1 X116.17 Y107.307 E39.63731
G1 X115.657 Y107.586 E39.64006
G1 X115.342 Y108.041 E39.64266
G1 X115.253 Y108.378 E39.6443
G1 X115.301 Y108.927 E39.64689
G1 X115.609 Y109.424 E39.64964
M204 S5000
M205 X30 Y30
G0 F15000 X115.844 Y109.187
M204 S500
M205 X5 Y5
;TYPE:WALL-OUTER
G1 F1200 X116.211 Y109.41 E39.652
G1 X116.637 Y109.447 E39.65434
G1 X117.036 Y109.287 E39.6567
G1 X117.319 Y108.966 E39.65905
G1 X117.428 Y108.551 E39.6614
G1 X117.341 Y108.133 E39.66375
G1 X117.074 Y107.798 E39.6661
G1 X116.685 Y107.618 E39.66845
G1 X116.257 Y107.63 E39.6708
G1 X115.88 Y107.835 E39.67315
G1 X115.642 Y108.179 E39.67545
G1 X115.582 Y108.406 E39.67673
G1 X115.618 Y108.822 E39.67902
G1 X115.844 Y109.187 E39.68138
M204 S5000
M205 X30 Y30
G0 F15000 X116.015 Y109.29
G0 X115.814 Y109.619
G0 X115.793 Y109.652
G0 X117.705 Y119.516
M204 S1000
M205 X10 Y10
;TYPE:WALL-INNER
G1 F1800 X117.122 Y119.084 E39.68479
G1 X116.409 Y118.957 E39.6882
G1 X115.714 Y119.166 E39.69161
G1 X115.187 Y119.662 E39.69501
G1 X114.938 Y120.344 E39.69843
G1 X115.022 Y121.065 E39.70184
G1 X115.421 Y121.671 E39.70525
G1 X116.049 Y122.033 E39.70866
G1 X116.773 Y122.076 E39.71207
G1 X117.438 Y121.788 E39.71548
G1 X117.874 Y121.27 E39.71867
G1 X118.03 Y120.841 E39.72081
G1 X118.03 Y120.166 E39.72399
G1 X117.705 Y119.516 E39.7274
M204 S5000
M205 X30 Y30
G0 F15000 X117.469 Y119.714
M204 S1000
M205 X10 Y10
G1 F1800 X117 Y119.367 E39.73015
G1 X116.427 Y119.265 E39.73288
G1 X115.868 Y119.433 E39.73563
G1 X115.444 Y119.832 E39.73837
G1 X115.244 Y120.38 E39.74111
G1 X115.312 Y120.959 E39.74385
G1 X115.633 Y121.447 E39.7466
G1 X116.137 Y121.738 E39.74934
G1 X116.719 Y121.772 E39.75208
G1 X117.254 Y121.541 E39.75482
G1 X117.61 Y121.118 E39.75742
G1 X117.73 Y120.788 E39.75907
G1 X117.73 Y120.237 E39.76166
G1 X117.469 Y119.714 E39.76441
M204 S5000
M205 X30 Y30
G0 F15000 X117.213 Y119.929
M204 S500
M205 X5 Y5
;TYPE:WALL-OUTER
G1 F1200 X116.868 Y119.674 E39.76676
G1 X116.446 Y119.599 E39.76911
G1 X116.035 Y119.722 E39.77147
G1 X115.723 Y120.016 E39.77382
G1 X115.576 Y120.419 E39.77617
G1 X115.626 Y120.845 E39.77853
G1 X115.862 Y121.204 E39.78088
G1 X116.233 Y121.418 E39.78323
G1 X116.661 Y121.443 E39.78559
G1 X117.055 Y121.273 E39.78794
G1 X117.324 Y120.953 E39.79023
G1 X117.405 Y120.731 E39.79153
G1 X117.405 Y120.314 E39.79382
G1 X117.213 Y119.929 E39.79618
M204 S5000
M205 X30 Y30
G0 F15000 X117.053 Y119.811
G0 X117.282 Y119.502
G0 X117.306 Y119.47
G0 X118.65 Y120.477
M204 S1000
M205 X10 Y10
;TYPE:WALL-INNER
G1 F1800 X118.585 Y121.028 E39.79879
G1 X118.419 Y121.486 E39.80108
G1 X118.14 Y121.909 E39.80346
G1 X117.784 Y122.245 E39.80576
G1 X117.345 Y122.499 E39.80815
G1 X116.871 Y122.64 E39.81047
G1 X116.374 Y122.67 E39.81282
G1 X115.886 Y122.583 E39.81515
G1 X115.431 Y122.387 E39.81748
G1 X115.027 Y122.085 E39.81985
G1 X114.705 Y121.704 E39.82219
G1 X114.484 Y121.263 E39.82451
G1 X114.365 Y120.756 E39.82696
G1 X114.35 Y120.5 E39.82817
G1 X114.35 Y92.327 E39.96066
G1 X118.65 Y92.327 E39.98088
G1 X118.65 Y120.477 E40.11326
M204 S5000
M205 X30 Y30
G0 F15000 X118.95 Y120.495
M204 S1000
M205 X10 Y10
G1 F1800 X118.879 Y121.097 E40.11611
G1 X118.688 Y121.623 E40.11874
G1 X118.373 Y122.102 E40.12144
G1 X117.964 Y122.488 E40.12408
G1 X117.467 Y122.775 E40.12678
G1 X117.431 Y122.785 E40.12695
G1 X116.924 Y122.937 E40.12944
G1 X116.392 Y122.968 E40.13195
G1 X116.356 Y122.971 E40.13212
G1 X115.8 Y122.872 E40.13478
G1 X115.278 Y122.647 E40.13745
G1 X114.822 Y122.307 E40.14012
G1 X114.477 Y121.897 E40.14264
G1 X114.452 Y121.868 E40.14282
G1 X114.2 Y121.366 E40.14546
G1 X114.066 Y120.797 E40.14821
G1 X114.05 Y120.517 E40.14953
G1 X114.05 Y92.027 E40.28351
G1 X118.95 Y92.027 E40.30655
G1 X118.95 Y120.495 E40.44043
M204 S5000
M205 X30 Y30
G0 F15000 X119.275 Y120.516
M204 S500
M205 X5 Y5
;TYPE:WALL-OUTER
G1 F1200 X119.198 Y121.17 E40.44404
G1 X118.979 Y121.772 E40.44756
G1 X118.625 Y122.311 E40.45109
G1 X118.158 Y122.752 E40.45462
G1 X117.599 Y123.074 E40.45816
G1 X116.981 Y123.259 E40.4617
G1 X116.335 Y123.297 E40.46525
G1 X115.707 Y123.186 E40.46875
G1 X115.113 Y122.929 E40.4723
G1 X114.598 Y122.546 E40.47582
G1 X114.18 Y122.049 E40.47938
G1 X113.893 Y121.477 E40.48289
G1 X113.744 Y120.845 E40.48645
G1 X113.725 Y120.517 E40.48826
G1 X113.725 Y91.702 E40.64635
G1 X119.275 Y91.702 E40.6768
G1 X119.275 Y120.516 E40.83488
M204 S5000
M205 X30 Y30
G0 F15000 X119.252 Y120.714
G0 X118.87 Y120.668
G0 X118.335 Y120.072
M204 S500
M205 X5 Y5
;TYPE:SKIN
G1 F1800 X117.953 Y119.308 E40.83957
G1 X117.25 Y118.787 E40.84437
G1 X116.39 Y118.634 E40.84916
G1 X115.552 Y118.886 E40.85396
G1 X114.916 Y119.484 E40.85875
G1 X114.665 Y120.174 E40.86278
G1 X114.665 Y108.715 E40.92565
G1 X114.701 Y109.127 E40.92792
G1 X115.164 Y109.872 E40.93273
G1 X115.91 Y110.327 E40.93753
G1 X116.779 Y110.403 E40.94231
G1 X117.594 Y110.077 E40.94713
G1 X118.172 Y109.42 E40.95193
G1 X118.335 Y108.798 E40.95546
G1 X118.335 Y120.072 E41.01731
M204 S5000
M205 X30 Y30
G0 F15000 X118.335 Y108.296
M204 S500
M205 X5 Y5
G1 F1800 X118.216 Y107.722 E41.02053
G1 X117.67 Y107.039 E41.02532
G1 X116.879 Y106.672 E41.03011
G1 X116.006 Y106.696 E41.0349
G1 X115.235 Y107.116 E41.03972
G1 X114.775 Y107.78 E41.04415
G1 X114.665 Y108.196 E41.04651
G1 X114.665 Y96.719 E41.10948
G1 X114.718 Y97.176 E41.112
G1 X115.199 Y97.906 E41.1168
G1 X115.956 Y98.343 E41.12159
G1 X116.829 Y98.395 E41.12639
G1 X117.631 Y98.048 E41.13118
G1 X118.151 Y97.43 E41.13562
G1 X118.335 Y96.924 E41.13857
G1 X118.335 Y108.296 E41.20096
M204 S5000
M205 X30 Y30
G0 F15000 X118.335 Y96.072
M204 S500
M205 X5 Y5
G1 F1800 X117.953 Y95.308 E41.20565
G1 X117.25 Y94.787 E41.21045
G1 X116.39 Y94.634 E41.21524
G1 X115.552 Y94.886 E41.22004
G1 X114.916 Y95.484 E41.22483
G1 X114.665 Y96.174 E41.22886
G1 X114.665 Y92.642 E41.24824
G1 X118.335 Y92.642 E41.26837
G1 X118.335 Y96.072 E41.28719
M204 S5000
M205 X30 Y30
G0 F15000 X118.191 Y92.947
M204 S500
M205 X5 Y5
G1 F1800 X118.028 Y92.785 E41.28845
M204 S5000
M205 X30 Y30
G0 F15000 X117.533 Y92.785
M204 S500
M205 X5 Y5
G1 F1800 X118.191 Y93.442 E41.29355
M204 S5000
M205 X30 Y30
G0 F15000 X118.191 Y93.937
M204 S500
M205 X5 Y5
G1 F1800 X117.038 Y92.785 E41.3025
M204 S5000
M205 X30 Y30
G0 F15000 X116.543 Y92.785
M204 S500
M205 X5 Y5
G1 F1800 X118.191 Y94.432 E41.31528
M204 S5000
M205 X30 Y30
G0 F15000 X118.191 Y94.927
M204 S500
M205 X5 Y5
G1 F1800 X116.048 Y92.785 E41.3319
M204 S5000
M205 X30 Y30
G0 F15000 X115.553 Y92.785
M204 S500
M205 X5 Y5
G1 F1800 X117.743 Y94.975 E41.34889
M204 S5000
M205 X30 Y30
G0 F15000 X116.843 Y94.569
M204 S500
M205 X5 Y5
G1 F1800 X115.059 Y92.785 E41.36274
M204 S5000
M205 X30 Y30
G0 F15000 X114.807 Y93.028
M204 S500
M205 X5 Y5
G1 F1800 X116.292 Y94.513 E41.37426
M204 S5000
M205 X30 Y30
G0 F15000 X115.911 Y94.627
M204 S500
M205 X5 Y5
G1 F1800 X114.807 Y93.523 E41.38282
M204 S5000
M205 X30 Y30
G0 F15000 X114.807 Y94.018
M204 S500
M205 X5 Y5
G1 F1800 X115.531 Y94.742 E41.38844
M204 S5000
M205 X30 Y30
G0 F15000 X115.258 Y94.964
M204 S500
M205 X5 Y5
G1 F1800 X114.807 Y94.513 E41.39194
M204 S5000
M205 X30 Y30
G0 F15000 X114.807 Y95.008
M204 S500
M205 X5 Y5
G1 F1800 X115.003 Y95.204 E41.39346
M204 S5000
M205 X30 Y30
G0 F15000 X114.807 Y97.978
M204 S500
M205 X5 Y5
G1 F1800 X118.191 Y101.362 E41.41972
M204 S5000
M205 X30 Y30
G0 F15000 X118.191 Y100.867
M204 S500
M205 X5 Y5
G1 F1800 X115.662 Y98.338 E41.43934
M204 S5000
M205 X30 Y30
G0 F15000 X116.327 Y98.508
M204 S500
M205 X5 Y5
G1 F1800 X118.191 Y100.372 E41.4538
M204 S5000
M205 X30 Y30
G0 F15000 X118.191 Y99.877
M204 S500
M205 X5 Y5
G1 F1800 X116.854 Y98.54 E41.46418
M204 S5000
M205 X30 Y30
G0 F15000 X117.2 Y98.391
M204 S500
M205 X5 Y5
G1 F1800 X118.191 Y99.382 E41.47187
M204 S5000
M205 X30 Y30
G0 F15000 X118.191 Y98.887
M204 S500
M205 X5 Y5
G1 F1800 X117.545 Y98.241 E41.47688
M204 S5000
M205 X30 Y30
G0 F15000 X117.83 Y98.031
M204 S500
M205 X5 Y5
G1 F1800 X118.191 Y98.392 E41.47968
M204 S5000
M205 X30 Y30
G0 F15000 X118.191 Y97.897
M204 S500
M205 X5 Y5
G1 F1800 X118.056 Y97.762 E41.48073
M204 S5000
M205 X30 Y30
G0 F15000 X114.807 Y98.473
M204 S500
M205 X5 Y5
G1 F1800 X118.191 Y101.857 E41.50698
M204 S5000
M205 X30 Y30
G0 F15000 X118.191 Y102.352
M204 S500
M205 X5 Y5
G1 F1800 X114.807 Y98.968 E41.53324
M204 S5000
M205 X30 Y30
G0 F15000 X114.807 Y99.463
M204 S500
M205 X5 Y5
G1 F1800 X118.191 Y102.847 E41.5595
M204 S5000
M205 X30 Y30
G0 F15000 X118.191 Y103.342
M204 S500
M205 X5 Y5
G1 F1800 X114.807 Y99.958 E41.58575
M204 S5000
M205 X30 Y30
G0 F15000 X114.807 Y100.453
M204 S500
M205 X5 Y5
G1 F1800 X118.191 Y103.837 E41.61201
M204 S5000
M205 X30 Y30
G0 F15000 X118.191 Y104.332
M204 S500
M205 X5 Y5
G1 F1800 X114.807 Y100.947 E41.63827
M204 S5000
M205 X30 Y30
G0 F15000 X114.807 Y101.442
M204 S500
M205 X5 Y5
G1 F1800 X118.191 Y104.827 E41.66453
M204 S5000
M205 X30 Y30
G0 F15000 X118.191 Y105.322
M204 S500
M205 X5 Y5
G1 F1800 X114.807 Y101.937 E41.69079
M204 S5000
M205 X30 Y30
G0 F15000 X114.807 Y102.432
M204 S500
M205 X5 Y5
G1 F1800 X118.191 Y105.817 E41.71705
M204 S5000
M205 X30 Y30
G0 F15000 X118.191 Y106.312
M204 S500
M205 X5 Y5
G1 F1800 X114.807 Y102.927 E41.74331
M204 S5000
M205 X30 Y30
G0 F15000 X114.807 Y103.422
M204 S500
M205 X5 Y5
G1 F1800 X118.191 Y106.807 E41.76957
M204 S5000
M205 X30 Y30
G0 F15000 X118.191 Y107.302
M204 S500
M205 X5 Y5
G1 F1800 X114.807 Y103.917 E41.79583
M204 S5000
M205 X30 Y30
G0 F15000 X114.807 Y104.412
M204 S500
M205 X5 Y5
G1 F1800 X116.934 Y106.539 E41.81233
M204 S5000
M205 X30 Y30
G0 F15000 X116.439 Y106.54
M204 S500
M205 X5 Y5
G1 F1800 X114.807 Y104.907 E41.825
M204 S5000
M205 X30 Y30
G0 F15000 X114.807 Y105.402
M204 S500
M205 X5 Y5
G1 F1800 X115.961 Y106.556 E41.83395
M204 S5000
M205 X30 Y30
G0 F15000 X115.64 Y106.73
M204 S500
M205 X5 Y5
G1 F1800 X114.807 Y105.897 E41.84042
M204 S5000
M205 X30 Y30
G0 F15000 X114.807 Y106.392
M204 S500
M205 X5 Y5
G1 F1800 X115.319 Y106.905 E41.84439
M204 S5000
M205 X30 Y30
G0 F15000 X115.05 Y107.13
M204 S500
M205 X5 Y5
G1 F1800 X114.807 Y106.887 E41.84628
M204 S5000
M205 X30 Y30
G0 F15000 X114.807 Y109.857
M204 S500
M205 X5 Y5
G1 F1800 X118.192 Y113.242 E41.87254
M204 S5000
M205 X30 Y30
G0 F15000 X118.192 Y112.747
M204 S500
M205 X5 Y5
G1 F1800 X115.916 Y110.471 E41.8902
M204 S5000
M205 X30 Y30
G0 F15000 X116.459 Y110.519
M204 S500
M205 X5 Y5
G1 F1800 X118.192 Y112.252 E41.90365
M204 S5000
M205 X30 Y30
G0 F15000 X118.192 Y111.757
M204 S500
M205 X5 Y5
G1 F1800 X116.93 Y110.496 E41.91344
M204 S5000
M205 X30 Y30
G0 F15000 X117.284 Y110.355
M204 S500
M205 X5 Y5
G1 F1800 X118.192 Y111.262 E41.92048
M204 S5000
M205 X30 Y30
G0 F15000 X118.192 Y110.767
M204 S500
M205 X5 Y5
G1 F1800 X117.638 Y110.213 E41.92478
M204 S5000
M205 X30 Y30
G0 F15000 X117.883 Y109.964
M204 S500
M205 X5 Y5
G1 F1800 X118.192 Y110.272 E41.92717
M204 S5000
M205 X30 Y30
G0 F15000 X118.192 Y109.777
M204 S500
M205 X5 Y5
G1 F1800 X118.115 Y109.7 E41.92777
M204 S5000
M205 X30 Y30
G0 F15000 X114.807 Y110.352
M204 S500
M205 X5 Y5
G1 F1800 X118.192 Y113.737 E41.95403
M204 S5000
M205 X30 Y30
G0 F15000 X118.192 Y114.232
M204 S500
M205 X5 Y5
G1 F1800 X114.807 Y110.847 E41.9803
M204 S5000
M205 X30 Y30
G0 F15000 X114.807 Y111.342
M204 S500
M205 X5 Y5
G1 F1800 X118.192 Y114.727 E42.00656
M204 S5000
M205 X30 Y30
G0 F15000 X118.192 Y115.222
M204 S500
M205 X5 Y5
G1 F1800 X114.807 Y111.837 E42.03282
M204 S5000
M205 X30 Y30
G0 F15000 X114.807 Y112.332
M204 S500
M205 X5 Y5
G1 F1800 X118.192 Y115.717 E42.05909
M204 S5000
M205 X30 Y30
G0 F15000 X118.192 Y116.212
M204 S500
M205 X5 Y5
G1 F1800 X114.807 Y112.827 E42.08535
M204 S5000
M205 X30 Y30
G0 F15000 X114.807 Y113.322
M204 S500
M205 X5 Y5
G1 F1800 X118.192 Y116.707 E42.11162
M204 S5000
M205 X30 Y30
G0 F15000 X118.192 Y117.202
M204 S500
M205 X5 Y5
G1 F1800 X114.807 Y113.817 E42.13788
M204 S5000
M205 X30 Y30
G0 F15000 X114.807 Y114.312
M204 S500
M205 X5 Y5
G1 F1800 X118.192 Y117.697 E42.16414
M204 S5000
M205 X30 Y30
G0 F15000 X118.192 Y118.192
M204 S500
M205 X5 Y5
G1 F1800 X114.807 Y114.807 E42.19041
M204 S5000
M205 X30 Y30
G0 F15000 X114.807 Y115.302
M204 S500
M205 X5 Y5
G1 F1800 X118.192 Y118.687 E42.21667
M204 S5000
M205 X30 Y30
G0 F15000 X118.192 Y119.182
M204 S500
M205 X5 Y5
G1 F1800 X114.807 Y115.797 E42.24294
M204 S5000
M205 X30 Y30
G0 F15000 X114.807 Y116.292
M204 S500
M205 X5 Y5
G1 F1800 X117.136 Y118.621 E42.26101
M204 S5000
M205 X30 Y30
G0 F15000 X116.533 Y118.513
M204 S500
M205 X5 Y5
G1 F1800 X114.807 Y116.787 E42.2744
M204 S5000
M205 X30 Y30
G0 F15000 X114.807 Y117.282
M204 S500
M205 X5 Y5
G1 F1800 X116.096 Y118.571 E42.2844
M204 S5000
M205 X30 Y30
G0 F15000 X115.716 Y118.686
M204 S500
M205 X5 Y5
G1 F1800 X114.807 Y117.777 E42.29145
M204 S5000
M205 X30 Y30
G0 F15000 X114.807 Y118.272
M204 S500
M205 X5 Y5
G1 F1800 X115.382 Y118.847 E42.29591
M204 S5000
M205 X30 Y30
G0 F15000 X115.127 Y119.087
M204 S500
M205 X5 Y5
G1 F1800 X114.807 Y118.767 E42.2984
M204 S5000
M205 X30 Y30
G0 F15000 X114.807 Y119.262
M204 S500
M205 X5 Y5
G1 F1800 X114.873 Y119.327 E42.29891
M204 S5000
M205 X30 Y30
G0 F15000 X114.636 Y120.329
M204 S500
M205 X5 Y5
;TYPE:SKIN
G1 F1800 X114.841 Y120.534 E42.2997
M204 S5000
M205 X30 Y30
G0 F15000 X114.874 Y120.814
M204 S500
M205 X5 Y5
G1 F1800 X114.467 Y120.407 E42.30128
M204 S5000
M205 X30 Y30
G0 F15000 X114.477 Y120.664
M204 S500
M205 X5 Y5
G1 F1800 X114.907 Y121.094 E42.30295
M204 S5000
M205 X30 Y30
G0 F15000 X114.652 Y121.334
M204 S500
M205 X5 Y5
G1 F1800 X115.684 Y122.366 E42.30695
M204 S5000
M205 X30 Y30
G0 F15000 X115.888 Y122.075
M204 S500
M205 X5 Y5
G1 F1800 X116.358 Y122.545 E42.30877
M204 S5000
M205 X30 Y30
G0 F15000 X116.596 Y122.536
M204 S500
M205 X5 Y5
G1 F1800 X116.221 Y122.161 E42.31023
M204 S5000
M205 X30 Y30
G0 F15000 X116.485 Y122.177
M204 S500
M205 X5 Y5
G1 F1800 X116.83 Y122.522 E42.31157
M204 S5000
M205 X30 Y30
G0 F15000 X117.024 Y122.469
M204 S500
M205 X5 Y5
G1 F1800 X116.748 Y122.193 E42.31264
M204 S5000
M205 X30 Y30
G0 F15000 X116.937 Y122.134
M204 S500
M205 X5 Y5
G1 F1800 X117.215 Y122.412 E42.31372
M204 S5000
M205 X30 Y30
G0 F15000 X117.387 Y122.337
M204 S500
M205 X5 Y5
G1 F1800 X117.109 Y122.059 E42.3148
M204 S5000
M205 X30 Y30
G0 F15000 X117.282 Y121.984
M204 S500
M205 X5 Y5
G1 F1800 X117.543 Y122.246 E42.31581
M204 S5000
M205 X30 Y30
G0 F15000 X117.7 Y122.155
M204 S500
M205 X5 Y5
G1 F1800 X117.454 Y121.909 E42.31676
M204 S5000
M205 X30 Y30
G0 F15000 X117.586 Y121.793
M204 S500
M205 X5 Y5
G1 F1800 X117.83 Y122.037 E42.31771
M204 S5000
M205 X30 Y30
G0 F15000 X117.958 Y121.917
M204 S500
M205 X5 Y5
G1 F1800 X117.699 Y121.659 E42.31871
M204 S5000
M205 X30 Y30
G0 F15000 X117.812 Y121.524
M204 S500
M205 X5 Y5
G1 F1800 X118.077 Y121.789 E42.31974
M204 S5000
M205 X30 Y30
G0 F15000 X118.175 Y121.64
M204 S500
M205 X5 Y5
G1 F1800 X117.925 Y121.39 E42.32071
M204 S5000
M205 X30 Y30
G0 F15000 X118.013 Y121.23
M204 S500
M205 X5 Y5
G1 F1800 X118.274 Y121.491 E42.32172
M204 S5000
M205 X30 Y30
G0 F15000 X118.352 Y121.322
M204 S500
M205 X5 Y5
G1 F1800 X118.079 Y121.048 E42.32279
M204 S5000
M205 X30 Y30
G0 F15000 X118.144 Y120.867
M204 S500
M205 X5 Y5
G1 F1800 X118.418 Y121.14 E42.32385
M204 S5000
M205 X30 Y30
G0 F15000 X118.475 Y120.949
M204 S500
M205 X5 Y5
G1 F1800 X118.147 Y120.622 E42.32512
M204 S5000
M205 X30 Y30
G0 F15000 X118.147 Y120.375
M204 S500
M205 X5 Y5
G1 F1800 X118.501 Y120.728 E42.32649
M204 S5000
M205 X30 Y30
G0 F15000 X118.528 Y120.507
M204 S500
M205 X5 Y5
G1 F1800 X118.269 Y120.249 E42.32749
M204 S5000
M205 X30 Y30
G0 F15000 X118.225 Y120.205
M204 S500
M205 X5 Y5
G1 F1800 X118.175 Y120.155 E42.32769
M204 S5000
M205 X30 Y30
G0 F15000 X118.469 Y120.201
M204 S500
M205 X5 Y5
G1 F1800 X118.532 Y120.264 E42.32793
M204 S5000
M205 X30 Y30
G0 F15000 X117.403 Y121.442
G0 X116.057 Y122.492
M204 S500
M205 X5 Y5
G1 F1800 X114.536 Y120.971 E42.33383
M204 S5000
M205 X30 Y30
;MESH:NONMESH
G0 F600 X114.536 Y120.971 Z0.57
G0 F15000 X115.214 Y108.375
G0 X117.769 Y96.794
G0 X117.705 Y95.516
;TIME_ELAPSED:174.610671
;LAYER:3
M106 S255
M204 S1000
M205 X10 Y10
;TYPE:WALL-INNER
;MESH:Middle adjusting piece cover.stl
G1 F1800 X117.122 Y95.084 E42.33724
G1 X116.409 Y94.957 E42.34065
G1 X115.714 Y95.166 E42.34406
G1 X115.187 Y95.662 E42.34746
G1 X114.938 Y96.344 E42.35088
G1 X115.022 Y97.065 E42.35429
G1 X115.421 Y97.671 E42.3577
G1 X116.049 Y98.033 E42.36111
G1 X116.773 Y98.076 E42.36452
G1 X117.438 Y97.788 E42.36793
G1 X117.874 Y97.27 E42.37112
G1 X118.03 Y96.841 E42.37326
G1 X118.03 Y96.166 E42.37644
G1 X117.705 Y95.516 E42.37985
M204 S5000
M205 X30 Y30
G0 F15000 X117.469 Y95.714
M204 S1000
M205 X10 Y10
G1 F1800 X117 Y95.367 E42.3826
G1 X116.427 Y95.265 E42.38533
G1 X115.868 Y95.433 E42.38808
G1 X115.444 Y95.832 E42.39082
G1 X115.244 Y96.38 E42.39356
G1 X115.312 Y96.959 E42.3963
G1 X115.633 Y97.447 E42.39905
G1 X116.137 Y97.738 E42.40179
G1 X116.719 Y97.772 E42.40453
G1 X117.254 Y97.541 E42.40727
G1 X117.61 Y97.118 E42.40987
G1 X117.73 Y96.788 E42.41152
G1 X117.73 Y96.237 E42.41411
G1 X117.469 Y95.714 E42.41686
M204 S5000
M205 X30 Y30
G0 F15000 X117.213 Y95.929
M204 S500
M205 X5 Y5
;TYPE:WALL-OUTER
G1 F1200 X116.868 Y95.674 E42.41921
G1 X116.446 Y95.599 E42.42156
G1 X116.035 Y95.722 E42.42392
G1 X115.723 Y96.016 E42.42627
G1 X115.576 Y96.419 E42.42862
G1 X115.626 Y96.845 E42.43098
G1 X115.862 Y97.204 E42.43333
G1 X116.233 Y97.418 E42.43568
G1 X116.661 Y97.443 E42.43804
G1 X117.055 Y97.273 E42.44039
G1 X117.324 Y96.953 E42.44268
G1 X117.405 Y96.731 E42.44398
G1 X117.405 Y96.314 E42.44627
G1 X117.213 Y95.929 E42.44863
M204 S5000
M205 X30 Y30
G0 F15000 X117.053 Y95.811
G0 X117.282 Y95.502
G0 X117.306 Y95.47
G0 X117.768 Y96.228
G0 X117.795 Y108.59
G0 X116.722 Y110.085
M204 S1000
M205 X10 Y10
;TYPE:WALL-INNER
G1 F1800 X117.398 Y109.816 E42.45205
G1 X117.881 Y109.277 E42.45545
G1 X118.061 Y108.61 E42.4587
G1 X118.001 Y108.103 E42.4611
G1 X117.727 Y107.547 E42.46402
G1 X117.165 Y107.106 E42.46738
G1 X116.46 Y106.957 E42.47077
G1 X115.757 Y107.141 E42.47418
G1 X115.243 Y107.599 E42.47742
G1 X115.03 Y108.019 E42.47964
G1 X114.952 Y108.361 E42.48129
G1 X115.006 Y109.017 E42.48438
G1 X115.387 Y109.637 E42.4878
G1 X116.002 Y110.015 E42.4912
G1 X116.722 Y110.085 E42.4946
M204 S5000
M205 X30 Y30
G0 F15000 X116.679 Y109.779
M204 S1000
M205 X10 Y10
G1 F1800 X117.222 Y109.563 E42.49735
G1 X117.61 Y109.13 E42.50008
G1 X117.756 Y108.588 E42.50272
G1 X117.709 Y108.189 E42.50461
G1 X117.488 Y107.741 E42.50696
G1 X117.035 Y107.385 E42.50967
G1 X116.467 Y107.265 E42.5124
G1 X115.903 Y107.413 E42.51514
G1 X115.485 Y107.785 E42.51777
G1 X115.314 Y108.122 E42.51955
G1 X115.255 Y108.382 E42.5208
G1 X115.299 Y108.921 E42.52335
G1 X115.605 Y109.419 E42.5261
G1 X116.1 Y109.723 E42.52883
G1 X116.679 Y109.779 E42.53156
M204 S5000
M205 X30 Y30
G0 F15000 X116.632 Y109.448
M204 S500
M205 X5 Y5
;TYPE:WALL-OUTER
G1 F1200 X117.031 Y109.289 E42.53392
G1 X117.316 Y108.971 E42.53626
G1 X117.426 Y108.564 E42.53858
G1 X117.393 Y108.283 E42.54013
G1 X117.229 Y107.951 E42.54216
G1 X116.894 Y107.687 E42.5445
G1 X116.475 Y107.599 E42.54685
G1 X116.061 Y107.708 E42.5492
G1 X115.747 Y107.987 E42.5515
G1 X115.622 Y108.233 E42.55302
G1 X115.583 Y108.405 E42.55398
G1 X115.617 Y108.817 E42.55625
G1 X115.841 Y109.183 E42.55861
G1 X116.206 Y109.407 E42.56096
G1 X116.632 Y109.448 E42.5633
M204 S5000
M205 X30 Y30
G0 F15000 X116.818 Y109.374
G0 X116.959 Y109.732
G0 X116.972 Y109.769
G0 X117.705 Y119.516
M204 S1000
M205 X10 Y10
;TYPE:WALL-INNER
G1 F1800 X117.122 Y119.084 E42.56672
G1 X116.409 Y118.957 E42.57012
G1 X115.714 Y119.166 E42.57353
G1 X115.187 Y119.662 E42.57694
G1 X114.938 Y120.344 E42.58035
G1 X115.022 Y121.065 E42.58377
G1 X115.421 Y121.671 E42.58718
G1 X116.049 Y122.033 E42.59059
G1 X116.773 Y122.076 E42.594
G1 X117.438 Y121.788 E42.5974
G1 X117.874 Y121.27 E42.60059
G1 X118.03 Y120.841 E42.60274
G1 X118.03 Y120.166 E42.60591
G1 X117.705 Y119.516 E42.60933
M204 S5000
M205 X30 Y30
G0 F15000 X117.469 Y119.714
M204 S1000
M205 X10 Y10
G1 F1800 X117 Y119.367 E42.61207
G1 X116.427 Y119.265 E42.61481
G1 X115.868 Y119.433 E42.61755
G1 X115.444 Y119.832 E42.62029
G1 X115.244 Y120.38 E42.62303
G1 X115.312 Y120.959 E42.62578
G1 X115.633 Y121.447 E42.62852
G1 X116.137 Y121.738 E42.63126
G1 X116.719 Y121.772 E42.634
G1 X117.254 Y121.541 E42.63674
G1 X117.61 Y121.118 E42.63934
G1 X117.73 Y120.788 E42.64099
G1 X117.73 Y120.237 E42.64358
G1 X117.469 Y119.714 E42.64633
M204 S5000
M205 X30 Y30
G0 F15000 X117.213 Y119.929
M204 S500
M205 X5 Y5
;TYPE:WALL-OUTER
G1 F1200 X116.868 Y119.674 E42.64869
G1 X116.446 Y119.599 E42.65104
G1 X116.035 Y119.722 E42.65339
G1 X115.723 Y120.016 E42.65574
G1 X115.576 Y120.419 E42.6581
G1 X115.626 Y120.845 E42.66045
G1 X115.862 Y121.204 E42.66281
G1 X116.233 Y121.418 E42.66516
G1 X116.661 Y121.443 E42.66751
G1 X117.055 Y121.273 E42.66986
G1 X117.324 Y120.953 E42.67216
G1 X117.405 Y120.731 E42.67345
G1 X117.405 Y120.314 E42.67574
G1 X117.213 Y119.929 E42.6781
M204 S5000
M205 X30 Y30
G0 F15000 X117.053 Y119.811
G0 X117.282 Y119.502
G0 X117.306 Y119.47
G0 X118.65 Y120.477
M204 S1000
M205 X10 Y10
;TYPE:WALL-INNER
G1 F1800 X118.585 Y121.028 E42.68071
G1 X118.419 Y121.486 E42.683
G1 X118.14 Y121.909 E42.68538
G1 X117.784 Y122.245 E42.68769
G1 X117.345 Y122.499 E42.69007
G1 X116.871 Y122.64 E42.6924
G1 X116.374 Y122.67 E42.69474
G1 X115.886 Y122.583 E42.69707
G1 X115.431 Y122.387 E42.6994
G1 X115.027 Y122.085 E42.70177
G1 X114.705 Y121.704 E42.70412
G1 X114.484 Y121.263 E42.70644
G1 X114.365 Y120.756 E42.70889
G1 X114.35 Y120.5 E42.71009
G1 X114.35 Y92.327 E42.84258
G1 X118.65 Y92.327 E42.8628
G1 X118.65 Y120.477 E42.99518
M204 S5000
M205 X30 Y30
G0 F15000 X118.95 Y120.495
M204 S1000
M205 X10 Y10
G1 F1800 X118.879 Y121.097 E42.99803
G1 X118.688 Y121.623 E43.00066
G1 X118.373 Y122.102 E43.00336
G1 X117.964 Y122.488 E43.006
G1 X117.467 Y122.775 E43.0087
G1 X117.431 Y122.785 E43.00888
G1 X116.924 Y122.937 E43.01137
G1 X116.392 Y122.968 E43.01387
G1 X116.356 Y122.971 E43.01404
G1 X115.8 Y122.872 E43.0167
G1 X115.278 Y122.647 E43.01937
G1 X114.822 Y122.307 E43.02205
G1 X114.477 Y121.897 E43.02457
G1 X114.452 Y121.868 E43.02475
G1 X114.2 Y121.366 E43.02739
G1 X114.066 Y120.797 E43.03014
G1 X114.05 Y120.517 E43.03146
G1 X114.05 Y92.027 E43.16543
G1 X118.95 Y92.027 E43.18848
G1 X118.95 Y120.495 E43.32235
M204 S5000
M205 X30 Y30
G0 F15000 X119.275 Y120.516
M204 S500
M205 X5 Y5
;TYPE:WALL-OUTER
G1 F1200 X119.198 Y121.17 E43.32596
G1 X118.979 Y121.772 E43.32948
G1 X118.625 Y122.311 E43.33302
G1 X118.158 Y122.752 E43.33654
G1 X117.599 Y123.074 E43.34008
G1 X116.981 Y123.259 E43.34362
G1 X116.335 Y123.297 E43.34717
G1 X115.707 Y123.186 E43.35067
G1 X115.113 Y122.929 E43.35422
G1 X114.598 Y122.546 E43.35774
G1 X114.18 Y122.049 E43.3613
G1 X113.893 Y121.477 E43.36482
G1 X113.744 Y120.845 E43.36838
G1 X113.725 Y120.517 E43.37018
G1 X113.725 Y91.702 E43.52827
G1 X119.275 Y91.702 E43.55872
G1 X119.275 Y120.516 E43.71681
M204 S5000
M205 X30 Y30
G0 F15000 X119.252 Y120.714
G0 X118.87 Y120.668
G0 X118.335 Y120.072
M204 S500
M205 X5 Y5
;TYPE:SKIN
G1 F1800 X117.953 Y119.308 E43.72149
G1 X117.25 Y118.787 E43.72629
G1 X116.39 Y118.634 E43.73109
G1 X115.552 Y118.886 E43.73589
G1 X114.916 Y119.484 E43.74068
G1 X114.665 Y120.174 E43.7447
G1 X114.665 Y108.716 E43.80757
G1 X114.698 Y109.118 E43.80978
G1 X115.158 Y109.866 E43.8146
G1 X115.899 Y110.322 E43.81937
G1 X116.768 Y110.406 E43.82416
G1 X117.583 Y110.081 E43.82898
G1 X118.166 Y109.432 E43.83376
G1 X118.335 Y108.804 E43.83733
G1 X118.335 Y120.072 E43.89915
M204 S5000
M205 X30 Y30
G0 F15000 X118.335 Y108.242
M204 S500
M205 X5 Y5
G1 F1800 X118.308 Y108.012 E43.90042
G1 X117.977 Y107.343 E43.90452
G1 X117.302 Y106.812 E43.90923
G1 X116.452 Y106.634 E43.91399
G1 X115.604 Y106.855 E43.9188
G1 X114.989 Y107.404 E43.92332
G1 X114.732 Y107.912 E43.92645
G1 X114.665 Y108.203 E43.92809
G1 X114.665 Y96.719 E43.99109
G1 X114.718 Y97.176 E43.99362
G1 X115.199 Y97.906 E43.99841
G1 X115.956 Y98.343 E44.00321
G1 X116.829 Y98.395 E44.00801
G1 X117.631 Y98.048 E44.0128
G1 X118.151 Y97.43 E44.01723
G1 X118.335 Y96.924 E44.02019
G1 X118.335 Y108.242 E44.08228
M204 S5000
M205 X30 Y30
G0 F15000 X118.335 Y96.072
M204 S500
M205 X5 Y5
G1 F1800 X117.953 Y95.308 E44.08697
G1 X117.25 Y94.787 E44.09177
G1 X116.39 Y94.634 E44.09656
G1 X115.552 Y94.886 E44.10136
G1 X114.916 Y95.484 E44.10615
G1 X114.665 Y96.174 E44.11018
G1 X114.665 Y92.642 E44.12956
G1 X118.335 Y92.642 E44.14969
G1 X118.335 Y96.072 E44.16851
M204 S5000
M205 X30 Y30
G0 F15000 X115.104 Y92.785
M204 S500
M205 X5 Y5
G1 F1800 X114.807 Y93.082 E44.17081
M204 S5000
M205 X30 Y30
G0 F15000 X114.807 Y93.577
M204 S500
M205 X5 Y5
G1 F1800 X115.599 Y92.785 E44.17696
M204 S5000
M205 X30 Y30
G0 F15000 X116.094 Y92.785
M204 S500
M205 X5 Y5
G1 F1800 X114.807 Y94.072 E44.18695
M204 S5000
M205 X30 Y30
G0 F15000 X114.807 Y94.567
M204 S500
M205 X5 Y5
G1 F1800 X116.589 Y92.785 E44.20077
M204 S5000
M205 X30 Y30
G0 F15000 X117.084 Y92.785
M204 S500
M205 X5 Y5
G1 F1800 X114.807 Y95.062 E44.21844
M204 S5000
M205 X30 Y30
G0 F15000 X115.659 Y94.704
M204 S500
M205 X5 Y5
G1 F1800 X117.579 Y92.785 E44.23333
M204 S5000
M205 X30 Y30
G0 F15000 X118.074 Y92.785
M204 S500
M205 X5 Y5
G1 F1800 X116.367 Y94.491 E44.24657
M204 S5000
M205 X30 Y30
G0 F15000 X116.792 Y94.561
M204 S500
M205 X5 Y5
G1 F1800 X118.191 Y93.162 E44.25743
M204 S5000
M205 X30 Y30
G0 F15000 X118.191 Y93.657
M204 S500
M205 X5 Y5
G1 F1800 X117.212 Y94.636 E44.26502
M204 S5000
M205 X30 Y30
G0 F15000 X117.528 Y94.815
M204 S500
M205 X5 Y5
G1 F1800 X118.191 Y94.152 E44.27017
M204 S5000
M205 X30 Y30
G0 F15000 X118.191 Y94.647
M204 S500
M205 X5 Y5
G1 F1800 X117.812 Y95.026 E44.27311
M204 S5000
M205 X30 Y30
G0 F15000 X118.084 Y95.249
M204 S500
M205 X5 Y5
G1 F1800 X118.191 Y95.142 E44.27394
M204 S5000
M205 X30 Y30
G0 F15000 X118.19 Y98.113
M204 S500
M205 X5 Y5
G1 F1800 X114.807 Y101.495 E44.30018
M204 S5000
M205 X30 Y30
G0 F15000 X114.807 Y101.001
M204 S500
M205 X5 Y5
G1 F1800 X117.585 Y98.223 E44.32174
M204 S5000
M205 X30 Y30
G0 F15000 X118.19 Y98.608
M204 S500
M205 X5 Y5
G1 F1800 X114.807 Y101.99 E44.34798
M204 S5000
M205 X30 Y30
G0 F15000 X114.807 Y102.485
M204 S500
M205 X5 Y5
G1 F1800 X118.19 Y99.103 E44.37423
M204 S5000
M205 X30 Y30
G0 F15000 X118.19 Y99.598
M204 S500
M205 X5 Y5
G1 F1800 X114.807 Y102.98 E44.40047
M204 S5000
M205 X30 Y30
G0 F15000 X114.807 Y103.475
M204 S500
M205 X5 Y5
G1 F1800 X118.19 Y100.093 E44.42672
M204 S5000
M205 X30 Y30
G0 F15000 X118.19 Y100.588
M204 S500
M205 X5 Y5
G1 F1800 X114.807 Y103.97 E44.45296
M204 S5000
M205 X30 Y30
G0 F15000 X114.807 Y104.465
M204 S500
M205 X5 Y5
G1 F1800 X118.19 Y101.083 E44.47921
M204 S5000
M205 X30 Y30
G0 F15000 X118.19 Y101.578
M204 S500
M205 X5 Y5
G1 F1800 X114.807 Y104.96 E44.50545
M204 S5000
M205 X30 Y30
G0 F15000 X114.807 Y105.455
M204 S500
M205 X5 Y5
G1 F1800 X118.19 Y102.072 E44.5317
M204 S5000
M205 X30 Y30
G0 F15000 X118.19 Y102.567
M204 S500
M205 X5 Y5
G1 F1800 X114.807 Y105.95 E44.55795
M204 S5000
M205 X30 Y30
G0 F15000 X114.807 Y106.445
M204 S500
M205 X5 Y5
G1 F1800 X118.19 Y103.062 E44.5842
M204 S5000
M205 X30 Y30
G0 F15000 X118.19 Y103.557
M204 S500
M205 X5 Y5
G1 F1800 X114.807 Y106.94 E44.61045
M204 S5000
M205 X30 Y30
G0 F15000 X115.4 Y106.843
M204 S500
M205 X5 Y5
G1 F1800 X118.19 Y104.052 E44.6321
M204 S5000
M205 X30 Y30
G0 F15000 X118.19 Y104.547
M204 S500
M205 X5 Y5
G1 F1800 X116.182 Y106.556 E44.64768
M204 S5000
M205 X30 Y30
G0 F15000 X116.695 Y106.538
M204 S500
M205 X5 Y5
G1 F1800 X118.19 Y105.042 E44.65928
M204 S5000
M205 X30 Y30
G0 F15000 X118.19 Y105.537
M204 S500
M205 X5 Y5
G1 F1800 X117.104 Y106.623 E44.66771
M204 S5000
M205 X30 Y30
G0 F15000 X117.465 Y106.758
M204 S500
M205 X5 Y5
G1 F1800 X118.19 Y106.032 E44.67334
M204 S5000
M205 X30 Y30
G0 F15000 X118.19 Y106.527
M204 S500
M205 X5 Y5
G1 F1800 X117.741 Y106.976 E44.67682
M204 S5000
M205 X30 Y30
G0 F15000 X118.018 Y107.194
M204 S500
M205 X5 Y5
G1 F1800 X118.19 Y107.022 E44.67816
M204 S5000
M205 X30 Y30
G0 F15000 X118.191 Y109.991
M204 S500
M205 X5 Y5
G1 F1800 X114.807 Y113.375 E44.70441
M204 S5000
M205 X30 Y30
G0 F15000 X114.807 Y112.88
M204 S500
M205 X5 Y5
G1 F1800 X117.369 Y110.318 E44.72429
M204 S5000
M205 X30 Y30
G0 F15000 X116.655 Y110.537
M204 S500
M205 X5 Y5
G1 F1800 X114.807 Y112.385 E44.73863
M204 S5000
M205 X30 Y30
G0 F15000 X114.807 Y111.89
M204 S500
M205 X5 Y5
G1 F1800 X116.204 Y110.493 E44.74947
M204 S5000
M205 X30 Y30
G0 F15000 X115.784 Y110.418
M204 S500
M205 X5 Y5
G1 F1800 X114.807 Y111.395 E44.75705
M204 S5000
M205 X30 Y30
G0 F15000 X114.807 Y110.9
M204 S500
M205 X5 Y5
G1 F1800 X115.477 Y110.23 E44.76225
M204 S5000
M205 X30 Y30
G0 F15000 X115.171 Y110.042
M204 S500
M205 X5 Y5
G1 F1800 X114.807 Y110.405 E44.76507
M204 S5000
M205 X30 Y30
G0 F15000 X114.807 Y109.91
M204 S500
M205 X5 Y5
G1 F1800 X114.936 Y109.781 E44.76607
M204 S5000
M205 X30 Y30
G0 F15000 X118.191 Y110.486
M204 S500
M205 X5 Y5
G1 F1800 X114.807 Y113.87 E44.79233
M204 S5000
M205 X30 Y30
G0 F15000 X114.807 Y114.365
M204 S500
M205 X5 Y5
G1 F1800 X118.191 Y110.981 E44.81858
M204 S5000
M205 X30 Y30
G0 F15000 X118.191 Y111.476
M204 S500
M205 X5 Y5
G1 F1800 X114.807 Y114.86 E44.84484
M204 S5000
M205 X30 Y30
G0 F15000 X114.807 Y115.355
M204 S500
M205 X5 Y5
G1 F1800 X118.191 Y111.971 E44.8711
M204 S5000
M205 X30 Y30
G0 F15000 X118.191 Y112.466
M204 S500
M205 X5 Y5
G1 F1800 X114.807 Y115.85 E44.89735
M204 S5000
M205 X30 Y30
G0 F15000 X114.807 Y116.345
M204 S500
M205 X5 Y5
G1 F1800 X118.191 Y112.961 E44.92361
M204 S5000
M205 X30 Y30
G0 F15000 X118.191 Y113.456
M204 S500
M205 X5 Y5
G1 F1800 X114.807 Y116.84 E44.94986
M204 S5000
M205 X30 Y30
G0 F15000 X114.807 Y117.335
M204 S500
M205 X5 Y5
